/* XPM */
static char *_c3adce313c44b00e0a913ebcfaaac45DDNkfNo6bZM8ySBZ[] = {
/* columns rows colors chars-per-pixel */
"64 64 231 2 ",
"   c #4E4955",
".  c #57535A",
"X  c #5F5868",
"o  c #625A6B",
"O  c #6E6E6D",
"+  c #6D6477",
"@  c #716A78",
"#  c #73697D",
"$  c #727272",
"%  c #7A7A7A",
"&  c #786D83",
"*  c #7F748B",
"=  c #82768E",
"-  c #857992",
";  c #897D97",
":  c gray52",
">  c #8C8C8C",
",  c #8E829C",
"<  c #979797",
"1  c #9588A4",
"2  c #9D98A3",
"3  c #9F90AF",
"4  c #A898B9",
"5  c #A4A4A4",
"6  c gray67",
"7  c #BEBFA2",
"8  c #B5B5B5",
"9  c #F6AA99",
"0  c #E1B19D",
"q  c #F7ADA0",
"w  c #EBB8A9",
"e  c #FAB5A9",
"r  c #F6BDB5",
"t  c #F9BEB3",
"y  c #9ECEAB",
"u  c #97DABE",
"i  c #9BDCBE",
"p  c #A9D6B8",
"a  c #BFD3BD",
"s  c #FAED8A",
"d  c #FBEE97",
"f  c #C4CDB7",
"g  c #D8CCBB",
"h  c #E9C4B9",
"j  c #FBC3B5",
"k  c #F9C6BA",
"l  c #FDDAB5",
"z  c #F6ECA8",
"x  c #FDF3AB",
"c  c #EAEAB6",
"v  c #FCEDB5",
"b  c #F9E8B8",
"n  c #FCF2B3",
"m  c #F9F3BE",
"M  c #AF9FC1",
"N  c #B5A4C9",
"B  c #B8A7CC",
"V  c #BDB8C2",
"C  c #B5A9D1",
"Z  c #BEACD2",
"A  c #BCB3D7",
"S  c #BCB9D7",
"D  c #C1AFD5",
"F  c #C5B2DA",
"G  c #C8B5DE",
"H  c #C4BADA",
"J  c #CEBAE4",
"K  c #D3BFEA",
"L  c #99D3C0",
"P  c #9DDFC1",
"I  c #A1CDC6",
"U  c #ACD7C7",
"Y  c #B1DEC3",
"T  c #BCCCDB",
"R  c #9DE1C4",
"E  c #A9E3C6",
"W  c #A3E3CB",
"Q  c #B4E6CA",
"!  c #AAE7D3",
"~  c #ACE6D2",
"^  c #A5E5DA",
"/  c #ABE6DB",
"(  c #B6E6D4",
")  c #BBE9DB",
"_  c #AFD6EF",
"`  c #B8D9EA",
"'  c #AED8F3",
"]  c #B6DCF4",
"[  c #BDDDF3",
"{  c #ACE7E1",
"}  c #B1E6E4",
"|  c #B5EAE4",
" . c #BCE9E3",
".. c #B6E9ED",
"X. c #BAE9EC",
"o. c #BCE7F2",
"O. c #BCEAF2",
"+. c gray80",
"@. c #DDCFCD",
"#. c #D5DACC",
"$. c #CCC3DD",
"%. c #CAC9DA",
"&. c #DECFDF",
"*. c #C3DCDA",
"=. c #CCDADD",
"-. c #D6D8D7",
";. c #DADCDC",
":. c #E6CEC8",
">. c #F3CBC3",
",. c #F5C8C4",
"<. c #FACCC5",
"1. c #EED2CD",
"2. c #FBD2C6",
"3. c #FBD8CD",
"4. c #E6CED2",
"5. c #E6DBD6",
"6. c #F6DDD4",
"7. c #FDDCD6",
"8. c #FCDCDD",
"9. c #CDEECB",
"0. c #D9E4C8",
"q. c #C7E3DF",
"w. c #CBE6DB",
"e. c #C1EADC",
"r. c #D7E5D8",
"t. c #DAEADD",
"y. c #D6F0D0",
"u. c #F4E9C5",
"i. c #F2EBC9",
"p. c #F9E8C8",
"a. c #F4F4C7",
"s. c #E7E4DA",
"d. c #F3E5D9",
"f. c #F9E8DA",
"g. c #E8F2D8",
"h. c #F0F4D4",
"j. c #F9F4D4",
"k. c #F2F6DD",
"l. c #FBF1DC",
"z. c #CDC5E1",
"x. c #CECEE2",
"c. c #D5CBE4",
"v. c #D5C1EC",
"b. c #C7D3E3",
"n. c #D4D5E2",
"m. c #DAD6E4",
"M. c #DCD4EB",
"N. c #DDDBEC",
"B. c #DAC5F2",
"V. c #DEC9F6",
"C. c #CEDCF0",
"Z. c #D7DAF0",
"A. c #DADBF1",
"S. c #EBDCE5",
"D. c #E1D5EF",
"F. c #E2DCEC",
"G. c #E9DDEC",
"H. c #F4DDE4",
"J. c #E4CEFD",
"K. c #E1D7F0",
"L. c #E4DCF1",
"P. c #E8DAF0",
"I. c #E6D1FD",
"U. c #E8D6FD",
"Y. c #EBDBFE",
"T. c #C8E8E5",
"R. c #C6E7EC",
"E. c #C3EAED",
"W. c #CCEBEB",
"Q. c #D2E4E4",
"!. c #D3EDE7",
"~. c #DDEBE4",
"^. c #D1E5EC",
"/. c #DBE6ED",
"(. c #D1EAE9",
"). c #DDECEC",
"_. c #C9F1ED",
"`. c #DCF0E7",
"'. c #D3F0ED",
"]. c #DCF1EB",
"[. c #C4E5F4",
"{. c #CCE5F4",
"}. c #C3EAF4",
"|. c #CCECF4",
" X c #CEECF8",
".X c #DBE4F2",
"XX c #D3ECF4",
"oX c #DBECF5",
"OX c #D4EAF8",
"+X c #DBEAF8",
"@X c #D9F1F6",
"#X c #E4E3E2",
"$X c #EBE5E5",
"%X c #E8ECE3",
"&X c #E3E3EA",
"*X c #ECE3EE",
"=X c #E4EBED",
"-X c #EBEBEC",
";X c #FAE1E4",
":X c #F8E7E6",
">X c #F6EDE3",
",X c #F5E4EC",
"<X c #FDE5EA",
"1X c #F4EBEE",
"2X c #FBEBEE",
"3X c #E5F4ED",
"4X c #EBF3E8",
"5X c #F5F6E4",
"6X c #FBF5E4",
"7X c #FCF1EB",
"8X c #F8F7EB",
"9X c #E6E4F4",
"0X c #EAE4F3",
"qX c #E3EAF4",
"wX c #EDE9F2",
"eX c #EFE1FE",
"rX c #E7EEF8",
"tX c #F7EBF3",
"yX c #F1E5FE",
"uX c #F4EBFE",
"iX c #E5F6F3",
"pX c #EBF5F5",
"aX c #E6F8F5",
"sX c #EBF7F8",
"dX c #F3F2F4",
"fX c #F2FBF5",
"gX c #FEFCF3",
"hX c #F5F3FB",
"jX c #F9F5FD",
"kX c #F5FBFB",
"lX c #FFFFFF",
/* pixels */
"A u.x p.e 7 ! .XC.XX{._.T $.n n 2.q y T.Z.{.{.{.E.S 5.x m j 0 i XXC.XX[.|.T.A u.x p.e 7 ! .XC.XX{._.T H n n 2.9 y T.Z.{.{.{.E.x.",
"$.~.i.6.3.a ! }.XX( !.9Xz.$.g.p.;X>.U | }.'.~ qX9XH m.h.6.8.g R X.|.T.) rXM.H ~.i.6.3.f ! }.XX( !.9Xz.$.g.p.;X>.p | }.'.~ oX9XF.",
"tXP !.|.R./ } =Xg.u x.L.L.~.u ).}.R.^ X.>X9.I N.K.0X( Q oX}. .{ W.l.E T L.D.wXP !.|.R.} } =Xh.i x.L.L.).u ).}.R.^ ..>X9.I M.L.hX",
" Xe.W ..|.oX}.>.6.;.A F.qX|.( / ..+X|.^.k d.%.$.*XOXW.W { O.qX}.5.2.s.H c.0X{.e.W ..}.oX}.>.6.;.A F.qX|.( / ..+XOX^.k d.%.H *XqX",
"/.9XqX/.O.OX' 4.j b S.>.w /.9X=X|.}.{.` k l u.G.r h oX9X=X}.|.] b.j b d.S.q -.qXqX/.O.OX' 4.j v S.>.w /.9X=X|.}.{.` ,.l u.G.r 1.",
"-.G.%X#X|.oX` c j.5X<X<.w ;.*Xt.-X|.+X*.n k.7X;Xe h F.-Xt.oXXX{.0.a.5X2X8.9 #.G.%X#X|.@X` c j.5X<X<.w ;.*Xt.-X|.+X*.v k.7X;Xt f.",
").,Xr.e.5X6Xl.d i.hX2X).!./.,XQ `.5X7Xp.d 4XhX1X).W.9X$XQ 4X6X2Xx z pX2X=X!.W.,Xr.e.5X6Xl.d i.hX2X).!./.,XQ `.5X7Xp.d 4XhX1X).].",
"lXlXlXkXlXlXlXgXlXlXlXlXkXlXlXkXkXlXlXlXgXlXlXlXlXkXlXlXkXlXlXlXgXgXlXlXlXkXlXlXlXkXlXlXlXgXlXlXlXlXkXlXlXlXkXlXlXlXgXlXlXlXlXlX",
"lXlXlXlXlXlXlXlXlXlXlXlXlXlXlXlXlXlXlXlXlXlXlXlXlXlXlXlXlXlXlXlXlXjXuXuXyXuXuXhXjXlXlXlXlXlXlXlXlXlXlXlXlXlXlXlXlXlXlXlXlXlXlXlX",
"lXlXlXlXlXlXlXlXlXlXlXlXlXlXlXlXlXlXlXlXlXlXlXlXlXlXlXlXlXlXuXY.U.I.J.J.J.J.J.J.I.Y.uXjXlXlXlXlXlXlXlXlXlXlXlXlXlXlXlXlXlXlXlXlX",
"lXlXlXlXlXlXlXlXlXlXlXlXlXlXlXlXlXlXlXlXlXlXlXlXlXlXlXjXuXU.J.J.J.J.J.J.J.J.J.J.J.J.J.I.eXjXlXlXlXlXlXlXlXlXlXlXlXlXlXlXlXlXlXlX",
"lXlXlXlXlXlXlXlXlXlXlXlXlXlXlXlXlXlXlXlXlXlXlXlXlXlXhXY.J.J.J.J.J.J.J.J.J.J.J.J.J.J.J.J.J.U.uXlXlXlXlXlXlXlXlXlXlXlXlXlXlXlXlXlX",
"lXlXlXlXlXlXlXlXlXlXlXlXlXlXlXlXlXlXlXlXlXlXlXlXlXuXI.J.J.J.J.J.J.J.J.J.J.J.J.J.J.J.J.J.J.J.J.Y.kXlXlXlXlXlXlXlXlXlXlXlXlXlXlXlX",
"lXlXlXlXlXlXlXlXlXlXlXlXlXlXlXlXlXlXlXlXlXlXlXlXyXJ.J.J.J.J.J.J.J.J.J.J.J.J.J.J.J.J.J.J.J.J.J.J.Y.jXlXlXlXlXlXlXlXlXlXlXlXlXlXlX",
"lXlXlXlXlXlXlXlXlXlXlXlXlXlXlXlXlXlXlXlXlXlXlXeXJ.J.J.J.J.J.J.J.J.J.J.J.J.J.J.J.J.J.J.J.J.J.J.J.J.Y.jXlXlXlXlXlXlXlXlXlXlXlXlXlX",
"lXlXlXlXlXlXlXlXlXlXlXlXlXlXlXlXlXlXlXlXlXlXyXJ.J.J.J.J.J.J.J.J.J.J.J.J.J.J.J.J.J.J.J.J.J.J.J.J.J.J.Y.lXlXlXlXlXlXlXlXlXlXlXlXlX",
"lXlXlXlXlXlXlXlXlXlXlXlXlXlXlXlXlXlXlXlXlXuXI.J.J.J.J.J.J.J.J.J.J.J.J.J.J.J.J.J.J.J.J.J.J.J.J.J.J.J.J.eXlXlXlXlXlXlXlXlXlXlXlXlX",
"lXlXlXlXlXlXlXlXlXlXlXlXlXlXlXlXlXlXlXlXjXU.J.J.J.J.J.J.J.J.J.J.J.J.J.J.J.J.J.J.J.J.J.J.J.J.J.J.J.J.J.I.uXlXlXlXlXlXlXlXlXlXlXlX",
"lXlXlXlXlXlXlXlXlXlXlXlXlXlXlXlXlXlXlXlXeXJ.J.J.J.J.J.J.J.J.J.J.J.J.J.J.J.J.J.J.J.J.J.J.J.J.J.J.J.J.J.J.U.kXlXlXlXlXlXlXlXlXlXlX",
"lXlXlXlXlXlXlXlXlXlXlXlXlXlXlXlXlXlXlXjXI.J.J.J.J.J.J.J.J.J.J.J.J.J.J.J.J.J.J.J.J.J.J.J.J.J.J.J.J.J.J.J.J.yXlXlXlXlXlXlXlXlXlXlX",
"lXlXlXlXlXlXlXlXlXlXlXlXlXlXlXlXlXlXlXY.J.J.J.J.J.J.J.J.J.J.J.J.J.J.J.J.J.J.J.J.J.J.J.J.J.J.J.J.J.J.J.J.J.U.jXlXlXlXlXlXlXlXlXlX",
"lXlXlXlXlXlXlXlXlXlXlXlXlXlXlXlXlXlXjXI.J.J.J.J.J.J.J.J.J.J.J.J.J.J.J.J.J.J.J.J.J.J.J.J.J.J.J.J.J.J.J.J.J.J.yXlXlXlXlXlXlXlXlXlX",
"lXlXlXlXlXlXlXlXlXlXlXlXlXlXlXlXlXlXyXJ.J.J.J.J.J.J.J.J.J.J.J.J.J.J.J.J.J.J.J.J.J.J.J.J.J.J.J.J.J.J.J.J.J.J.Y.lXlXlXlXlXlXlXlXlX",
"lXlXlXlXlXlXlXlXlXlXlXlXlXlXlXlXlXlXU.J.J.J.J.J.J.J.J.J.J.J.J.J.J.J.J.J.J.J.J.J.J.J.J.J.J.J.J.J.J.J.J.J.J.J.I.hXlXlXlXlXlXlXlXlX",
"lXlXlXlXlXlXlXlXlXlXlXlXlXlXlXlXlXjXI.J.J.J.J.J.J.J.J.J.J.J.J.J.J.J.J.J.J.J.J.J.J.J.J.J.J.J.J.J.J.J.J.J.J.J.J.yXlXlXlXlXlXlXlXlX",
"lXlXlXlXlXlXlXlXlXlXlXlXlXlXlXlXlXyXJ.J.J.J.J.J.J.J.J.J.J.J.J.J.J.J.J.J.J.J.J.J.J.J.J.J.J.J.J.J.J.J.J.J.J.J.J.Y.lXlXlXlXlXlXlXlX",
"lXlXlXlXlXlXlXlXlXlXlXlXlXlXlXlXlXY.J.J.J.J.J.J.J.J.J.J.J.J.J.J.J.J.J.J.J.J.J.J.J.J.J.J.J.J.J.J.J.J.J.J.J.J.J.I.jXlXlXlXlXlXlXlX",
"lXlXlXlXlX#X-XlXlXlXlXlXlXlXlX;.dXU.J.J.J.J.I.J.J.J.J.J.J.J.J.J.D K J.J.J.J.v.B.Z Z J.B.J.J.J.J.J.J.J.J.J.J.J.I.hXlXlXlXlXlXlXlX",
"lXlXlXlX;.% > lXlXlXkXlXlX-.+.< hXU.J.V.J.J.Z G V.J.J.J.J.v.v.J.- J J.J.J = @ 3 , F D 4 B.v.J.J.J.J.J.J.J.J.J.J.uXlXlXlXlXlXlXlX",
"lXlXlXlX5 : $ ;.dX< 5 dX6 < 5 < V v., , V.3 - 4 & B I.J.B.& - 4 . 1 F I.; + Z v.- V.D D - # V.J.J.J.J.J.J.J.J.J.uXlXlXlXlXlXlXlX",
"lXlXlXlX> : % > 5 % : 8 . #X: O @ ; # # M   N - o 3 Z J.B X 1   & G V.J.# * B F 1 v.& 3 X ; B J.J.J.J.J.J.J.J.J.yXlXlXlXlXlXlXlX",
"lXlXlXlX8 : : +.% > % % < kX$ O 2 + - & # = N + - # N I.B # 1 # N I.J.J.1 + 4 F # = # 4 o - B J.J.J.J.J.J.J.J.J.eXlXlXlXlXlXlXlX",
"lXlXlXlX-X+.dXlX-.dXdX-X-XlX;.;.uXF v.B.K K B.D V.v.J.J.V.M D G B.J.J.J.B.G J.J.N G v.V.Z K J.J.J.J.J.J.J.J.J.J.yXlXlXlXlXlXlXlX",
"lXlXlXlXlXlXlXlXlXlXlXlXlXlXlXlXjXI.J.J.J.J.J.I.J.J.J.J.J.I.I.J.J.J.J.J.J.J.J.J.I.J.J.J.I.J.J.J.J.J.J.J.J.J.J.J.yXlXlXlXlXlXlXlX",
"lXlXlXlXlXlXlXlXlXlXlXlXlXlXlXlXjXI.J.J.J.J.J.J.J.J.J.J.J.J.J.J.J.J.J.J.J.J.J.J.J.J.J.J.J.J.J.J.J.J.J.J.J.J.J.J.uXlXlXlXlXlXlXlX",
"lXlXlXlXlXlXlXlXlXlXlXlXlXlXlXlXjXI.J.J.J.J.J.J.J.J.J.J.J.J.J.J.J.J.J.J.J.J.J.J.J.J.J.J.J.J.J.J.J.J.J.J.J.J.J.J.uXlXlXlXlXlXlXlX",
"lXlXlXlXlXlXlXlXlXlXlXlXlXlXlXlXlXY.J.J.J.J.J.J.J.J.J.J.J.J.J.J.J.J.J.J.J.J.J.J.J.J.J.J.J.J.J.J.J.J.J.J.J.J.J.I.jXlXlXlXlXlXlXlX",
"lXlXlXlXlXlXlXlXlXlXlXlXlXlXlXlXlXY.J.J.J.J.J.J.J.J.J.J.J.J.J.J.J.J.J.J.J.J.J.J.J.J.J.J.J.J.J.J.J.J.J.J.J.J.J.U.kXlXlXlXlXlXlXlX",
"lXlXlXlXlXlXlXlXlXlXlXlXlXlXlXlXlXuXJ.J.J.J.J.J.J.J.J.J.J.J.J.J.J.J.J.J.J.J.J.J.J.J.J.J.J.J.J.J.J.J.J.J.J.J.J.Y.lXlXlXlXlXlXlXlX",
"lXlXlXlXlXlXlXlXlXlXlXlXlXlXlXlXlXhXI.J.J.J.J.J.J.J.J.J.J.J.J.J.J.J.J.J.J.J.J.J.J.J.J.J.J.J.J.J.J.J.J.J.J.J.J.yXlXlXlXlXlXlXlXlX",
"lXlXlXlXlXlXlXlXlXlXlXlXlXlXlXlXlXlXU.J.J.J.J.J.J.J.J.J.J.J.J.J.J.J.J.J.J.J.J.J.J.J.J.J.J.J.J.J.J.J.J.J.J.J.I.jXlXlXlXlXlXlXlXlX",
"lXlXlXlXlXlXlXlXlXlXlXlXlXlXlXlXlXlXyXJ.J.J.J.J.J.J.J.J.J.J.J.J.J.J.J.J.J.J.J.J.J.J.J.J.J.J.J.J.J.J.J.J.J.J.Y.lXlXlXlXlXlXlXlXlX",
"lXlXlXlXlXlXlXlXlXlXlXlXlXlXlXlXlXlXjXI.J.J.J.J.J.J.J.J.J.J.J.J.J.J.J.J.J.J.J.J.J.J.J.J.J.J.J.J.J.J.J.J.J.J.yXlXlXlXlXlXlXlXlXlX",
"lXlXlXlXlXlXlXlXlXlXlXlXlXlXlXlXlXlXlXY.J.J.J.J.J.J.J.J.J.J.J.J.J.J.J.J.J.J.J.J.J.J.J.J.J.J.J.J.J.J.J.J.J.U.kXlXlXlXlXlXlXlXlXlX",
"lXlXlXlXlXlXlXlXlXlXlXlXlXlXlXlXlXlXlXjXI.J.J.J.J.J.J.J.J.J.J.J.J.J.J.J.J.J.J.J.J.J.J.J.J.J.J.J.J.J.J.J.J.yXlXlXlXlXlXlXlXlXlXlX",
"lXlXlXlXlXlXlXlXlXlXlXlXlXlXlXlXlXlXlXlXeXJ.J.J.J.J.J.J.J.J.J.J.J.J.J.J.J.J.J.J.J.J.J.J.J.J.J.J.J.J.J.J.U.lXlXlXlXlXlXlXlXlXlXlX",
"lXlXlXlXlXlXlXlXlXlXlXlXlXlXlXlXlXlXlXlXkXU.J.J.J.J.J.J.J.J.J.J.J.J.J.J.J.J.J.J.J.J.J.J.J.J.J.J.J.J.J.I.uXlXlXlXlXlXlXlXlXlXlXlX",
"lXlXlXlXlXlXlXlXlXlXlXlXlXlXlXlXlXlXlXlXlXuXI.J.J.J.J.J.J.J.J.J.J.J.J.J.J.J.J.J.J.J.J.J.J.J.J.J.J.J.J.eXlXlXlXlXlXlXlXlXlXlXlXlX",
"lXlXlXlXlXlXlXlXlXlXlXlXlXlXlXlXlXlXlXlXlXlXyXJ.J.J.J.J.J.J.J.J.J.J.J.J.J.J.J.J.J.J.J.J.J.J.J.J.J.J.Y.lXlXlXlXlXlXlXlXlXlXlXlXlX",
"lXlXlXlXlXlXlXlXlXlXlXlXlXlXlXlXlXlXlXlXlXlXlXyXJ.J.J.J.J.J.J.J.J.J.J.J.J.J.J.J.J.J.J.J.J.J.J.J.J.Y.kXlXlXlXlXlXlXlXlXlXlXlXlXlX",
"lXlXlXlXlXlXlXlXlXlXlXlXlXlXlXlXlXlXlXlXlXlXlXlXyXJ.J.J.J.J.J.J.J.J.J.J.J.J.J.J.J.J.J.J.J.J.J.J.Y.jXlXlXlXlXlXlXlXlXlXlXlXlXlXlX",
"lXlXlXlXlXlXlXlXlXlXlXlXlXlXlXlXlXlXlXlXlXlXlXlXlXuXI.J.J.J.J.J.J.J.J.J.J.J.J.J.J.J.J.J.J.J.J.eXlXlXlXlXlXlXlXlXlXlXlXlXlXlXlXlX",
"lXlXlXlXlXlXlXlXlXlXlXlXlXlXlXlXlXlXlXlXlXlXlXlXlXlXjXY.J.J.J.J.J.J.J.J.J.J.J.J.J.J.J.J.J.U.uXlXlXlXlXlXlXlXlXlXlXlXlXlXlXlXlXlX",
"lXlXlXlXlXlXlXlXlXlXlXlXlXlXlXlXlXlXlXlXlXlXlXlXlXlXlXlXuXU.J.J.J.J.J.J.J.J.J.J.J.J.J.U.yXjXlXlXlXlXlXlXlXlXlXlXlXlXlXlXlXlXlXlX",
"lXlXlXlXlXlXlXlXlXlXlXlXlXlXlXlXlXlXlXlXlXlXlXlXlXlXlXlXlXlXuXeXU.I.J.J.J.J.J.I.U.Y.uXjXlXlXlXlXlXlXlXlXlXlXlXlXlXlXlXlXlXlXlXlX",
"lXlXlXlXlXlXlXlXlXlXlXlXlXlXlXlXlXlXlXlXlXlXlXlXlXlXlXlXlXlXlXlXlXjXuXuXuXuXuXjXkXlXlXlXlXlXlXlXlXlXlXlXlXlXlXlXlXlXlXlXlXlXlXlX",
"lXlX8XfXkXkXfXiXjXhXkXsXiXsXgXgXfXkXlXiXpXkXjXkXsXaXlX8XfXkXkXkX3XkXjXkXkXaXaXlXgXfXkXlXfX3XjXjXkXsXaXfXgX8XfXkXlXaXpXjXhXkXsXiX",
"wXm.v a.6.r p ) K.A.OX[.{ b.5.n h.<.h i (.A..X{.E.} x.u.m h.k g W .XA.oX{.| ` m.v a.d.r p ) L.A.+X[.} b.5.n h.<.h i (.A..X{.E.} ",
"9X$.h.b 7.j p  .}.|.) @X9XA n.a.b 7.w P E.}.W.e.rXN.C %Xv p.<.f W }.|. .W.rXz.H h.b 7.j p  .}.|.) @X9XA n.a.b 7.w P E.}.W.) rX9X",
"wX&XE -X{.Q.^ X.4Xy.L N.K.P.w.( qX^.q.^ }.5XQ U L.M.*XE ~..X^.( { oXk.i =.L.D.&XE -X{.Q.^ ..4Xy.u N.K.P.w.( qX^.q.^ }.5XQ U L.K.",
"hXXXR / ..{.}.R.2.g.%.z.9X+XT.R | O.XXO.;.3.t.S M.9XoX~ W X.}.XXO.1.d.=.H F.qXOXR ! ..{.}.R.2.g.%.z.9X+XT.R | O.oXO.;.3.t.S M.0X",
"hXXXqX(.E.|.OX[ r k i.c.,.@.+X/.W.o.oX[.n.e l 5.&.k =.qX^.R.O.@X] :.t b m.4.h ^.qX(.E.|.OX[ r k i.c.,.@.+X/.W.o.@X[.n.e l 5.&.k ",
"d.#X0X-X-X}.{.` u.j.l.<Xe w &XwX$XoX}.[ *.p.j.:X8.9 :.9X-X$X|.|._ 0.j.j.<X<.9 5.0X-X-X}.{.` u.j.l.<Xe w &XwX$XoX}.[ *.p.j.:X8.9 ",
"3X^.H.Y ].4X7Xu.s g.dX,Xs.w.N.s.E iXk.1Xz d pX2X$Xs.T.G.#.) 3X6X>Xs c sX<X#Xr.Q.H.Y `.4X7Xi.s g.hX,Xs.w.N.5.E iXk.1Xz d pX2X$Xs."
};
