/* XPM */
static char *_6ad809c803648d3862b4d32c4629d04CaYNnYM39oeD75rI[] = {
/* columns rows colors chars-per-pixel */
"64 64 227 2 ",
"   c #020202",
".  c #0D0D0D",
"X  c #131313",
"o  c #1B1B1B",
"O  c #232323",
"+  c #2C2C2C",
"@  c #343434",
"#  c #3B3B3B",
"$  c gray27",
"%  c #4B4B4B",
"&  c #535353",
"*  c #5C5C5C",
"=  c #646464",
"-  c #6B6B6B",
";  c #747474",
":  c #7B7B7B",
">  c #838383",
",  c #8B8B8B",
"<  c #939393",
"1  c #9C9C9C",
"2  c #A3A3A3",
"3  c #ABABAB",
"4  c #BEBFA2",
"5  c #B4B4B4",
"6  c #BBBBBB",
"7  c #F6AA99",
"8  c #E1B19D",
"9  c #F7ADA0",
"0  c #EBB8A9",
"q  c #FAB5A9",
"w  c #F6BCB4",
"e  c #F9BEB3",
"r  c #F5BFB8",
"t  c #9ECEAB",
"y  c #97DABE",
"u  c #9BDCBE",
"i  c #A9D6B8",
"p  c #BFD3BD",
"a  c #FAED8A",
"s  c #FBEE97",
"d  c #C4CDB7",
"f  c #D8CCBB",
"g  c #E9C4B9",
"h  c #FBC3B5",
"j  c #F9C2B9",
"k  c #FAC9BA",
"l  c #FDDAB5",
"z  c #F6ECA8",
"x  c #FDF3AB",
"c  c #EAEAB6",
"v  c #FBE5B4",
"b  c #FCEDB5",
"n  c #F8E9BA",
"m  c #FCF2B3",
"M  c #F9F3BE",
"N  c #B5A9D1",
"B  c #BCB3D7",
"V  c #BCB9D7",
"C  c #C6BDD7",
"Z  c #C4BADA",
"A  c #99D3C0",
"S  c #9DDFC1",
"D  c #A1CDC6",
"F  c #ACD7C7",
"G  c #B1DEC3",
"H  c #BCCCDB",
"J  c #9DE1C4",
"K  c #A9E3C6",
"L  c #A3E3CB",
"P  c #B6E6C8",
"I  c #B2E5CC",
"U  c #ACE6D2",
"Y  c #ADE8D4",
"T  c #A5E5DA",
"R  c #ABE6DB",
"E  c #B4E6D5",
"W  c #BAE6D2",
"Q  c #BBE9DB",
"!  c #AFD6EF",
"~  c #B8D9EA",
"^  c #AED8F3",
"/  c #B6DCF4",
"(  c #BDDDF3",
")  c #ACE7E1",
"_  c #B1E6E4",
"`  c #B5EAE4",
"'  c #BCE9E3",
"]  c #B6E9ED",
"[  c #BAE9EC",
"{  c #BCE7F2",
"}  c #BCEAF2",
"|  c #C4C4C4",
" . c #CBCBCB",
".. c #DDCFCD",
"X. c #D5DACC",
"o. c #C5C7DA",
"O. c #CCC3DD",
"+. c #CECADB",
"@. c #DECFDF",
"#. c #C3DCDA",
"$. c #CCDADD",
"%. c #D3D3D3",
"&. c #D6DBD9",
"*. c #DCDCDC",
"=. c #E6CEC8",
"-. c #F3CBC3",
";. c #F5C8C4",
":. c #FACCC5",
">. c #EED2CD",
",. c #FBD2C6",
"<. c #FAD5CB",
"1. c #FBDBCE",
"2. c #E6CED2",
"3. c #E6DBD6",
"4. c #F6DDD2",
"5. c #F5DCD6",
"6. c #FDDCD6",
"7. c #FCDCDD",
"8. c #CDEECB",
"9. c #D9E4C8",
"0. c #C7E3DF",
"q. c #CBE6DB",
"w. c #C1EADC",
"e. c #D7E5D8",
"r. c #DAEADD",
"t. c #D6F0D0",
"y. c #F4E9C5",
"u. c #F2EBC9",
"i. c #F9E8C8",
"p. c #F4F4C7",
"a. c #E3E0D9",
"s. c #ECE1D9",
"d. c #E7EBDC",
"f. c #F3E5D9",
"g. c #F9E8DA",
"h. c #E8F2D8",
"j. c #F0F4D4",
"k. c #F9F4D4",
"l. c #F2F6DD",
"z. c #FBF1DC",
"x. c #CDC5E1",
"c. c #CECEE2",
"v. c #D5CBE4",
"b. c #C7D3E3",
"n. c #D4D5E2",
"m. c #DAD6E4",
"M. c #DCD4EB",
"N. c #DDDBEC",
"B. c #CEDCF0",
"V. c #D7DAF0",
"C. c #DADBF1",
"Z. c #EBDCE5",
"A. c #E1D5EF",
"S. c #E2DCEC",
"D. c #E9DDEC",
"F. c #F4DDE4",
"G. c #E1D7F0",
"H. c #E4DCF1",
"J. c #E8DAF0",
"K. c #C8E4E6",
"L. c #C5EBE5",
"P. c #CCECE2",
"I. c #C6E7EC",
"U. c #C3EAED",
"Y. c #CCEBEB",
"T. c #D2E4E4",
"R. c #D3EDE7",
"E. c #DDEBE4",
"W. c #D1E5EC",
"Q. c #DBE6ED",
"!. c #D1EAE9",
"~. c #DDECEC",
"^. c #C9F1ED",
"/. c #DCF0E7",
"(. c #D3F0ED",
"). c #DCF1EB",
"_. c #C4E5F4",
"`. c #CCE5F4",
"'. c #C3EAF4",
"]. c #CCECF4",
"[. c #CEECF8",
"{. c #DBE4F2",
"}. c #D3ECF4",
"|. c #DBECF5",
" X c #D4EAF8",
".X c #DBEAF8",
"XX c #D9F1F4",
"oX c #DAF0F8",
"OX c #E4E4E3",
"+X c #EBE5E5",
"@X c #E3EBE2",
"#X c #EDEDE4",
"$X c #E3E3EA",
"%X c #ECE3EE",
"&X c #E4EBED",
"*X c #EBECEC",
"=X c #FAE1E4",
"-X c #F8E7E6",
";X c #F6EDE3",
":X c #F5E4EC",
">X c #FDE5EA",
",X c #F4EBEE",
"<X c #FBEBEE",
"1X c #E5F4ED",
"2X c #EBF3E8",
"3X c #F5F6E4",
"4X c #FBF5E4",
"5X c #FCF1EB",
"6X c #F8F7EB",
"7X c #E6E4F4",
"8X c #EAE4F3",
"9X c #E3EAF4",
"0X c #EDE9F2",
"qX c #E7EEF8",
"wX c #F7EBF3",
"eX c #E5F6F4",
"rX c #EBF5F5",
"tX c #E6F8F4",
"yX c #EAF5F8",
"uX c #EEF9FA",
"iX c #F4F4F4",
"pX c #F2FBF5",
"aX c #FEFCF3",
"sX c #F4F4FA",
"dX c #FAF6FB",
"fX c #F5FBFB",
"gX c #FFFFFF",
/* pixels */
"B y.x i.q 4 Y {.B.}.`.^.H O.m m ,.9 t L.V.`.`.`.U.V 3.x M j 8 u }.B.}._.].K.B y.x i.q 4 Y {.B.}.`.^.H C m m ,.7 t L.V.`.`.`.U.c.",
"O.E.u.5.<.p U '.}.E R.7Xx.+.h.i.=X-.F ` '.(.U 9X7XZ m.j.1.7.f J } ].L.Q qXM.Z E.u.5.<.d U '.}.E R.7Xx.+.h.i.=X-.i ` '.(.U |.7XS.",
"wXS P.].I.R _ &Xh.y c.H.H.E.y ~.'.I.T [ ;X8.D N.G.8XW I |.'.' ) Y.z.K H H.A.0XS P.].I._ _ &Xj.u c.H.H.~.y ~.'.I.T [ ;X8.D M.H.sX",
"[.w.L ] ].|.'.-.4.*.B S.9X].E R ] .X].W.k f.+.O.%X XY.L ) } 9X'.3.,.d.C v.8X`.w.L ] '.|.'.-.4.*.B S.9X].E R ] .X XW.k f.+.Z %X9X",
"Q.7X9XQ.}  X^ 2.h b Z.-.0 Q.7X&X`.'.`.~ k l y.D.w g |.7X&X'.]./ b.h v s.Z.9 &.9X9XQ.}  X^ 2.h b Z.-.0 Q.7X&X].'.`.~ ;.l y.D.r >.",
"&.D.@XOX].|.~ c k.3X>X:.0 *.%Xr.*X]..X#.m l.5X=Xq g S.*Xr.|.}.`.9.p.3X<X7.7 X.D.@XOX].XX~ c k.3X>X:.0 *.%Xr.*X]..X#.n l.5X=Xe g.",
"~.:Xe.w.3X4Xz.s u.sX<X~.R.Q.:XI /.3X5Xi.s #XdX,X~.Y.7X+XI 2X4X<Xx z rX<X&XR.Y.:Xe.w.3X4Xz.s u.sX<X~.R.Q.:XW /.3X5Xi.s #XdX,X~.).",
"gXgXgXfXgXgXgXaXgXgXgXgXfXgXgXfXfXgXgXgXaXgXgXgXgXfXgXgXfXgXgXgXaXaXgXgXgXfXgXgXgXfXgXgXgXaXgXgXgXgXfXgXgXgXfXgXgXgXaXgXgXgXgXgX",
"gXgXgXgXgXgXgXgXgXgXgXgXgXgXgXgXgXgXgXgXgXgXgXgXgXgXgXgXgXgXgXgXgXgXgXgXgXgXgXgXgXgXgXgXgXgXgXgXgXgXgXgXgXgXgXgXgXgXgXgXgXgXgXgX",
"gXgXgXgXgXgXgXgXgXgXgXgXgXgXgXgXgXgXgXgXgXgXgXgXgXgXgXgXgXgXgXgXgXgXgXgXgXgXgXgXgXgXgXgXgXgXgXgXgXgXgXgXgXgXgXgXgXgXgXgXgXgXgXgX",
"gXgXgXgXgXgXgXgXgXgXgXgXgXgXgXgXgXgXgXgXgXgXgXgXgXgXgXgXgXgXgXgXgXgXgXgXgXgXgXgXgXgXgXgXgXgXgXgXgXgXgXgXgXgXgXgXgXgXgXgXgXgXgXgX",
"gXgXgXgXgXgXgXgXgXgXgXgXgXgXgXgXgXgXgXgXgXgXgXgXgXgXgXgXgXgXgXgXgXgXgXgXgXgXgXgXgXgXgXgXgXgXgXgXgXgXgXgXgXgXgXgXgXgXgXgXgXgXgXgX",
"gXgXgXgXgXgXgXgXgXgXgXgXgXgXgXgXgXgXgXgXgXgXgXgXgXgXgXgXgXgXgXgXgXgXgXgXgXgXgXgXgXgXgXgXgXgXgXgXgXgXgXgXgXgXgXgXgXgXgXgXgXgXgXgX",
"gXgXgXgXgXgXgXgXgXgXgXgXgXgXgXgXgXgXgXgXgXgXgXgXgXgXgXgXgXgXgXgXgXgXgXgXgXgXgXgXgXgXgXgXgXgXgXgXgXgXgXgXgXgXgXgXgXgXgXgXgXgXgXgX",
"gXgXgXgXgXgXgXgXgXgXgXgXgXgXgXgXgXgXgXgXgXgXgXgXgXgXgXgXgXgXgXgXgXgXgXgXgXgXgXgXgXgXgXgXgXgXgXgXgXgXgXgXgXgXgXgXgXgXgXgXgXgXgXgX",
"gXgXgXgXgXgXgXgXgXgXgXgXgXgXgXgXgXgXgXgXgXgXgXgXgXgXgXgXgXgXdXiX*X*XOXOX*X*XiXgXgXgXgXgXgXgXgXgXgXgXgXgXgXgXgXgXgXgXgXgXgXgXgXgX",
"gXgXgXgXgXgXgXgXgXgXgXgXgXgXgXgXgXgXgXgXgXgXgXgXgXgX*X| < - % # + @ @ # # # % = < | *XgXgXgXgXgXgXgXgXgXgXgXgXgXgXgXgXgXgXgXgXgX",
"gXgXgXgXgXgXgXgXgXgXgXgXgXgXgXgXgXgXgXgXgXgXgXdX| ; + X o # * > 2 6 |  .| 5 1 ; $ + # > *.gXgXgXgXgXgXgXgXgXgXgXgXgXgXgXgXgXgXgX",
"gXgXgXgXgXgXgXgXgXgXgXgXgXgXgXgXgXgXgXgXgXgX| * X o * 1 %.iXgXgXgXgXgXgXgXgXgXgXiX%., # + 1 dXgXgXgXgXgXgXgXgXgXgXgXgXgXgXgXgXgX",
"gXgXgXgXgXgXgXgXgXgXgXgXgXgXgXgXgXgXgXgX*X> X o : %.dXgXgXgXgXgXgXgXgXgXgXgXgXgXgXgXgX*X< + > dXgXgXgXgXgXgXgXgXgXgXgXgXgXgXgXgX",
"gXgXgXgXgXgXgXgXgXgXgXgXgXgXgXgXgXgXgX*.&   &  .gXgXgXgXgXgXgXgXgXgXgXgXgXgXgXgXgXgXgXgXgX| @ 3 gXgXgXgXgXgXgXgXgXgXgXgXgXgXgXgX",
"gXgXgXgXgXgXgXgXgXgXgXgXgXgXgXgXgXgX%.# . , iXgXgXgXgXgXgXgXgXgXgXgXgXgXgXgXgXgXgXgXgXgXgXgX3 % iXgXgXgXgXgXgXgXgXgXgXgXgXgXgXgX",
"gXgXgXgXgXgXgXgXgXgXgXgXgXgXgXgXgXOX# X 2 gXgXgXgXgXgXgXgXgXgXgXgXgXgXgXgXgXgXgXgXgXgXgXgXgXiX= 6 gXgXgXgXgXgXgXgXgXgXgXgXgXgXgX",
"gXgXgXgXgXgXgXgXgXgXgXgXgXgXgXgXdX= . 2 gXgXgXgXgXgXgXgXgXgXgXgXgXgXgXgXgXgXgXgXgXgXgXdXgXgXgX< > gXgXgXgXgXgXgXgXgXgXgXgXgXgXgX",
"gXgXgXgXgXgXgXgXgXgXgXgXgXgXgXgX5 . ; gXgXgXgXgXgXgXgXgXgXgXgXgXgXgXgXgXgXgXdX*XiX< & > iXgXgX| = gXgXgXgXgXgXgXgXgXgXgXgXgXgXgX",
"gXgXgXgXgXgXgXgXgXgXgXgXgXgXgXiX& + OXgXgXgXgXgXgXgXgXgXgXgXgXgXdXOXOXdXgXgX| = iX2   < gXgXgX*.* *XgXgXgXgXgXgXgXgXgXgXgXgXgXgX",
"gXgXgXgXgXgXgXgXgXgXgXgXgXgXgX%.o < gXgXgXgXgXgXgXgXgXgXgXgXgXgX> % : a.gXgX2 % dX .. 2 gXgXgX*X& OXgXgXgXgXgXgXgXgXgXgXgXgXgXgX",
"gXgXgXgXgXgXgXgXgXgXgXgXgXgXgX1 O *.gXgXgXgXgXgXdX*.iXgX .%.2 %.$ 3 dXgXgXgX< & gX .X 5 gXgXgX*X& OXgXgXgXgXgXgXgXgXgXgXgXgXgXgX",
"gXgXgXgXgXgXgXgXgXgXgXgXgXgXgX- % dXgXgX2 | gXgX2 + = *X- ; * | + 1  .dXgXgX, * gX .X 6 iXOXgX*X* *XgXgXgXgXgXgXgXgXgXgXgXgXgXgX",
"gXgXgXgXgXgXgXgXgXgXgXgXgXgXgX& ; gXgXiX# : gX*X# > : 2 = $ * | o % 1 dXgXgX: - gX .o  .3 - gXOX- iXgXgXgXgXgXgXgXgXgXgXgXgXgXgX",
"gXgXgXgXgXgXgXgXgXgXgXgXgXgXiX$ < gXgXOX+ , gX| O %.2 : = o : | O %.gXgXgXgX; : gX .# *.*X*.gX*.; dXgXgXgXgXgXgXgXgXgXgXgXgXgXgX",
"gXgXgXgXgXgXgXgXgXgXgXgXgXgXiX% 2 gXgX*.o 2 gX2 + *X1 : =   1 | o < %.gXgXgX; 1 gXiX .dXgXgXgX| > gXgXgXgXgXgXgXgXgXgXgXgXgXgXgX",
"gXgXgXgXgXgXgXgXgXgXgXgXgXgXdX& 2 gXgX%.o 5 gX1 # iX> 3 = . | *X= & 6 gXgXgXOX*XgXgXgXgXgXgXgX2 < gXgXgXgXgXgXgXgXgXgXgXgXgXgXgX",
"gXgXgXgXgXgXgXgXgXgXgXgXgXgXgX- < gXgX| o  .gX6 + 5 - OX, @ *XgXdXdXgXgXgXgXgXgXgXgXgXgXgXgXgX< 5 gXgXgXgXgXgXgXgXgXgXgXgXgXgXgX",
"gXgXgXgXgXgXgXgXgXgXgXgXgXgXgX1 - gXgX5 O *.gXiX= % 6 gX*X%.gXgXgXgXgXgXgXgXgXgXgXgXgXgXgXgXgX> %.gXgXgXgXgXgXgXgXgXgXgXgXgXgXgX",
"gXgXgXgXgXgXgXgXgXgXgXgXgXgXgX*.% OXgX3 X ; 6 gXiX*XgXgXgXgXgXgXgXgXfXgXgXgXgXgXgXgXgXgXgXgXiX: *XgXgXgXgXgXgXgXgXgXgXgXgXgXgXgX",
"gXgXgXgXgXgXgXgXgXgXgXgXgXgXgXgX, : gXOX; =  .gXgXgXgXgXgXgXgXgXgXgXgXgXgXgXgXgXgXgXgXgXgXgX%.> gXgXgXgXgXgXgXgXgXgXgXgXgXgXgXgX",
"gXgXgXgXgXgXgXgXgXgXgXgXgXgXgXgX*X= , iXgXgXgXgXgXgXgXgXgXgXgXgXgXgXgXgXgXgXgXgXgXgXgXgXgXgX1 3 gXgXgXgXgXgXgXgXgXgXgXgXgXgXgXgX",
"gXgXgXgXgXgXgXgXgXgXgXgXgXgXgXgXgXOX= = %.gXgXgXgXgXgXgXgXgXgXgXgXgXgXgXgXgXgXgXgXgXgXgXgXOX= OXgXgXgXgXgXgXgXgXgXgXgXgXgXgXgXgX",
"gXgXgXgXgXgXgXgXgXgXgXgXgXgXgXgXgXgXiX, # > OXgXgXgXgXgXgXgXgXgXgXgXgXgXgXgXgXgXgXgXgXgXgX> > gXgXgXgXgXgXgXgXgXgXgXgXgXgXgXgXgX",
"gXgXgXgXgXgXgXgXgXgXgXgXgXgXgXgXgXgXgXgX .& @ > *.gXgXgXgXgXgXgXgXgXgXgXgXgXgXgXgXgXgXgX3 # *.gXgXgXgXgXgXgXgXgXgXgXgXgXgXgXgXgX",
"gXgXgXgXgXgXgXgXgXgXgXgXgXgXgXgXgXgXgXgXgXiX, O O - 5 OXiXgXgXgXgXgXgXgXgXgXgXgXgXgXgX6 + 1 gXgXgXgXgXgXgXgXgXgXgXgXgXgXgXgXgXgX",
"gXgXgXgXgXgXgXgXgXgXgXgXgXgXgXgXgXgXgXgXgXgXgX%.: + X O $ = > , < , : ; > *.gXgXgXgX| + - iXgXgXgXgXgXgXgXgXgXgXgXgXgXgXgXgXgXgX",
"gXgXgXgXgXgXgXgXgXgXgXgXgXgXgXgXgXgXgXgXgXgXgXgXgX*X6 > * $ # # $ & - : = = iXgXgX3 O * *XgXgXgXgXgXgXgXgXgXgXgXgXgXgXgXgXgXgXgX",
"gXgXgXgXgXgXgXgXgXgXgXgXgXgXgXgXgXgXgXgXgXgXgXgXgXgXgXgXgXdXiXiXdXgXgXgX| = iXOX; o ; *XgXgXgXgXgXgXgXgXgXgXgXgXgXgXgXgXgXgXgXgX",
"gXgXgXgXgXgXgXgXgXgXgXgXgXgXgXgXgXgXgXgXgXgXgXgXgXgXgXgXgXgXgXgXgXdX%.< % 1 < @ + 2 dXgXgXgXgXgXgXgXgXgXgXgXgXgXgXgXgXgXgXgXgXgX",
"gXgXgXgXgXgXgXgXgXgXgXgXgXgXgXgXgXgXgXgXgXgXgXgXgXgXgXgXgXgXgXOX1 & o   O + + > OXgXgXgXgXgXgXgXgXgXgXgXgXgXgXgXgXgXgXgXgXgXgXgX",
"gXgXgXgXgXgXgXgXgXgXgXgXgXgXgXgXgXgXgXgXgXgXgXgXgXgXgXgXgXgX*X#     . + * 1 OXgXgXgXgXgXgXgXgXgXgXgXgXgXgXgXgXgXgXgXgXgXgXgXgXgX",
"gXgXgXgXgXgXgXgXgXgXgXgXgXgXgXgXgXgXgXgXgXgXgXgXgXgXgXgXgXgXiX< ; 1  .*XgXgXgXgXgXgXgXgXgXgXgXgXgXgXgXgXgXgXgXgXgXgXgXgXgXgXgXgX",
"gXgXgXgXgXgXgXgXgXgXgXgXgXgXgXgXgXgXgXgXgXgXgXgXgXgXgXgXgXgXgXgXgXgXgXgXgXgXgXgXgXgXgXgXgXgXgXgXgXgXgXgXgXgXgXgXgXgXgXgXgXgXgXgX",
"gXgXgXgXgXgXgXgXgXgXgXgXgXgXgXgXgXgXgXgXgXgXgXgXgXgXgXgXgXgXgXgXgXgXgXgXgXgXgXgXgXgXgXgXgXgXgXgXgXgXgXgXgXgXgXgXgXgXgXgXgXgXgXgX",
"gXgXgXgXgXgXgXgXgXgXgXgXgXgXgXgXgXgXgXgXgXgXgXgXgXgXgXgXgXgXgXgXgXgXgXgXgXgXgXgXgXgXgXgXgXgXgXgXgXgXgXgXgXgXgXgXgXgXgXgXgXgXgXgX",
"gXgXgXgXgXgXgXgXgXgXgXgXgXgXgXgXgXgXgXgXgXgXgXgXgXgXgXgXgXgXgXgXgXgXgXgXgXgXgXgXgXgXgXgXgXgXgXgXgXgXgXgXgXgXgXgXgXgXgXgXgXgXgXgX",
"gXgXgXgXgXgXgXgXgXgXgXgXgXgXgXgXgXgXgXgXgXgXgXgXgXgXgXgXgXgXgXgXgXgXgXgXgXgXgXgXgXgXgXgXgXgXgXgXgXgXgXgXgXgXgXgXgXgXgXgXgXgXgXgX",
"gXgXgXgXgXgXgXgXgXgXgXgXgXgXgXgXgXgXgXgXgXgXgXgXgXgXgXgXgXgXgXgXgXgXgXgXgXgXgXgXgXgXgXgXgXgXgXgXgXgXgXgXgXgXgXgXgXgXgXgXgXgXgXgX",
"gXgXgXgXgXgXgXgXgXgXgXgXgXgXgXgXgXgXgXgXgXgXgXgXgXgXgXgXgXgXgXgXgXgXgXgXgXgXgXgXgXgXgXgXgXgXgXgXgXgXgXgXgXgXgXgXgXgXgXgXgXgXgXgX",
"gXgX6XpXfXdXpXeXdXsXfXuXeXuXaXaXuXfXgXtXrXdXdXfXyXtXgX6XpXfXfXfX1XdXsXdXfXyXeXgXaXpXdXgXpX1XdXdXfXyXtXpXaX6XpXfXgXtXrXdXsXfXuXeX",
"0Xm.b p.4.w i Q G.C. X_.) b.3.m j.:.g u !.C.{.`.U._ c.y.M j.j f L {.C.|.`.` ~ m.b p.f.w i Q H.C..X_._ b.3.m j.:.g u !.C.{.`.U._ ",
"7XO.j.v 6.h i ' '.].Q XX7XB n.p.n 6.0 S U.'.Y.w.qXN.N @Xn i.:.d L '.].' Y.qXx.Z j.v 6.h i ' '.].Q XX7XB n.p.n 6.0 S U.'.Y.Q qX7X",
"0X$XK *X`.T.T [ 2Xt.A N.G.J.q.W 9XW.0.T '.3XP F H.M.%XK E.{.W.E ) |.l.u $.H.A.$XK *X`.T.T ] 2Xt.y N.G.J.q.W 9XW.0.T '.3XP F H.G.",
"sX}.J R ] `.'.I.,.d.o.x.7X.XL.J ` } |.} *.1.r.V M.7X|.U L [ '.}.} >.f.$.Z S.9X XJ Y ] `.'.I.,.d.o.x.7X.XL.J ` } .X} *.1.r.V M.8X",
"sX}.9X!.U.]. X( r k y.v.;....XQ.Y.{ |._.n.q l 3.@.j $.9XW.Y.} oX/ =.e n m.2.g W.9X!.U.]. X( r k y.v.;....XQ.Y.{ oX_.n.q l 3.@.j ",
"f.OX8X*X*X'.`.~ y.k.z.>Xq 0 $X0X+X|.'.( #.i.k.-X7.7 =.7X*X+X].].! 9.k.k.>X:.7 3.8X*X*X'.`.~ y.k.z.>Xq 0 $X0X+X|.'.( #.i.k.-X7.7 ",
"1XW.F.G ).2X5Xy.a h.sX:Xa.q.N.s.K eXl.,Xz s rX<X+Xa.K.D.X.W 1X4X;Xa c uX>XOXe.T.F.G (.2X5Xu.a h.sX:Xa.q.N.3.K eXl.,Xz s rX<X+Xs."
};
