/* XPM */
static char *_c59001ae94b45cadecbef91847bf945j0zgAAF9zJbs5OLG[] = {
/* columns rows colors chars-per-pixel */
"64 64 229 2 ",
"   c #1A0500",
".  c #211C16",
"X  c #2B221D",
"o  c #2B2620",
"O  c #352C26",
"+  c #39312E",
"@  c #482D28",
"#  c #573E38",
"$  c #49352C",
"%  c #55423C",
"&  c #5A453C",
"*  c #5A4739",
"=  c #604A3F",
"-  c #5D4543",
";  c #5D4E46",
":  c #5C534C",
">  c #4B4744",
",  c #634A44",
"<  c #6B4D4D",
"1  c #64524A",
"2  c #6B544C",
"3  c #6C5C4D",
"4  c #645246",
"5  c #715B4F",
"6  c #6B5551",
"7  c #655B52",
"8  c #6C5A53",
"9  c #695B59",
"0  c #725754",
"q  c #745D53",
"w  c #735E59",
"e  c #795E5A",
"r  c #6E6154",
"t  c #6C625B",
"y  c #67645F",
"u  c #75625B",
"i  c #7D635D",
"p  c #786455",
"a  c #686560",
"s  c #776562",
"d  c #7C6563",
"f  c #7B6A64",
"g  c #7D6E6B",
"h  c #766A65",
"j  c #75716B",
"k  c #7C736D",
"l  c #7D6E71",
"z  c #7E7572",
"x  c #7E7973",
"c  c #7E7E7C",
"v  c #81665B",
"b  c #816664",
"n  c #836B63",
"m  c #816E6B",
"M  c #8B6D6D",
"N  c #846769",
"B  c #946D6C",
"V  c #85736B",
"C  c #8A746D",
"Z  c #88776B",
"A  c #91766F",
"S  c #8C6E70",
"D  c #837374",
"F  c #8B7372",
"G  c #847A74",
"H  c #8C7B75",
"J  c #8A7A7B",
"K  c #867878",
"L  c #947674",
"P  c #947B75",
"I  c #9B7D7B",
"U  c #907D7F",
"Y  c #84817B",
"T  c #8D817A",
"R  c #928274",
"E  c #93837D",
"W  c #9C837D",
"Q  c #9C857B",
"!  c #8A8885",
"~  c #898582",
"^  c #998384",
"/  c #958B85",
"(  c #9D8C84",
")  c #9B8D8C",
"_  c #978687",
"`  c #9B938B",
"'  c #969591",
"]  c #A28C84",
"[  c #A88C8D",
"{  c #A58B87",
"}  c #A3948D",
"|  c #A9938E",
" . c #A69789",
".. c #AB9492",
"X. c #A89993",
"o. c #A69998",
"O. c #B29C94",
"+. c #B19F99",
"@. c #B89798",
"#. c #B6958E",
"$. c #AEA299",
"%. c #B4A195",
"&. c #B4A59C",
"*. c #BBA39B",
"=. c #BBAB9C",
"-. c #BC9DA2",
";. c #B5A7A5",
":. c #BDA7A1",
">. c #B4ABA5",
",. c #BDACA4",
"<. c #BBAEAC",
"1. c #B2A6A8",
"2. c #BCB1A7",
"3. c #BCB3AB",
"4. c #BAB4AC",
"5. c #BCB7B2",
"6. c #BFB9B2",
"7. c #B9B8B5",
"8. c #C2A49B",
"9. c #C0A99B",
"0. c #C3ADA4",
"q. c #CAADA3",
"w. c #CBAEAB",
"e. c #C3ABA6",
"r. c #C4B2A6",
"t. c #CCB2A7",
"y. c #C2B4AC",
"u. c #CBB4AC",
"i. c #C4B9AD",
"p. c #CABAAD",
"a. c #D2B5AD",
"s. c #D0B9AE",
"d. c #D1B0A7",
"f. c #C3B6B1",
"g. c #CBB7B2",
"h. c #C5BBB3",
"j. c #CABCB4",
"k. c #C1BEBA",
"l. c #CBBEBA",
"z. c #D4B7B3",
"x. c #D3BAB3",
"c. c #D3BCBB",
"v. c #D9B9B9",
"b. c #CBC1B7",
"n. c #CDC2BB",
"m. c #C7C1B9",
"M. c #DCC2B6",
"N. c #D4C4BC",
"B. c #DBC3BC",
"V. c #D5C6B8",
"C. c #C9C6C1",
"Z. c #CCC9C5",
"A. c #C6C5C3",
"S. c #D4C7C1",
"D. c #DBC3C3",
"F. c #D4CBC4",
"G. c #DCCAC4",
"H. c #DBCDCB",
"J. c #D4CCCA",
"K. c #DAD4CF",
"L. c #DDD7D1",
"P. c #E5CBC3",
"I. c #E5CDCC",
"U. c #EBCDCC",
"Y. c #E7C4C5",
"T. c #E5D5CE",
"R. c #ECD2CC",
"E. c #EBD6C6",
"W. c #F1DBCD",
"Q. c #EBCDD1",
"!. c #E6CDD0",
"~. c #E6D2D3",
"^. c #ECD5D5",
"/. c #E4DAD5",
"(. c #EEDCD7",
"). c #E5DED8",
"_. c #EBDDDC",
"`. c #EED5DB",
"'. c #F2D5D4",
"]. c #F3DBD5",
"[. c #F9DBD7",
"{. c #F3D5DA",
"}. c #FAD6DC",
"|. c #F5DBDC",
" X c #FBDDDD",
".X c #E3E1DC",
"XX c #EDE3DD",
"oX c #F4E5D7",
"OX c #F5E2DD",
"+X c #FCE2DE",
"@X c #F8EADD",
"#X c #FBD6E3",
"$X c #F6DBE1",
"%X c #FDDEE4",
"&X c #FEDEE9",
"*X c #F4D6E0",
"=X c #E5E4E1",
"-X c #ECE5E3",
";X c #EDEAE5",
":X c #E6E8E5",
">X c #F3E5E2",
",X c #FDE0E5",
"<X c #FEE9E5",
"1X c #FFE6E9",
"2X c #FEE4E9",
"3X c #F3ECEA",
"4X c #FEE9EA",
"5X c #FFEAED",
"6X c #FEECEB",
"7X c #F5EBE3",
"8X c #EEF1ED",
"9X c #F5F2ED",
"0X c #FCF2ED",
"qX c #FDF9ED",
"wX c #F8F4EA",
"eX c #FEEDF1",
"rX c #F6F5F3",
"tX c #FFF0F2",
"yX c #FCF5F3",
"uX c #F5F9F5",
"iX c #FDFAF5",
"pX c #F5FBF9",
"aX c #FEFAF9",
"sX c #FFFDFB",
"dX c #FFFCFD",
"fX c #FFFFFF",
"gX c #FFFEFD",
"hX c #FEFEFC",
"jX c #FAF5F9",
/* pixels */
"%X%X%X%X%X%X%X%X%X%X%X%X%X%X%X%X%X%X%X%X%X%X%X%X%X%X%X%X%X%X%X%X%X%X%X%X%X%X%X%X%X%X%X%X%X%X%X%X%X%X%X%X%X%X%X%X%X%X%X%X X X X X",
"%X%X%X%X%X%X%X%X%X%X%X%X%X%X%X%X%X%X%X%X%X%X%X%X%X%X%X%X%X%X%X%X%X%X%X%X%X%X%X%X%X%X%X%X%X%X%X%X%X%X%X%X%X%X%X%X%X%X%X%X%X X X X",
"%X%X%X%X%X%X%X%X%X%X%X%X%X%X%X%X%X%X%X%X%X%X%X%X%X%X%X%X%X%X%X%X%X%X%X%X%X%X%X%X%X%X%X%X%X%X%X%X%X%X%X%X%X%X%X%X%X%X%X%X%X%X%X%X",
"%X%X%X%X%X%X%X%X%X%X%X%X%X%X%X%X%X%X%X%X%X%X%X%X%X%X%X%X%X%X%X%X%X%X%X%X%X%X%X%X%X%X%X%X%X%X%X%X%X%X%X%X%X%X%X%X%X%X%X%X%X%X%X%X",
"%X%X%X%X%X%X%X%X%X%X%X%X%X%X%X%X%X%X%X%X%X%X%X%X%X%X,X,X%X%X%X%X%X%X%X%X%X%X%X%X%X%X%X%X%X%X%X%X%X%X%X%X%X%X%X%X%X%X%X%X%X%X%X%X",
"%X%X%X%X%X%X%X%X%X%X%X%X%X%X%X%X%X%X%X%X%X%X%X%X%X,X%X%X%X%X%X%X%X%X%X%X%X%X%X%X%X%X%X%X%X%X%X%X%X%X%X%X%X%X%X%X%X%X%X%X%X%X%X%X",
"%X%X%X%X%X%X%X%X%X%X%X%X%X%X%X%X%X%X%X%X%X%X%X%X%X%X%X%X%X%X%X%X%X%X%X%X%X%X%X%X%X%X%X%X%X%X%X%X%X%X%X%X%X%X%X%X%X%X%X%X%X%X%X%X",
"%X%X%X%X%X%X%X%X%X%X%X%X%X%X%X%X%X%X%X%X%X%X%X%X%X%X%X%X%X%X%X%X%X%X%X%X%X%X%X%X%X%X%X%X%X%X%X%X%X%X%X%X%X%X%X%X%X%X%X%X%X%X%X%X",
"%X%X%X%X%X%X%X%X%X%X%X%X%X%X%X%X,X,X,X,X,X,X,X,X,X,X,X,X,X,X,X,X,X,X,X,X,X,X,X,X,X,X,X,X,X,X,X,X%X%X%X%X%X%X%X%X%X%X%X%X%X%X%X%X",
"%X%X%X%X%X%X%X%X%X%X%X%X%X%X%X%X,X,X,X,X,X,X,X,X,X,X,X,X,X,X,X,X,X,X,X,X,X,X,X,X,X,X,X,X,X,X,X,X%X%X%X%X%X%X%X%X%X%X%X%X%X%X%X%X",
"%X%X%X%X%X%X%X%X%X%X%X%X%X%X%X%X,X,X,X,X,X,X,X,X,X,X,X,X,X,X,X,X,X,X,X,X,X,X,X,X,X,X,X,X,X,X,X,X%X%X%X%X%X%X%X%X%X%X%X%X%X%X%X%X",
"%X%X%X%X%X%X%X%X%X%X%X%X%X%X%X%X,X,X,X,X,X,X,X,X,X,X,X,X,X,X,X,X,X,X,X,X,X,X,X,X,X,X,X,X,X,X,X,X%X%X%X%X%X%X%X%X%X%X%X%X%X%X%X%X",
"%X%X%X%X%X%X%X%X%X%X%X%X%X%X,X,X,X,X,X,X,X,X,X,X,X,X,X,X,X,X,X,X,X,X,X,X,X,X,X,X,X,X,X,X,X,X,X,X%X%X%X%X%X%X%X%X%X%X%X%X%X%X%X%X",
"%X%X%X%X%X%X%X%X%X%X%X%X,X,X,X,X,X,X,X,X,X,X,X,X,X,X,X,X,X,X,X,X,X,X,X,X,X,X,X,X,X,X,X,X,X,X,X,X%X%X%X%X%X%X%X%X%X%X%X%X%X%X%X%X",
"%X%X%X%X%X%X%X%X%X%X%X%X,X,X,X,X,X,X,X,X,X,X,X,X,X,X,X,X,X,X,X,X,X,X,X,X,X,X,X,X,X,X,X,X,X,X,X,X,X,X,X,X,X,X,X,X%X%X%X%X%X,X,X%X",
"%X%X%X%X%X%X%X%X%X%X%X,X,X,X,X,X,X,X,X,X,X,X,X,X,X,X,X,X,X,X,X,X,X,X,X,X,X,X,X,X,X,X,X,X,X,X,X,X,X,X,X,X,X,X,X,X,X%X%X%X%X,X,X%X",
",X,X,X,X,X,X,X,X,X,X,X,X,X,X,X,X%X,X,X,X,X,X,X,X1X|.1X5X|.|.2X,X X,X%X X,X,X%X1X%X,X X%X%X,X,X%X1X|.%X5X{.,XeX$X,X%X,X,X%X%X%X%X",
",X,X,X,X,X,X,X,X,X,X,X,X,X,X,X,X,X,X,X,X,X,X,X,X|.4X|.|.1X1X,X%X,X,X,X X,X,X|.%X%X,X1X1X1X X%X,X X5X,X,X5X2X{.5X,X,X,X,X%X%X%X%X",
",X,X,X,X,X,X,X,X,X,X,X,X,X,X,X,X&X&X%X,X,X,X,X,X,X1X X1X1X{.%X,X|.,X|.,X1X1X>X>X|.,X%X{.'. X,X,X+X^.|.%X%X1X1X|.%X%X%X,X%X%X%X%X",
",X,X,X,X,X,X,X,X,X,X,X,X,X,X,X,X&X%X%X%X%X%X%X,X'.5X{.^.2X1X5X,X4X>X~.H.I.~.^._.tX5X4X1X1X1X+X,X1X0X<X^.%X,X%X1X%X%X%X%X%X%X%X%X",
",X,X,X,X,X,X,X,X,X,X,X,X,X,X,X,X%X%X%X%X%X%X%X%X5X X%XtX5X^.l.^ F J K K J J z l D o.~.4X4X,X~.I.x.I.].4X4X%X%X%X%X%X%X%X%X%X%X%X",
",X,X,X,X,X,X,X,X,X,X,X,X,X,X,X,X,X%X%X%X%X%X%X%X'.|.1XD.U h ) <.H._.3XgXgXgX3X-XJ.) K H E H C { W L I U. X X5X%X%X%X%X%X%X%X%X%X",
",X,X,X,X,X,X,X,X,X,X,X,X,X,X,X,X,X,X,X%X%X%X%X,XtX!._ 9 1.eXrXgXaXgXaXdXgXgXaXgXaXhX3X;.X.G.(.|.+X[.W z.5X%XQ.2X%X%X%X%X,X,X,X,X",
",X,X,X,X,X,X,X,X,X,X,X,X,X,X,X,X,X,X,X,X,X,X,X,X..9 <.hXaXgXhXuXaXgXgXgXgXgXpXgXgXrXhXaXaX0XS.y.w.P.C z.<X1X%X,X%X%X%X%X,X,X,X,X",
",X,X,X,X,X,X,X,X%X%X1X1X%X%X,X1X|.<X,X|.|.<XtXm D >XgXrXgXgXfXfXgXgXgXgXgXgXgXgXgXhXhXiXiXiX>Xl.u.P.C P.,X1X%X%X%X%X%X%X,X,X,X,X",
",X,X,X,X,X,X,X,X,X,X2X,X%X,X,X|.+X<X>X5XOX>Xg _ yXhXjXpXgXpXpXfXgXgXgXgXgXgXgXgXgXgXhXiXiXhX0XT.p.P.i R.+X,X%X,X%X%X%X%X,X,X,X,X",
",X,X,X,X,X,X,X,X,X%X%X,X%X,X,X%X4XI.<X+.^ h / hXgXuXuXgXfXfXfXpXgXgXgXgXgXgXgXgXgXgXgXhXiXhXiX3X].t.] ,X,X,X X,X%X%X%X%X,X,X,X,X",
",X,X,X,X,X,X,X,X,X|.%X1X,X%X,X1X+Xu.2 W j.XXaXjXuXpXgXfXuXfXfXpXgXgXgXgXgXgXgXgXgXgXgXgXiXiXhXiX0XV ,.6X+X,X,X,X%X%X%X%X%X,X,X,X",
",X,X,X,X,X,X,X,X,X%X,X1X,X,X%X{.L L [.+XOXhXrXhXgXgXfXfXgXfXpXgXgXgXgXgXgXgXgXgXgXfXgXgXhXaXhXiXiX/ ) 4X X|.1X%X%X%X%X%X%X,X,X,X",
",X,X,X,X,X,X,X,X%X2X,X$X%X5X|.v.I ,Xz.u.(.0XrXhXuXpXfXgXgXgXrXgXgXgXgXgXgXgXgXgXgXdXgXgXgXgXgXiXhX>X9 _.1X$X1X X%X%X%X%X%X%X,X,X",
",X,X,X,X,X,X,X,X%X,X,X%X%X1X%XY.B Y.v.B.>XhXhX9XfXfXgXdXjXgXdXdXgXhXgXgXgXgXgXgXgXfXgXgXgXgXgXaX9XhXh ;.4X,X1X2X%X%X%X%X%X%X,X,X",
",X,X,X,X,X,X,X,X2X%X%X1X%X%X2X1X@.B U.u.<XiXjXgXfXuXgXgXdXgXdXdXgXgXgXgXgXgXgXgXgXgXgXgXaXhXgXiXhXiXf.J 4X,X$X2X%X%X%X%X%X,X,X,X",
",X,X,X,X,X,X,X,X%X%X%X%X%X&X&X%X4XP F ^.aXiXjXgXpXgXfXgXpXgXgXaXgXgXgXjXiXhXyXhXm.k.rXhXhXhXyXhXhX0X/.h |.1X2X2X%X%X%X&X&X,X,X%X",
",X,X,X,X,X,X,X,X%X%X%X%X%X&X&X%X^.yXX.G iXrXhXhXgXpXgXpXgXgXyXgXpXgXhXhXhXiXhXh.O X 5.iX;X;X9XiXiXiXOXs |.,X%X%X%X%X,X,X,X,X%X%X",
",X,X,X,X,X,X,X,X%X%X%X%X&X&X&X%X,X+X<Xt /.hXhXiXpXgXrXgXpXhXgXrXgXpXrXhXrX3XhX6.o . 6.hX.X=X3XaXiXiX<XF Q.%X%X%X&X%X,X,X,X,X%X%X",
",X,X,X,X,X,X,X,X%X%X%X%X&X&X&X%X,X].|.f >X3XhXhXgXhXgXgXrXiX-XhXuXgXgXrXhX.X3XrX4.>.9XiX9X9XrXhXiX0X<X^ D.,X2X%X&X&X,X,X,X,X%X%X",
",X,X,X,X,X,X,X,X,X,X%X%X%X%X%X,X1X].<Xs _.hX9XhXhX9XhXyXhXk + o.gX:X=XA.' Y L.iXiXhXhXrXgXgXgXhXiX0XOXm I.,X,X%X&X&X,X,X,X,X%X%X",
",X,X,X,X,X,X,X,X,X,X%X%X%X%X%X,X+X].yXV &.hXyXiXiXiXhXF./ X X 9 hX.X! c 7.k.9XhXhXiXrXhXgXjXgXiXiXiXG.w %X%X%X%X&X,X,X,X,X,X%X%X",
",X,X,X,X,X,X,X,X,X,X,X,X,X,X,X,X+XOXV 8 g k ).hXiXhXhXL.5.T O >.hXgX:XrXhXhXhXiXhXyXhXgXgXyXgXiXiX6X..] 5X%X%X,X&X,X,X,X,X,X%X%X",
",X,X,X,X,X,X,X,X,X,X,X,X,X,X,X,X<XV %.iX0X>.z ).L.F.).XX3XiXN.l.hX8XhXhX9XjXjXhXgXhXgXpXgXhXgXiXyXT.w I.1X|.%X,X%X,X,X,X,X,X%X%X",
",X,X,X,X,X,X,X,X,X%X,X|.,X1X|.4XT.n iXiXiX>.: ` / / / G k T X.H.9XhXrXiXhXhXrXhXgXhXgXaXuXgXjXhXN.u g.<X%X X1X,X,X,X,X,X,X,X%X%X",
",X,X,X,X,X,X,X,X,X%X|.eX|.{.4X^.n % C ( t 7 3.h.h.f.n.l.3.&.( / G C.iXjX.X9XgXjXpXrXgXuXhXuXA.k 7 G.<X X X,X%X|.,X,X,X,X,X,X%X%X",
"%X%X,X,X,X,X,X,X$X|.tX|.1X5XD.1 H u.G h $.f.l.f.f.>.h.j.g.N.V.h.>.j ` ! a y 7.jXyXgXhXpXhX~ > y iXOX|.].tX X|.eX,X,X,X,X,X,X%X%X",
"%X%X,X,X,X,X,X,X5X%X{.,X1X[ - ,.l.l.l.S.n.h.3.h.l.h.h.y.<.y.y.u.h.F.k z yX.Xj ! ! 7.hXhXrXiX3Xx } 0X|.,X,X%X%X,X,X,X,X,X,X%X%X%X",
"%X%X%X%X,X,X,X,X1X{.4Xc., # x.c.u.u.3.3.3.y.n.<.3.f.y.f.n.g.y.h.2.m./ G hXhXyXC.Z.9XhXhXiXhXhXK.d V.<X,X,X XeX|.,X,X,X,X,X%X%X%X",
"%X%X%X%X,X,X,X,X|.5Xg.- - O.u.y.l.3.h.l.l.3.l.h.f.l.f.y.g.u.h.g.h.h.$.t /.9XhXhXiXhXrXiXhXhX9XiX,.C ,X].,X'.1X,X,X,X,X,X,X%X%X%X",
"&X&X&X&X,X,X,X,X1XU.6 d F c.N.g.y.h.n.>.5.C.f.2.3.h.j.l.y.y.y.( 3.y.l.` t -XhX9XiXhXhXrXiXhXiX0X6XV z.,XM M -.1X,X,X>X,X,X%X%X%X",
"%X,X&X&X%X,X,X,X5XF | u ..l.,.f.y.l.2.l.l.3.h.h.l.3.y.j.y.b.,.1 %.j.i.g.E : / Z.K.J.jXyXhXhXhXyX6XO.{ P { '.S ,X,X,X,X,X,X,X%X%X",
"%X%X%X%X%X%X,X,X~.d +.6 N.y.l.y.l.y.j.y.f.l.l.f.y.j.j.y.l.g.p.2 &.p.u.,.S.h.8 j x Y .XgXpXaXgXiX6XE.# A 0Xw.L 5X%X%X,X,X,X,X%X%X",
"%X%X%X%X&X%X,X,X|.E , V l.3.<.l.y.u.j.l.y.y.f.l.y.y.l.l.g.0.u.3 %.u.r.V.( t.} 2.iXhXhX8XgXgXjXhX<XE.v [.,XM u.[.%X%X,X,X,X,X%X%X",
"%X%X%X%X&X%X%X,X1X+XC E N.g.j.j.h.h.>.h.h.k.6.6.h.3.i.y.3.p.V.8 &.V.p.R 6 $.2.Y hXrXhXfXpXgXgX9XoXW.C P.P ] |.1X%X%X%X,X%X%X%X%X",
"%X%X%X%X&X%X%X,X'.0XQ P B.:.e.l.h.m.4.4.h.k.h.4.6.y.h.h.i.i.p.V 3 Z u 4 g.S.3.h iXjXiXpXgXgXgXiX@XE.4 5 ] [.,X,X X%X%X%X%X%X%X%X",
"%X%X%X%X&X%X%X%X,X+Xn O.x.z.x.O.h  .m.4.h.2.h.y.3.l.y.y.V.r.0.:.E G } n.g.>.h.j .XiXhXhXhXjXaX9XoXp.% q +X+X,X|.%X%X%X%X%X%X%X%X",
"%X%X%X%X%X%X%X%X+XP.i t.8.t.B.&   7 h.y.S.h.l.h.g.t.u & ] s.s.x.N.N.l.b.y.h.S.x .XiXrXrXjXhXhX3XqX3  .Z O.].].6X%X%X%X%X%X%X%X%X",
"%X%X%X%X%X%X%X%X,X8.v M.a.*.z.b $ m p.O.0.t.0.g.g.*.@   n z.d.9.y.>.h.y.y.3.n.j y wXiXiXhXiX;XwXR p B.R , 2 t.+X%X%X%X%X%X%X%X%X",
"%X%X%X%X%X%X%X%X<X*.v a.t.q.0.x.0.t.g.n u C P :.x.w.e , #.a.8.t.g.h.h.y.l.h.2.7 6.iXqXwXwXiXL.G r p.p.=.u.&., ^.%X%X%X%X%X%X%X%X",
",X|.$X%X$X2X%X|.,Xu.q t.t.0.t.u.g.r.u.j.0.| O.p.p.u.u.s.a.t.q.q.g.y.l.3.h.V.} k iXwXiXqXh.G : H V.=.p.r.0.O.0 '.%X%X%X%X%X%X%X%X",
"$X,X%X*X&X`.{.1X].Q * 9.M.t.s.t.u.j.b.g.g.j.g.u.u.p.p.p.u.t.t.t.y.2.l.u.g.l.&.t qXiXwXqX` ; N.g.r.r.r.r.( < @.4X%X%X%X%X%X%X%X%X",
"{.$X,X$X1X$X1XI.C b 5 A %.0.x.p.4.3.4.4.4.y.i.4.4.i.i.i.i.i.p.p.j.y.g.N.,.} N.t ` iXiXiXg.m S.:.r.=.( u b ..eX{.%X%X%X%X%X%X%X%X",
",X{.%X$X*X$X2X^ P R.%.= Q t.*.u.h.i.h.m.h.4.4.h.4.6.h.i.i.i.i.i.j.u.( u 8 f g.u.u ( 7X0XH C *.] V 1 w | U.eX%X%X%X%X%X%X%X%X%X%X",
",X{.%X$X*X$X2X^ F ..O.e @ 2 P { X.&.2.4.h.m.h.h.h.h.h.h.i.i.i.i.2.4 p ] :.p.:.V.&.r 1 % % d < d I D.|.tX1X%X{.2X%X%X%X%X%X%X%X%X",
"{.%X%X%X2X%X1XQ.L 0 e ] e.u.I e e 8 8 f H E E / } } } } ] ( ] ] & R V.P.r.z.*.H f w 8 u ..w.Y.{.,X,X^.{.{.{.2X%X%X%X%X%X%X%X X X",
"}.%X%X}.%X{.{.,X1XR.'.,X X1X,X1XU.w.@.#.[ L N M b b d i i i b b * %.=.] ] n i i | G.,X<X<X{.1X}.,X'.%X%X%X&X&X#X%X%X%X%X X X X X",
"%X}.%X%X#X&X%X}.{. X+X]. X X{.{. X,X,X,X%X,X,X%X X X[.'.'.[.+X+X0.& q 2 p L 0.+X<X>X].'.[.,XU.%X{.2X%X%X%X{.%X%X%X%X%X%X%X%X X X"
};
