/* XPM */
static char *result[] = {
/* columns rows colors chars-per-pixel */
"69 64 256 2 ",
"   c #010101",
".  c #03040A",
"X  c #08090A",
"o  c #0A0105",
"O  c #0B010B",
"+  c #12010D",
"@  c #140213",
"#  c #090B14",
"$  c #0D0211",
"%  c #150A1A",
"&  c #280A28",
"*  c #1B101F",
"=  c #1C021B",
"-  c #15021A",
";  c #240223",
":  c #321237",
">  c #2C032B",
",  c #1A0215",
"<  c #22021D",
"1  c #2B0225",
"2  c #34062B",
"3  c #25041B",
"4  c #17020D",
"5  c #25032A",
"6  c #370838",
"7  c #340333",
"8  c #1D0322",
"9  c #2D0232",
"0  c #44073B",
"q  c #4A123F",
"w  c #3B0334",
"e  c #32041F",
"r  c #33032C",
"t  c #3C033B",
"y  c #440443",
"u  c #470947",
"i  c #4B0345",
"p  c #43023D",
"a  c #3C0543",
"s  c #4C044B",
"d  c #4C0752",
"f  c #540452",
"g  c #54074A",
"h  c #53034C",
"j  c #580A58",
"k  c #64055B",
"l  c #832A7A",
"z  c #762872",
"x  c #5C035A",
"c  c #680765",
"v  c #5C0862",
"b  c #5B0354",
"n  c #75076B",
"m  c #C54BBC",
"M  c #FC87FA",
"N  c #B54CB1",
"B  c #D350CD",
"V  c #E44FD9",
"C  c #AA29A5",
"Z  c #891686",
"A  c #791576",
"S  c #6F1371",
"D  c #790875",
"F  c #890A85",
"G  c #84097B",
"H  c #991895",
"J  c #94178B",
"K  c #9B2697",
"L  c #E56DDB",
"P  c #F172EC",
"I  c #FEA7FC",
"U  c #DA28D3",
"Y  c #C31AB6",
"T  c #2B0836",
"R  c #581465",
"E  c #94098A",
"W  c #980B95",
"Q  c #A50B99",
"!  c #B114AA",
"~  c #A4169A",
"^  c #D033CA",
"/  c #B431AE",
"(  c #691567",
")  c #FFC3FF",
"_  c #FE97FC",
"`  c #8F2E8D",
"'  c #C531BA",
"]  c #E28CDA",
"[  c #ED8FE9",
"{  c #C56BBC",
"}  c #4F2D6E",
"|  c #4F1352",
" . c #944792",
".. c #85157B",
"X. c #9B4DA3",
"o. c #B36BB0",
"O. c #FFDCFF",
"+. c #FFCCFF",
"@. c #FFD4FF",
"#. c #EEAEEA",
"$. c #D58BD2",
"%. c #FEBCFE",
"&. c #FFE4FF",
"*. c #FFECFF",
"=. c #A52B9B",
"-. c #D8ACD7",
";. c #FEF3FE",
":. c #D26ECF",
">. c #9A26A6",
",. c #D998E4",
"<. c #FDFBFE",
"1. c #F9EBF6",
"2. c #FDB4FC",
"3. c #68155E",
"4. c #F7C6F5",
"5. c #D86FE4",
"6. c #F6F6F7",
"7. c #71278F",
"8. c #F7D9F4",
"9. c #EBCDEB",
"0. c #B93CC2",
"q. c #920F7F",
"w. c #ED55E8",
"e. c #F3FEFF",
"r. c #180924",
"t. c #2A174D",
"y. c #3F0C62",
"u. c #030612",
"i. c #A361D1",
"p. c #E7EFF2",
"a. c #5A57A0",
"s. c #A09AE2",
"d. c #131A37",
"f. c #252D57",
"g. c #273872",
"h. c #4974AA",
"j. c #324F8F",
"k. c #12142C",
"l. c #243769",
"z. c #274886",
"x. c #161E48",
"c. c #050519",
"v. c #0A0D1B",
"b. c #030E22",
"n. c #142748",
"m. c #644E79",
"M. c #0A1423",
"N. c #041423",
"B. c #0B2B4C",
"V. c #487194",
"C. c #162B55",
"Z. c #03090D",
"A. c #04121C",
"S. c #03152A",
"D. c #153558",
"F. c #042B4B",
"G. c #15446A",
"H. c #030B13",
"J. c #030D1B",
"K. c #041A2C",
"L. c #093965",
"P. c #5090B4",
"I. c #031D3A",
"U. c #27648B",
"Y. c #031C33",
"T. c #19547A",
"R. c #0B2A44",
"E. c #08355A",
"W. c #3778A6",
"Q. c #032443",
"!. c #081A38",
"~. c #0B2543",
"^. c #265987",
"/. c #041925",
"(. c #133149",
"). c #1E485F",
"_. c #0A1925",
"`. c #0A131C",
"'. c #0B2234",
"]. c #346F96",
"[. c #081E43",
"{. c #04223C",
"}. c #062437",
"|. c #2A5275",
" X c #0A1A2C",
".X c #163967",
"XX c #254578",
"oX c #09314C",
"OX c #0B3254",
"+X c #041217",
"@X c #082C53",
"#X c #0A4876",
"$X c #276797",
"%X c #0B233C",
"&X c #4788B6",
"*X c #212930",
"=X c #13233B",
"-X c #4F94C8",
";X c #062749",
":X c #55A8D0",
">X c #09436A",
",X c #164877",
"<X c #3686B2",
"1X c #2D70AE",
"2X c #6A97CB",
"3X c #185787",
"4X c #143870",
"5X c #285795",
"6X c #0A1C34",
"7X c #6EB6E5",
"8X c #08212D",
"9X c #78C9EE",
"0X c #1C68A8",
"qX c #174B84",
"wX c #3A829D",
"eX c #1A6692",
"rX c #89D7F9",
"tX c #58A6E8",
"yX c #71AFD2",
"uX c #12568F",
"iX c #358DC8",
"pX c #98E4FD",
"aX c #8FE4FE",
"sX c #6FC3DF",
"dX c #6592A8",
"fX c #91CFEF",
"gX c #AAF5FF",
"hX c #A8E7FC",
"jX c #8EC6D9",
"kX c #B9F9FF",
"lX c #CCFDFF",
"zX c #080D23",
"xX c #8AB5D3",
"cX c #B8E9FD",
"vX c #2D3A85",
"bX c #5971CB",
"nX c #0B152B",
"mX c #36A2D0",
"MX c #D1D2F4",
"NX c #3158A9",
"BX c #E9F6FC",
"VX c #ADD4F1",
"CX c #D4E9F8",
"ZX c #8EB7E7",
"AX c #EBFEFF",
"SX c #9795B5",
"DX c #D6F4FE",
"FX c #E4FEFF",
"GX c #ACC9D8",
"HX c #C6E9FD",
"JX c #6C92B1",
"KX c #DCFEFF",
"LX c #C7F7FF",
"PX c #D4FEFF",
"IX c #2D7BC5",
"UX c #195DA3",
/* pixels */
"                                                                                                                                          ",
"                                                                                                                                          ",
"                                                                                                                                          ",
"                                                                                                                                          ",
"                                                                                                                                          ",
"                                                                                                                                          ",
"                                      o                                                                                                   ",
"                        O = = = @ @ < ; = @ o                                                   O @ , @ O                                 ",
"                        8 7 u 3.( n A ..( i 7 6 7 > @ o                           o O + @ @ = 7 3.` N N y : $                             ",
"                    o , } $.-.$.#.8.8.4.9.-.-.#.$.o.z 7 = + o o           O + , < t j X.o.-.-.-.$.,.#.#.o.l ` > O                         ",
"                  @ t  .-.4.1.-.o.l ( c D S z m.m.-.9.-.` y 0 @ o       = 7 z N $.#.$.o.o.l j p > 7 ( m #.#.$.X.7 $                       ",
"                , u { 9.1.8.$.S y ; = = = O + , r y 3.$.4.,. .w @ o O = f K $.{ $.l 6 , @ , @ $ O @ r k D n l $.{ R O                     ",
"              $ | -.1.$.X.Z j ; O             O @ < 7 i ` 9.9. .t 1 x c A #.#.l 7 @ + . o o       o @ = ; ; 7 s X.$.} +                   ",
"              = ( 9.-.3.> ; +                     . + < u ` $.4.{ X.C J $.8.N s , o                           @ > z $.3.@                 ",
"              :  .o.q = o                             @ ; 1 g o.#.8.] 4.#.N b 1 O                               O , m.{ z @               ",
"               XXXk.o                                   o   + 7 ( 3.-.o.k y < O                                     , | $.u +             ",
"            N.).(.                                            o o - > < @ $ O                                       $ =  .X.< o           ",
"          . R.).H.                                                                                                  o = j { 7 @           ",
"        . J.}.|.Z.                                                                                                  O 1 l { q $           ",
"        . u.|.)..                                                                                                     O =  .X.- o         ",
"        . u.|.~..                                                                                                     o = j o.= o         ",
"        Z.J.^.K..                                                                                                     o > l o.+           ",
"        . S.^.J..                                                                                                       > /  .O           ",
"        . %XU./..                                                                                                     o r K z O           ",
"        . %X].B..                                                                                                     & 6  .z O           ",
"          H.|.|.Z.                                                                                                    - t N g O           ",
"          . D.].H.                                                                                                  o = g X.; o           ",
"          . Y.wXK..                                                                                                 , 3.N 3.o             ",
"            u.].].J.                                                                                                @ t :.>               ",
"            . Y.P.K..                                                                                               - l  .+               ",
"            . (.].).H.                                                                                            o s / > o               ",
"            . N.G.P.K.H.Z.                                                                                      o > =.z O                 ",
"                J.|.P.Y.N..                                                                                   o + p =.; o                 ",
"                  H.V.dXK.H.                                                                                  8 u ` z @ O                 ",
"                    K.yXV.b.                                                                                # R l ( @ o                   ",
"                    Z.|.yXD.J..                                                                         . nX} SXl @                       ",
"                    . n.|.2XG.A..                                                                     . d.JXGXs.f.#                       ",
"                    . H.J.|.2XoXH.                                                                    # C.JXBXJXf.k.                      ",
"                      . . u.V.yX'..                                                                 . n.NXVXxXXXn.v.                      ",
"                            J.|.yX=XJ..                                                           u.%XyXCXxXXXC.b.                        ",
"                            . S.wXxX).N.                                                      . A.D.SXMXSX=XnXv..                         ",
"                              H.Y.V.2X=X.                                                   Z. XV.ZXCXSX X.                               ",
"                              . J.R.yXJX_.H.Z.                                            . K.|.xXVXxXl.nX.                               ",
"                                . S.%X2XxX).N..                                         . S.JXCXCXJXD.%X+X                                ",
"                                  Z.N.|.dXGXdXK.. .                                   u.N.OXGXMXV.%XN.H..                                 ",
"                                      Z.S.|.jXdXK.Z.                              . M.%XD.xXHXV.M.u..                                     ",
"                                        . H.|.GXdXY.u..                         u.I.V.dXGXGXj.S..                                         ",
"                                            N.).xXJX].b.                      H.{.2XVXVXxXG./..                                           ",
"                                            . Y.~.xXJXA.                  . J.Y.L.GXHX:X.XN.Z.                                            ",
"                                              A./.|.GXV.K..             Z.N.B.JXGXGX1X5X}.H.                                              ",
"                                              . J.%XD.xXdXR.A.        Z.N.%XXXVXGX1X3X.XN.                                                ",
"                                                  Z.N.B.xXxX|.A.. . u./.OXdXGXxXG.OX~.M..                                                 ",
"                                                    . u.N.GXfX).A.J.%X|.GXGXU.~.S.H..                                                     ",
"                                                        . =XJXyX;X6X|.GXSX(.Y.H.                                                          ",
"                                                          N.R.xXdXV.MXJX6XH..                                                             ",
"                                                          J.nXD.GXVXxXOX+X.                                                               ",
"                                                              H.(.R.%XM..                                                                 ",
"                                                                  . .                                                                     ",
"                                                                                                                                          ",
"                                                                                                                                          ",
"                                                                                                                                          ",
"                                                                                                                                          ",
"                                                                                                                                          ",
"                                                                                                                                          "
};
