/* XPM */
static char *_b91120ee7a14db3f7418d3454e2196bdgRtf7x12w3KgrFx[] = {
/* columns rows colors chars-per-pixel */
"64 64 243 2 ",
"   c #3D001D",
".  c #3C0014",
"X  c #3D000D",
"o  c #3F0423",
"O  c #360F26",
"+  c #390F27",
"@  c #3D0F29",
"#  c #351027",
"$  c #3D1026",
"%  c #3B1029",
"&  c #4B010D",
"*  c #54020B",
"=  c #5D020B",
"-  c #590608",
";  c #4D0114",
":  c #44021B",
">  c #4C021B",
",  c #44081B",
"<  c #540115",
"1  c #5D0414",
"2  c #55021B",
"3  c #5B051B",
"4  c #53091D",
"5  c #5E0B1C",
"6  c #5B0B15",
"7  c #5E101D",
"8  c #6A0A09",
"9  c #66050B",
"0  c #790B0A",
"q  c #7A150D",
"w  c #630314",
"e  c #6D0A14",
"r  c #63021B",
"t  c #6B0C1C",
"y  c #690717",
"u  c #730D1B",
"i  c #760B14",
"p  c #68121B",
"a  c #79161A",
"s  c #65120E",
"d  c #440426",
"f  c #4B0524",
"g  c #440C26",
"h  c #4A0A26",
"j  c #430429",
"k  c #4D062B",
"l  c #430C2A",
"z  c #4B0A2B",
"x  c #550524",
"c  c #5A0325",
"v  c #520926",
"b  c #5C0A23",
"n  c #54062B",
"m  c #5B062B",
"M  c #520A2C",
"N  c #5A0A2C",
"B  c #40102A",
"V  c #441028",
"C  c #58122B",
"Z  c #410C30",
"A  c #4E0A31",
"S  c #4C0935",
"D  c #520634",
"F  c #540A31",
"G  c #5C0B32",
"H  c #5A0637",
"J  c #4C1131",
"K  c #5B1233",
"L  c #561536",
"P  c #630524",
"I  c #650C24",
"U  c #6C0B23",
"Y  c #63062B",
"T  c #640A2B",
"R  c #6C0A2C",
"E  c #6B0527",
"W  c #740D23",
"Q  c #7A0C23",
"!  c #760E2D",
"~  c #730B2C",
"^  c #770B29",
"/  c #6C1124",
"(  c #64132C",
")  c #6A1427",
"_  c #741324",
"`  c #7C1324",
"'  c #741B25",
"]  c #7C1923",
"[  c #75142A",
"{  c #7C132C",
"}  c #7A1B2C",
"|  c #741A2A",
" . c #680934",
".. c #730E33",
"X. c #7A0E30",
"o. c #671733",
"O. c #7C1332",
"+. c #7A1735",
"@. c #7C232A",
"#. c #7E2332",
"$. c #870C1A",
"%. c #940E1F",
"&. c #8B131D",
"*. c #871819",
"=. c #961C1C",
"-. c #821E0F",
";. c #872617",
":. c #932A1F",
">. c #A0251E",
",. c #8B0D25",
"<. c #860E29",
"1. c #920D2B",
"2. c #990D2D",
"3. c #831325",
"4. c #8A1325",
"5. c #841B23",
"6. c #85132C",
"7. c #8B142B",
"8. c #841C2D",
"9. c #8C1B2B",
"0. c #8C1B25",
"q. c #951424",
"w. c #941C26",
"e. c #9D1A24",
"r. c #93142C",
"t. c #9B152D",
"y. c #941C2C",
"u. c #9C1B2B",
"i. c #9A1423",
"p. c #841533",
"a. c #8D1633",
"s. c #8C1B34",
"d. c #8B1A3B",
"f. c #87183A",
"g. c #941534",
"h. c #9C1533",
"j. c #941B34",
"k. c #9C1C34",
"l. c #92153A",
"z. c #9C173A",
"x. c #941B39",
"c. c #9C1B3A",
"v. c #8C0E33",
"b. c #A1162D",
"n. c #A31B2B",
"m. c #A61927",
"M. c #A41C35",
"N. c #AB1B34",
"B. c #A31C3B",
"V. c #A91E3A",
"C. c #A31536",
"Z. c #B31B34",
"A. c #89252A",
"S. c #9D222A",
"D. c #94282A",
"F. c #8D223B",
"G. c #882734",
"H. c #952336",
"J. c #9B2235",
"K. c #942B33",
"L. c #93233B",
"P. c #9A223A",
"I. c #9B2A3B",
"U. c #883135",
"Y. c #983437",
"T. c #8E342A",
"R. c #A2232D",
"E. c #AA212E",
"W. c #A72A29",
"Q. c #A7392D",
"!. c #A22434",
"~. c #AB2333",
"^. c #AA2B35",
"/. c #A2223A",
"(. c #A72839",
"). c #B32232",
"_. c #B32C39",
"`. c #B72839",
"'. c #A93839",
"]. c #B6373D",
"[. c #B3202A",
"{. c #B04A3C",
"}. c #991B40",
"|. c #A51940",
" X c #982142",
".X c #933044",
"XX c #A42A42",
"oX c #A13A41",
"OX c #BB3844",
"+X c #B73E51",
"@X c #C63D44",
"#X c #9D4841",
"$X c #A94249",
"%X c #B44747",
"&X c #BC554E",
"*X c #B74C56",
"=X c #B65859",
"-X c #AB4550",
";X c #D44C55",
":X c #C75858",
">X c #D6585C",
",X c #C74D4E",
"<X c #D9635F",
"1X c #EC5D69",
"2X c #C76162",
"3X c #D6676A",
"4X c #DB6B73",
"5X c #D97775",
"6X c #D07268",
"7X c #E7656A",
"8X c #E77878",
"9X c #F8787C",
"0X c #F56872",
"qX c #D75A68",
"wX c #EF8E7C",
"eX c #DD7F80",
"rX c #FC7C84",
"tX c #FB7C87",
"yX c #FF868C",
"uX c #FD8D8D",
"iX c #F88887",
"pX c #FF988C",
"aX c #FE8B92",
"sX c #FE9B9C",
"dX c #FD9795",
"fX c #EC8D8C",
"gX c #FFA79A",
"hX c #FFAE97",
"jX c #FF9CA1",
"kX c #FFA5A4",
"lX c #FFA9A6",
"zX c #FFA4A9",
"xX c #FFACAC",
"cX c #FFB3AA",
"vX c #FFB0A1",
"bX c #FFAEB3",
"nX c #FFB4B3",
"mX c #FFB7B9",
"MX c #FFCBBE",
"NX c #FFC3AA",
"BX c #FFBEC5",
"VX c #FFC8CB",
"CX c #FFD5CA",
/* pixels */
"# # O O O O O O % % @ @ @ @ % % @ @ @ @ l l l l l l l l g g g g l l l l l l l l l l l l l @ @ @ @ @ @ @ % % % % + + + + + + O O ",
"# # O O O # O O % % @ @ @ @ % % @ @ @ @ l l l l l l l l g g l l l l l l l l l l l l l l l l @ @ @ @ @ @ % % % % + + + + + + O O ",
"O O O O O O O O % % @ @ @ @ @ @ % % @ @ l l l l l l l l l l l l l l l l l l l l l l l l l l @ @ @ @ @ @ @ @ @ @ % % + + + + + + ",
"O O O # O O O O % % @ % @ @ @ @ @ @ @ @ l l l l l l l l l l l l l l l l l l l l l l l l l l l l @ @ @ % @ % % % @ % % + + + + + ",
"O # O O O O + % @ @ % @ @ @ @ @ % % @ @ @ l l l l l l l l l l l l l l l l l l l l l l l l l l B @ @ @ @ @ @ @ % @ @ % % % + + + ",
"# # O O O % % @ % @ % % @ l l l B @ @ @ l l l l l z z z z z z z z z z z z z z z l l l l l l l l @ l l @ @ @ @ @ @ @ @ % % % + + ",
"O O + + % % @ @ @ % % l l l l l l l g g l l l z z z k k k k M k k k k k k k z z z z l l l l l l l l l l l @ @ @ @ % @ @ % % % % ",
"O O + + % @ @ @ @ l l l l l l l l g g g l z z z k M M M M M M M M M M M M M M M z z z l l l l l l l l l l l l @ @ @ @ @ @ % % % ",
"+ + + % % % % @ l l l l l l l l g g g h z z M M n n n n n n n n n n n n n n n M M M M z z z l l g g l l l l l l @ @ @ % % % % % ",
"+ + % % % % % l l l l l l l l g g h h h z M M n n n m m m m m m m m m m m m b m n M M M z z z z g l l l l l l l l l @ @ % % % % ",
"+ + @ @ % % % l l l l l l l l g z z z M v v x m c m m Y Y Y Y Y T T T Y Y Y Y m b m n M M M k z z z z l l l l l l @ @ @ % % % % ",
"@ @ @ @ % % B l l l l l l l l z M M M M m m m m Y Y Y R R R R R R R R R R R T Y Y m m m N M n M z z z z l l l l l l @ @ @ % % % ",
"@ @ @ @ @ @ l l l l l g l z z z M M M M m m Y Y R R ~ ~ ! ..X.! ! ! ! ! ~ ~ R R Y Y Y m N N n n z z z z z l l l l l @ @ @ % @ @ ",
"@ @ @ @ @ l l l l l l g z z z z n n x m m Y R R ~ ! ! X.X.O.O.O.{ { { O.{ ! ! ~ R R T Y m N m n M z z z z z l l l l l % @ % @ @ ",
"@ @ @ @ B l l l l l l z z z z M n m m m T  .....O.O.p.p.p.p.p.p.p.p.p.p.p.p.O.O....... . .m m N M z z z z z l g l l l @ @ @ @ @ ",
"% % @ @ l l l l j l z z z M v v m P P E R [ { 6.6.7.a.a.a.a.d.d.a.a.a.a.a.a.7.6.p.p.O...R Y Y Y x v M M k z l g g g l @ @ @ @ + ",
"% % $ g g l l l j l S j F N b r E y 6.8.$.4.R.u.e.n.~.u.t.g.a.l.l.z.c.g.t.M.M.e.u.4.r.j.a.p.^ P P < G k D S j J g g l l @ @ % $ ",
"% % $ g g g l l A j S L n 2 P U { 9.J.*XrXyXyXyXyX1X).E.~.M.k.g.z.1.2./.M.m._.;X7XrX9XqX+XJ.s.{ y U x  .D S L . g g l l Z @ @ $ ",
"% % l g g g l l o z z d o.b [ _ A.3XzXzXyX0X0X0X0XaXnX9X]._.E.%.u.q.~._.OXtXbXjXaXrXtXaXbXzX:XK.] t Y x D L z g g g l l Z @ @ % ",
"@ @ l g g g g l J J h K > r [ -XbXsX>XR.E.~.m.E.~._.OXaXzX;XE.W.=.W.^.7XbXaX+XOX~.n.e.^.'.3XkXiXY.] I m G   h h h g l l Z l @ % ",
"l l l l g g g l l o L : | #.*XBX2XD.*.D.D.9.J.y.k.u.~.n.>XkX9XW.W.Q.iXkX;Xn.`.M.u.y.S.w.S.$.:.uXgX$X[ 2 M L h C h g l l Z l @ @ ",
"l l l l g g g g L L C 4 p $XVX*XD.q 9 a ' t U p.p.6.3.y.*.'.pXvXpXcXiX'.q.r.1.,.6.7.Q *.i 0 D.q fXjXG.* 2 C o.h h g l l l l @ @ ",
"l l l l g g g g o : ; * s nX4X9 s * * < < b N ; ; b 3 * 9 8 A.fXCX6Xa - = w r w w w t w * = 6 s 8 8XfX' < > X , h g l l l l l @ ",
"l l l l g g g g o z & 6 6XsXa u 1 ) I 5 ( T m ( o.b ( | t e ] i Y.@.' _ t I ) U ~ ^ E U / p 6 9 8 D.xXoXp ; 4 > h h l l l l l @ ",
"z z l l g g g l z f 6 U.hX&X5.` 6.p.p.f.d.d.d.d.d.f.s.s.j.j.r.,.y 9 Q j.s.s.L.d.d.d.f.f.+.+.p.6.0.*.5XfX' 7 4 f z z z l l l l l ",
"z z Z l g g g z d M 5 #XhX:.5.Q a.l.l.l.x.x.j.j.j.j.k.k.B.B.B.z.6.Q 4.P.x.k.c.g.j.d.d.d.d.d.l.a.0.*.%XsXU.7 C v z k z l l l l l ",
"z l l l g , g z F N p 6XvX:.0.d.l.l.g.s.s.s.y.y.u.e.t.b.M.B.B.B.c.r.s.H.j.y.J.y.y.j.j.x.x.l.d.f.4.*.'.mX=X6 4 x M A z z g g l l ",
"l l l l g , h k D c _ dXNX{.a p.g.g.g.j.y.y.w.w.u.e.n.b.M.M.M.B.V.h.k.J.y.u.S.u.w.y.y.h.h.x.d.s.y.&.&XCX5X' 4 M D A k z g g g l ",
"g l l l g g h M H c t wXhXT.u f.a.a.r.r.t.t.t.e.n.u.u.M.M.M.N.N.M.M.N.N.N.n.n.n.b.b.t.t.j.h.h.h.k.&.'.nX2X' b N D D k z g g g g ",
"g g l l g , h F H  .u :XwX8 _  Xf.s.j.j.h.b.b.t.u.u.k.M.M.M.V.N.M.M.N.Z.N.N.b.b.b.b.h.j.j.x.h.h.,.y.D.sXA.= b n D D k z h g g g ",
"g g l l g g h F n  .` %XhX-.[ +.d.s.s.j.x.x.z.z.z.z.B.B.B.B.B.B.M.V.M.M.B.B.k.k.z.k.x.x.x.x.j.a.r.(.:XdXa * I n D D k z h h g g ",
"g g l l g g z F  .Y t Y.gX{.` d.a.a.s.j.j.x.x.z.c.B.|.B.B.B.B./.M.V.k.k.B.B.z.z.z.x.x.x.x.j.s.9.I.w.8X8Xa 1 T n D D k z h h g g ",
"l l l g g h z M M x U ] iX8X=.S.x.g.g.k.j.7.y.J.k.z.B.B.B.M.N.N.N.V.M.M.B.M.M.k./.g.c.g.g.h.x.j.R.W.zX$X} I b n n k k z h h g g ",
"l l l g l z z M f C 5 | $XxX>.=.,.a.P.r.9.I.7.H.j.z.c.z.c.M.N.N.M.M.k.k.k.k.k.k.c.7.a.j.x.j.a.4.$.<XaX5.} I N M z z k z z z l l ",
"l l l g l l z M M N < _ 5.uX8X0 0.Q 8.G.{ L.s.s.F.F.F.L.c.B.J.H.H.H.J.P.L.L.F.F.s.s.x.F.} G.Q 9.S.gX*X] 1 < K C z z z z g g l l ",
"@ l l l l l z z L f x / G.$XbX%Xi e t ' W U O.W U U t W Q Q Q ^ _ W Q Q ^ W ~ U U p.Q w @.* u a aXuX5.G.< x K L z z z l g g l l ",
"B B l g l l l z   . > & w u 3XsXq 8 s * E r r r 1 w w w w r r r r w w r r r r r r w w = y t = *XxXK.e * < > :   z z l l g g l l ",
"% B l g l l l l z : N 3 1 _ '.dX8X;.5.u ^ O.[ ~ { { 3.` } +.O.p.{ } } } O.O.O.O.O.W } ` i K.Y.xX3X9.W 3 ( f F d z z l l g g l l ",
"@ B l g g l l l J d M N I U H.$XxX:X^.!.s.F.L.j.x.x.H.H.F.F. X XL.L.F.F.L.x.x.x.a.I.8.9.(.S.dXfXA..Xt R T f K k z z l g g g l l ",
"@ l g g g g l z z F N x T ~ { H.:XlX@Xn.(.9.r.z.h.h.x.j.x.x.c.c.c.x.x.x.x.z.z.h.g.j.r.(.~.tXaX!.H.{ O.P ( K k k z z g g g g l l ",
"l l g g g g l z z k F N T R { 6.n.7XxX].m.).e.r.h.2.z.c.z.z.k.k.B.g.z.k.h.k.C.2.t.q.`.).8XzX_.~.6.{ ~ T m n n k k z f g g l l l ",
"l l g g g g l z k A M N Y R ! <.u.i.3XnX@X[.).n.M.B.h.C.C.t./.r.,.XXh.2.M.t.b.V.b.`.Z.1XbX%XE.i.<.X.R T m N n k k h f g l l l l ",
"l l g g g g z z A A F n m Y R ^ <.J.R.>XcX,Xm.).%.k.h.2.B.t.$.!.k.1.h.M.t.t.y.i.`.m.4XmXOXm.R.7.{ ! R Y G F M M k h f h l l l l ",
"l l l g g g g l z A F n N Y Y ~ U 4.k.R.:XlX7Xm.^.r.M.h.1.k.k.r.k.g.M.t.q.u.u.^.m.0XbX%X(.M.4.Q ~ R Y m N F M k k f h h g l l l ",
"l l l g g g g l l z A n N m Y R ! U 6.j.S.,XnX7Xn.`.q.j.H.4./.r.z.z.4.I.y.q.OXn.8XmXOXu.XX{ 6.^ ~ R Y m M M M k z h h g l l l @ ",
"@ @ l g g g g g l l A M n N Y Y ..O.U Q k.(.Y.xX9XE.^.u.4.P.<.z.z.r.H.3.!.^.m.rXnXK.(./.t O.~ +.R Y m m M M k z h g g g l l @ @ ",
"@ @ @ B B g g g l l A k n n m Y c ..O.O.Q XX$.].jXuX^.e.(.r.}.l.v. Xr.k.w.^.uXzX^.w.I.Q X.f.R  .Y Y m n M k z l g g g g l l @ @ ",
"@ @ @ B B g g g l l l k k n n m T Y T R R [ 7.&.*.uXkX].&.k.a.j.j.4.J.$.!.sXsXD.&.9.u / .... . .T m n M z k z l g g g g B % @ @ ",
"@ @ @ @ l l l l g l z k k M M M x m ( o.o.( I w U.a 5XnX2X*.*.*.q D.q %XnXaXD.K.y t ( o.o.o.T m n M M M z z l g l g g @ @ @ % % ",
"@ @ @ @ l l l l l l z z z z z z N v f : : > ; < 1 ' 9 '.xXdXQ.;.;.q 6XnX3Xa e r 3 > : : : f v M M k z z z z l g l l l @ @ @ % % ",
"@ @ @ @ l l l l l l l l z z z k N N v h f v v b < w w 9 D.5XlXcXMXMXdX%X*.e w r 3 v h h f h M M M z z z z z l l l l l @ @ % % @ ",
"@ @ @ @ % l l l l l l l z z z k f n M N C N N N I ) _ { 8.] oXeXkX=XU.A.u Q [ E b N C C F M n n z z z z z l l l l l @ @ @ % @ @ ",
"@ @ @ @ % l l l l l l l l l z z N M M k k k M m x P I r r [ | w U.' / _ W U E Y N N M z k k n M z z z z l l l l l l @ @ @ % % % ",
"+ + @ @ % % l l l l l l l l z z F F F k k M M F G m Y R T < < b 5 & < R R P Y c G F A z k M F F z z z l l l l l l @ B @ % @ % + ",
"+ + @ % @ @ % l l l l l l l l z d f k k A k k k G c x c m T T N 4 4 x c c m T m k k k A z k k f g l l l l l l l l B B % % @ + + ",
"+ + + @ @ % % % @ l l l l l l l z z z k k A k M n n N N n n N v v N M x m m c N M M z z k z z z d g l l l l l l B % % % % @ + + ",
"+ + + + @ @ @ @ @ l l l l l l l h z h h z z z z M M n n n n M k z h z M n n n M z z z z z h h h l l l l l l l B @ @ @ @ @ % % % ",
"+ + + + @ @ @ @ @ @ l l l l l l g h g g g l z z k k n M M k k z z z z z z M M z z h h h g g h g g l l l l B B % @ % @ @ % % % % ",
"O O O O + % @ @ @ @ @ l l l l l g g g g g g g z h k k k k k z z z z z z z z z z h h h g g g g g g l l @ @ @ @ @ @ @ @ % % % + + ",
"O O O O + + + @ @ @ @ @ @ l l g g g g g g g l g z z h z z z l l l l l l g g g g g g g g g g g g @ @ @ @ @ @ @ % @ @ % % % + + + ",
"O O O O O O + + @ @ @ @ @ @ @ l g g g g g g l l l z z h l l l l l l l l g g g g g g g g g l l B @ @ @ % @ @ @ @ @ % % + + + + + ",
"O O O O O O + + @ @ @ @ @ @ @ @ @ @ @ @ @ @ l l l l z l l l l l l l l l l g g g g g g l l l % % @ @ % % @ @ + + % % + + + + + + ",
"O O O O O O + + % % @ @ @ @ @ @ @ @ @ % @ @ l l l l l l l l l l l l l l l l l l l l l l l @ % @ % % % @ % + + + + + + + + + O O ",
"O O O O O O + + % % @ @ @ @ @ @ @ @ @ @ % @ @ l l l l l l l l l l l l l @ @ l l l l l l @ @ @ @ % % % @ % + + + + + + + + + O O "
};
