/* XPM */
static char *ef817604105f49efcd0f5bddab1fb676TYeVrY0vf51tNpFb[] = {
/* columns rows colors chars-per-pixel */
"64 64 236 2 ",
"   c #E0BA51",
".  c #EA9966",
"X  c #EA9A68",
"o  c #F8947F",
"O  c #D7BC68",
"+  c #DCA17B",
"@  c #E6C446",
"#  c #ECC14A",
"$  c #F5C442",
"%  c #F9C944",
"&  c #E8C35E",
"*  c #F3C854",
"=  c #E2C36E",
"-  c #7CBF9C",
";  c #75B7BC",
":  c #5DD597",
">  c #5ED698",
",  c #5FDA9B",
"<  c #71CC84",
"1  c #6CCA9A",
"2  c #75C99E",
"3  c #61D69A",
"4  c #75CEA0",
"5  c #75D2A2",
"6  c #729DDA",
"7  c #5FBAC2",
"8  c #61BAC2",
"9  c #73B0DA",
"0  c #6EB8EC",
"q  c #7BBAE7",
"w  c #6ABBF4",
"e  c #6EC2FC",
"r  c #70C1FC",
"t  c #D59E92",
"y  c #E99786",
"u  c #FC9782",
"i  c #F39885",
"p  c #FD9885",
"a  c #EA9F90",
"s  c #CEA59C",
"d  c #CABE9D",
"f  c #F4A899",
"g  c #DABBA5",
"h  c #D8B7AC",
"j  c #E6B6AC",
"k  c #E6B9AC",
"l  c #F6B4A8",
"z  c #F7B6AC",
"x  c #E9BEB4",
"c  c #82C490",
"v  c #88CEAA",
"b  c #99CEB2",
"n  c #9BD3B4",
"m  c #9FD3B8",
"M  c #96DEBD",
"N  c #B5C7AA",
"B  c #A6CDB4",
"V  c #ADCCBC",
"C  c #B5D5BF",
"Z  c #DEC78A",
"A  c #D6C795",
"S  c #E1CC93",
"D  c #FAED96",
"F  c #D8CBA9",
"G  c #D7CCBD",
"H  c #E4C5B6",
"J  c #FAC5BB",
"K  c #F8C6BB",
"L  c #FDD4BA",
"P  c #DDE5BB",
"I  c #E7E8AC",
"U  c #F4EEA9",
"Y  c #F9F1A7",
"T  c #FBF2AB",
"R  c #FBEBB5",
"E  c #F8EAB7",
"W  c #F4F1B7",
"Q  c #FCF2B5",
"!  c #B08FDA",
"~  c #B699DB",
"^  c #8CB1D0",
"/  c #A6BACD",
"(  c #BBA4D9",
")  c #BBB7D7",
"_  c #B68CEC",
"`  c #B997E6",
"'  c #B88BF3",
"]  c #BA8CF6",
"[  c #81BEEA",
"{  c #C0ACDA",
"}  c #C3BBD6",
"|  c #C4BCDA",
" . c #C7B8DC",
".. c #C4A9E7",
"X. c #C7B3E1",
"o. c #9FD1C4",
"O. c #9BDFC3",
"+. c #9DC0D9",
"@. c #A5CACA",
"#. c #A3DCC3",
"$. c #A8DCC7",
"%. c #B5D4C3",
"&. c #A6C5DB",
"*. c #BAC6D9",
"=. c #BBD2DF",
"-. c #9DE2C8",
";. c #A3E3CA",
":. c #AAE3CB",
">. c #B6E7CB",
",. c #A6E4D7",
"<. c #ACE5D2",
"1. c #ACE6DC",
"2. c #B2E5D3",
"3. c #B7E8D8",
"4. c #AED3ED",
"5. c #B8D5EA",
"6. c #ACD7F2",
"7. c #AAE6E3",
"8. c #ADE7E8",
"9. c #BDE6E5",
"0. c #B6E8E7",
"q. c #B4E8EC",
"w. c #BCE0F5",
"e. c #BDE9F3",
"r. c #CAD2C3",
"t. c #D8D0C6",
"y. c #C9C7D9",
"u. c #CCC4DC",
"i. c #D1C6DF",
"p. c #CBDDD8",
"a. c #D5D5D5",
"s. c #D7D8D9",
"d. c #DCDCDD",
"f. c #EDCDC8",
"g. c #F7CCC6",
"h. c #E5D1CC",
"j. c #ECD1CD",
"k. c #FAD3C4",
"l. c #F7D3CC",
"z. c #E4D9D5",
"x. c #F7D9D6",
"c. c #F4DCDD",
"v. c #D0E8CB",
"b. c #C7E7D6",
"n. c #C4EBDB",
"m. c #CBEDDD",
"M. c #D6E5DA",
"N. c #D4ECDA",
"B. c #DCF1D1",
"V. c #F6E9C6",
"C. c #FAF4C6",
"Z. c #E8E8D8",
"A. c #F5E3D4",
"S. c #F9E7D5",
"D. c #F3E2DC",
"F. c #FCEDDC",
"G. c #E3F1D7",
"H. c #F4F5DA",
"J. c #F9F3D8",
"K. c #D4C9E5",
"L. c #C4DFE4",
"P. c #D4D3E2",
"I. c #DCD7E7",
"U. c #D6DEE3",
"Y. c #CDDEF1",
"T. c #D2DCF0",
"R. c #E3DAE8",
"E. c #EBDEEB",
"W. c #F5DEE3",
"Q. c #E5DAF2",
"!. c #E5DCF2",
"~. c #C6E9E2",
"^. c #CBECE4",
"/. c #C4E5EC",
"(. c #CCE5EE",
"). c #C4ECEB",
"_. c #CBEDEC",
"`. c #D8E7E4",
"'. c #DCECE2",
"]. c #D4E6ED",
"[. c #DBE6EC",
"{. c #D3EEEC",
"}. c #DBECEC",
"|. c #CEF1EF",
" X c #D7F1E5",
".X c #D4F1ED",
"XX c #DCF1ED",
"oX c #C3E5F4",
"OX c #CCE6F3",
"+X c #C4EAF3",
"@X c #CBEBF4",
"#X c #D6E7F4",
"$X c #D3EBF4",
"%X c #DCEEF4",
"&X c #D5F2F2",
"*X c #DBF2F2",
"=X c #D7F1F9",
"-X c #E4E4E4",
";X c #EBE4E4",
":X c #E0EBE4",
">X c #EDE9E5",
",X c #E5E5EB",
"<X c #EDE3EB",
"1X c #E5EAEC",
"2X c #ECECEC",
"3X c #F2E2E3",
"4X c #F5E7E7",
"5X c #FBE2E5",
"6X c #FCE5EA",
"7X c #F3ECEE",
"8X c #FBECEC",
"9X c #ECF7E6",
"0X c #E4F3EC",
"qX c #EBF3EB",
"wX c #E8F8EE",
"eX c #F8F7E7",
"rX c #FCF5E4",
"tX c #F4F3EC",
"yX c #FDF3EB",
"uX c #E5E4F4",
"iX c #EBE5F4",
"pX c #E3EBF4",
"aX c #EDEAF4",
"sX c #E4EFF8",
"dX c #F1E4F0",
"fX c #F2ECF5",
"gX c #F9EEF1",
"hX c #F2EDF8",
"jX c #E3F4F3",
"kX c #EDF3F3",
"lX c #EAF4F9",
"zX c #F4F4F4",
"xX c #FBF3F4",
"cX c #F4F4FA",
"vX c #F9F7F9",
"bX c #FEFEFE",
/* pixels */
"bXcXF.H.kX6X2X3.aXiXhX%X)._.tXJ.wX7X8Xn.}.iXaXsX_.).kXJ.9XtX6X'.n.aXiXlX$X9.*XF.H.wX6XtX3.pXiXhX%X)._.tXC.wX7X8Xm. XiXiXlX@X).vX",
"bXu.z.T E J d ;.].Y.$X@X_.*.u.Q E k.l n _.Y.$XOX$XL.) V.Y V.z N 3.OXOX$X$X_.) a.T E J g O.].Y.$X@X|.=.} Q W k.l n ~.T.OXOX$X/.I.",
"bXR.`.G.D.c.r.,.+XXX2.~.uXK.P.N.A.3Xh.O.e.&Xn.2.pXI.i.N.Z.3Xj.%.1.@X.X:.}.!.K.U.G.D.c.r.-.+XXX2.~.uXK.P.N.A.3Xh.#.0.&X^.:.pX!.pX",
"vXhX2.:.$Xe.9.8.-XH.#.y.!.!.`.M {.e.).7.(.F.>.*.!.Q.aXO.n.+X+X0.q.3XB.@.I.!.iX3.;.@Xe.9.8.`.J.$.y.!.!.}.M {.e.).7./.F.b.*.Q.!.cX",
"bX=X{.2.0.e.sX+Xf.k.Z.} R.[.@Xn.1.q.%X@Xd.J A.y.i.;X@X^.<.q.@X%X(.J l.d.| E.].@X2.7.e.sX+Xj.J Z.} I.,X@Xn.1.q.%X$XU.J A.y.u.;XlX",
"bX;XuXaX<X+X@X6.s.k.E 4Xg.f ,XiX7X#X+Xw.5.k.E S.c.f h.uXaX,Xe.oX4.j.L V.4Xz k uXiX2X+X@X6.s.L E 4Xg.f R.iX2X[.e.w.5.k.E S.W.l 5X",
"xXM.R.Z.b.%X0X].I C.zX6Xg.H U.3Xb.1XXXpXP T 9X8Xc.x p.E.M.`.{.jXM.Y H.tX5XJ t.I.;Xb.%X0X[.I C.tX6Xl.H p.<Xb.1X.XpXv.Y 9X8Xc.J zX",
"bXlXhX2Xn.tXyXyXQ V.cXxXjX.XpXgXn.qXrXxXC.E zXxXjX.X%XfX'.m.yXyXF.T >XvXzX*X&XaXtXn.tXyX8XQ V.cXxX*X*XpXgXn.0XyXxXC.T kXvXjXjXlX",
"bXbXbXbXbXbXbXbXbXbXbXbXbXbXbXbXbXbXbXbXbXbXbXbXbXbXbXbXbXbXbXbXbXbXbXbXbXbXbXbXbXbXbXbXbXbXbXbXbXbXbXbXbXbXbXbXbXbXbXbXbXbXbXbX",
"bXbXbXbXbXbXbXbXbXbXbXbXbXbXbXbXbXbXbXbXbXbXbXbXbXbXbXbXbXbXbXbXbXbXbXbXbXbXbXbXbXbXbXbXbXbXbXbXbXbXbXbXbXbXbXbXbXbXbXbXbXbXbXbX",
"bXbXbXvXbXbXbXbXbXbXvXbXbXbXbXbXbXbXbXbXbXbXbXbXbXbXbXbXvXbXbXbXbXbXbXvXbXbXbXbXbXbXvXbXbXbXbXbXbXbXbXbXbXbXbXbXbXbXbXbXbXbXbXvX",
"bXbXbXvXbXbXbXbXbXbXvXbXbXbXbXbXbXvXbXbXbXvXbXbXbXbXbXbXvXbXbXvXbXbXbXvXbXbXvXbXbXbXvXbXbXvXbXbXbXvXbXbXvXbXbXbXvXbXbXbXbXbXbXvX",
"bXbXbXbXbXbXbXbXbXbXbXbXbXbXbXbXbXbXbXbXbXbXbXbXbXbXbXbXbXbXbXbXbXbXbXbXbXbXbXbXbXbXbXbXbXbXbXbXbXbXbXbXbXbXbXbXbXbXbXbXbXbXbXbX",
"bXbXbXbXbXbXbXbXbXbXbXbXbXbXbXbXbXbXbXbXbXbXbXbXbXbXbXbXbXbXbXbXbXbXbXbXbXbXbXbXbXbXbXbXbXbXbXbXbXbXbXbXbXbXbXbXbXbXbXbXbXbXbXbX",
"bXbXbXbXbXbXbXbXbXbXbXbXbXbXbXbXbXbXbXbXbXbXbXbXbXbXbXbXbXbXbXbXbXbXbXbXbXbXbXbXbXbXbXbXbXbXbXbXbXbXbXbXbXbXbXbXbXbXbXbXbXbXbXbX",
"bXbXbXvXbXbXbXbXbXbXbXbXbXbXbXbXbXbXbXbXbXbXbXbXbXbXbXbXbXbXbXbXbXbXbXbXbXbXbXbXbXbXbXbXbXbXbXbXbXbXbXbXbXbXbXbXbXbXbXvXvXbXbXvX",
"bXbXbXbXbXbXbXbXbXbXbXbXbXbXbXbXbXbXbXbXbXbXbXbXbXbXbXbXbXbXbXbXbXbXbXbXbXbXbXbXbXbXbXbXbXbXbXbXbXbXbXbXbXbXbXbXbXbXbXbXbXbXbXbX",
"bXbXbXbXbXbXbXbXbXbXbXbXbXbXbXbXbXbXbXbXbXbXbXbXbXbXbXbXbXbXbXbXbXbXbXbXbXbXbXbXbXbXbXbXbXbXbXbXbXbXbXbXbXbXbXbXbXbXbXbXbXbXbXbX",
"bXbXbXbXbXbXbXbXbXbXbXbXbXbXbXbXbXbXbXbXbXbXbXbXbXbXbXbXbXbXbXbXbXbXbXbXbXbXbXbXbXbXbXbXbXbXbXbXbXbXbXbXbXbXbXbXbXbXbXbXbXbXbXbX",
"bXbXbXvXbXbXbXbXbXbXbXbXbXbXbXbXbXbXbXbXbXbXbXbXbXbXbXbXbXbXbXbXbXbXbXbXbXbXbXbXbXbXbXbXbXbXbXbXbXbXbXbXbXbXbXbXbXbXbXvXvXbXbXvX",
"bXbXbXbXbXbXbXbXbXbXbXbXbXbXbXbXbXbXvXzXbXbXbXbXbXzXbXbXbXbXbXzXvXbXbXbXbXzXzXbXbXbXbXvXzXbXbXbXbXbXbXbXbXbXbXbXbXbXbXbXbXbXbXbX",
"bXbXbXbXbXbXbXbXbXbXbXbXbXbXbXbXbXvX-X-XzXbXbXbX,Xd.2XbXbXbXzXd.,XbXbXbXbXd.d.zXbXbXbX,Xs.2XbXbXbXbXbXbXbXbXbXbXbXbXbXbXbXbXbXbX",
"bXbXbXbXbXbXbXbXbXbXbXbXbXbXbXbXbX,XzXzX-XbXbX2X2XvX-XzXbXvX-XvX2X,XbXbX,XzXzX-XbXbXzX,XbX-XzXbXbXbXbXbXbXbXbXbXbXbXbXbXbXbXbXbX",
"bXbXbXvXbXbXbXbXbXbXbXbXbXbXbXbX2X,XbXbX2X,XzX-XbXbXvX,XvX,XzXbXbX-XzXzX,XbXbXzX,XzX,XvXbXvX,XvXbXbXbXbXbXbXbXbXbXbXbXvXvXbXbXvX",
"bXbXbXbXbXbXbXbXbXbXbXbXbXbXbXvXs.-XbXbX,Xa.a.s.zXbX2Xs.,Xa.2XbXzXd.a.a.-XvXbX,Xa.a.s.zXbX2Xa.,XbXbXbXbXbXbXbXbXbXbXbXbXbXbXbXbX",
"bXbXbXbXbXbXbXbXbXbXbXbXbXbXbXbX2Xs.vXvXs.,XzXs.,XbXd.,XzX,Xd.vX,X-XzX2Xd.2XzXd.2X2X,X,XbXd.,XzXbXbXbXbXbXbXbXbXbXbXbXbXbXbXbXbX",
"bXbXbXbXbXbXbXbXbXbXbXbXbXbXbXbXzXR.2X2XU.zXzX,X-XkXd.kXkXzXd.2XM.,XzXtX;X-X>XZ.zXzX7Xd.7Xz.zXvXbXbXbXbXbXbXbXbXbXbXbXbXbXbXbXbX",
"bXbXbXzXbXbXbXbXbXbXbXbXbXbXbXaX~ ` ` ` ` ` ^ q q [ q [ ; 4 2 5 2 5 c O & & & & & + a a a a a x bXbXbXbXbXbXbXbXbXbXbXvXvXbXbXzX",
"bXbXbXbXbXbXbXbXbXbXbXbXbXbXbXiX_ ' _ ' ' ] 6 e 0 0 0 e 7 , 3 3 > , < @ % # # % $ . u y y y o j bXbXbXbXbXbXbXbXbXbXbXbXbXbXbXbX",
"bXbXbXbXbXbXbXbXbXbXbXbXbXbXbXiX_ ~ ~ ~ ..] 6 r &./ ^ r 8 3 3 %.v , < @ * F F = $ . u s t.s i j bXbXbXbXbXbXbXbXbXbXbXbXbXbXbXbX",
"bXbXbXbXbXbXbXbXbXbXbXbXbXbXbXiX_ ( } u...] 6 e &./ 9 r 8 , 5 V B 3 < @ * F d Z $ X p y h y u j bXbXbXbXbXbXbXbXbXbXbXbXbXbXbXbX",
"bXbXbXvXbXbXbXbXbXbXbXbXbXbXbXiX_ ( ( { ..] 6 r &.^ 9 r 8 > n V %.5 < @ * F A Z $ . p i x i u j bXbXbXbXbXbXbXbXbXbXbXvXvXbXbXvX",
"bXbXbXbXbXbXbXbXbXbXbXbXbXbXbXiX_ ! ! ! ` ] 6 e ^ / ^ r 8 3 - 1 2 1 < @ * O   O $ X p i t i u j bXbXbXbXbXbXbXbXbXbXbXbXbXbXbXbX",
"bXbXbXbXbXbXbXbXbXbXbXbXbXbXbXiX_ ] ] ] ] ] 6 e w w w e 7 , : , > , < @ % $ % % $ . p u o u u j bXbXbXbXbXbXbXbXbXbXbXbXbXbXbXbX",
"bXbXbXbXbXbXbXbXbXbXbXbXbXbXbXfX .{ X.X.{ X./ &.&.&.+.&.@.m b m b m B A Z Z S Z S g j h k h k h.bXbXbXbXbXbXbXbXbXbXbXbXbXbXbXbX",
"bXbXbXzXbXbXbXbXbXbXbXbXbXbXbXbXbX-XzXzX,XvXbX2X,XbX-XvXbXbX;XvX,XfXbXbX2X2XzX,XbXvXzX,XvX-XbXvXbXbXbXbXbXbXbXbXbXbXbXvXvXbXbXzX",
"bXbXbXbXbXbXbXbXbXbXbXbXbXbXbXbXbX,XvXvX,XbXbXzXaXbX-XbXbXbX,XvX2XzXbXbXzXzXzX2XbXbXvX,XbX,XbXbXbXbXbXbXbXbXbXbXbXbXbXbXbXbXbXbX",
"bXbXbXbXbXbXbXbXbXbXbXbXbXbXbXvX,Xd.vXvXd.,X,X-XaXbX-X,X,X-X-XvX2X,X2X2X-XzXvX,X,X,X,X,XbX,X,XzXbXbXbXbXbXbXbXbXbXbXbXbXbXbXbXbX",
"bXbXbXbXbXbXbXbXbXbXbXbXbXbXbXvXd.7XbXbXzXd.d.,XbXbXzX-X,Xd.zXbXbX,XZ.d.,XbXbXzXd.-X-XvXbXvXd.2XbXbXbXbXbXbXbXbXbXbXbXbXbXbXbXbX",
"bXbXbXvXbXbXbXbXbXbXbXbXbXbXbXbXzX,XbXbX,XzXvX-XzXbX2X,XbX2X2XbXvX-XvXzX-XbXbX,X2XvX-XzXbXzX-XbXbXbXbXbXbXbXbXbXbXbXbXvXvXbXbXvX",
"bXbXbXbXbXbXbXbXbXbXbXbXbXbXbXbXbX2X,X2X,XbXbXzX,XzX,XvXbXbX,XzX,X2XbXbX2X,X2X,XbXbXzX,XzX,XbXbXbXbXbXbXbXbXbXbXbXbXbXbXbXbXbXbX",
"bXbXbXbXbXbXbXbXbXbXbXbXbXbXbXbXbXbX,Xd.vXbXbXbX2Xs.zXbXbXbXvXd.2XbXbXbXbX,X-XvXbXbXbXzX-XzXbXbXbXbXbXbXbXbXbXbXbXbXbXbXbXbXbXbX",
"bXbXbXbXbXbXbXbXbXbXbXbXbXbXbXbXbXbXbXvXbXbXbXbXbXvXbXbXbXbXbXvXbXbXbXbXbXbXbXbXbXbXbXbXvXbXbXbXbXbXbXbXbXbXbXbXbXbXbXbXbXbXbXbX",
"bXbXbXvXbXbXbXbXbXbXbXbXbXbXbXbXbXbXbXbXbXbXbXbXbXbXbXbXbXbXbXbXbXbXbXbXbXbXbXbXbXbXbXbXbXbXbXbXbXbXbXbXbXbXbXbXbXbXbXbXvXbXbXvX",
"bXbXbXvXbXbXbXbXbXbXbXbXbXbXbXbXbXbXbXbXbXbXbXbXbXbXbXbXbXbXbXvXbXbXbXbXbXvXbXbXbXvXbXbXbXbXbXvXbXbXbXbXbXbXbXbXbXbXbXbXbXbXbXvX",
"bXbXbXbXbXbXbXbXbXbXbXbXbXbXbXbXbXbXbXbXbXbXbXbXbXbXbXbXbXbXbXbXbXbXbXbXbXbXbXbXbXbXbXbXbXbXbXbXbXbXbXbXbXbXbXbXbXbXbXbXbXbXbXbX",
"bXbXbXbXbXbXbXbXbXbXbXbXbXbXbXbXbXbXbXbXbXbXbXbXbXbXbXbXbXbXbXbXbXbXbXbXbXbXbXbXbXbXbXbXbXbXbXbXbXbXbXbXbXbXbXbXbXbXbXbXbXbXbXbX",
"bXbXbXvXbXbXbXbXbXbXvXbXbXbXbXbXbXvXbXbXbXvXbXbXvXbXbXbXvXbXbXvXbXbXbXvXbXbXvXbXbXbXvXbXbXvXbXbXbXvXbXbXvXbXbXbXvXbXbXbXbXbXbXvX",
"bXbXbXvXbXbXbXbXbXbXbXbXbXbXbXbXbXbXbXbXbXbXbXbXbXbXbXbXvXbXbXbXbXbXbXvXbXbXbXbXbXbXbXbXbXbXbXbXbXbXbXbXbXbXbXbXbXbXbXbXbXbXbXbX",
"bXbXbXbXbXbXbXbXbXbXbXbXbXbXbXbXbXbXbXbXbXbXbXbXbXbXbXbXbXbXbXbXbXbXbXbXbXbXbXbXbXbXbXbXbXbXbXbXbXbXbXbXbXbXbXbXbXbXbXbXbXbXbXbX",
"bXbXbXbXbXbXbXbXbXbXbXbXbXbXbXbXbXbXbXbXbXbXbXbXbXbXbXbXbXbXbXbXbXbXbXbXbXbXbXbXbXbXbXbXbXbXbXbXbXbXbXbXbXbXbXbXbXbXbXbXbXbXbXbX",
"bXbXbXvXbXbXbXbXbXbXbXbXbXbXbXbXbXbXbXbXbXbXbXbXbXbXbXbXbXbXbXbXbXbXbXvXbXbXbXbXbXbXbXbXbXbXbXbXbXbXbXbXbXbXbXbXbXbXbXbXbXbXbXvX",
"bXbXbXvXbXbXbXbXbXbXvXbXbXbXbXbXbXvXbXbXbXvXbXbXvXbXbXbXvXbXbXvXbXbXbXvXbXbXvXbXbXbXvXbXbXbXbXbXbXvXbXbXvXbXbXbXvXbXbXbXvXbXbXvX",
"bXbXbXbXbXbXbXbXbXbXbXbXbXbXbXbXbXbXbXbXbXbXbXbXbXbXbXbXbXbXbXbXbXbXbXbXbXbXbXbXbXbXbXbXbXbXbXbXbXbXbXbXbXbXbXbXbXbXbXbXbXbXbXbX",
"bXbXbXbXbXbXbXbXbXbXbXbXbXbXbXbXbXbXbXbXbXbXbXbXbXbXbXbXbXbXbXbXbXbXbXbXbXbXbXbXbXbXbXbXbXbXbXbXbXbXbXbXbXbXbXbXbXbXbXbXbXbXbXbX",
"bXbXbXbXbXbXbXbXbXbXbXbXbXbXbXbXbXvXbXbXbXbXbXbXbXbXbXbXbXbXbXbXbXbXbXbXbXbXbXbXbXbXvXbXbXbXbXbXbXbXbXbXbXbXbXbXbXbXbXbXbXbXbXbX",
"bXbXbXJ.9XzXgX0Xm.fXaXcX*X_.jXyXH.0XgXvXn.1XhXhXpX_.&XxXJ.wXzXxX X XhXaXcX*X_.zXF.9XqXgXkXn.aXhXcX%X|.jXrXH.jXgXzXm.kXhXhXlX.X.X",
"bXcXu.V.T V.z N 3.T.OX$X@X9.) z.Y V.J g -.].T.$XOX).=.u.Q W k.l n ~.T.].OX@X9.) V.T V.z N <.].Y.$X@X).*.z.Y W J k M ].T.$XOX).L.",
"bXcXK.'.V.D.l.C 1.+X.X<.%X!. .U.G.A.c.G ;.+X&X3.^.aXK.u.G.A.5Xf.#.0.@X^.2.pXQ. .`.V.D.x.C 1.+X&X<.}.uX .P.G.A.c.G ;.+X&X3.n.pXQ.",
"bXcXaXO.^.@X/.1.q.>XB.@.I.Q.iX3.<.$X/.9.7.[.H.#.y.!.Q.}.M }.+X/.1./.F.>.@.Q.Q.aX;.m.@X/.7.8.>XB.o.P.Q.!.n.:.$XoX9.7.].J.#.*.!.!.",
"bXbX$X~.,.q.@X$X@XJ x.s.| <X$X_.<.7.e.sX+Xj.l.Z.} R.pX@X3.1.q.%X@XU.J D.y.K.<X@X^.<.q.@X%X+Xg.x.s.| E.#X@X<.7.e.sX+Xz.k.Z.} I.,X",
"bXvX-XuXpX[.e.@X6.f.L V.E.z H pXuX1X+X@X6.a.J E ;Xg.l [.uX1X(.+XoX5.J E A.W.l h.uXpX[.e.@X6.j.L V.E.z x pXiX1X+X@X6.P.J E 3Xj.l ",
"bX8Xs.E.M.:X_.sXp.U H.tX5XJ G I.;XM.%X*X(.P C.tX6Xl.k d.<XM.1X{.%Xv.Q 9X8Xc.l t.E.M.'.$XjXL.U H.tX5XJ H I.;XM.%X&XOXP C.eX6Xx.J ",
"bXbXjXdXb.n.eXyXJ.D Z.vX7X.X_.iX>X>.tXrX8XY E cXgXXX_.[.4X>.:XH.8XE D 2XxX2X{._.dXM.n.eXrXF.D Z.cX7XXX_.uX>X>.qXrX8XY U cXgX}.XX"
};
