/* XPM */
static char *_6f7679a55f14352e511fac1a30e5cd72sB70yMxzbzUQ29p[] = {
/* columns rows colors chars-per-pixel */
"64 64 219 2 ",
"   c #32312F",
".  c #3F3D3E",
"X  c #66624C",
"o  c #6E6953",
"O  c #7E7A61",
"+  c #7E7D77",
"@  c #827E69",
"#  c #807B65",
"$  c #AE657B",
"%  c #BB647D",
"&  c #C45D7B",
"*  c #C4637F",
"=  c #86836C",
"-  c #8C8372",
";  c #8B8970",
":  c #BB6A82",
">  c #B66E84",
",  c #BD748A",
"<  c #BD798E",
"1  c #B57888",
"2  c #BC7B93",
"3  c #D25E81",
"4  c #CC6382",
"5  c #C36C85",
"6  c #CE6886",
"7  c #CF6E8A",
"8  c #C66481",
"9  c #D46B8A",
"0  c #D86989",
"q  c #CD718C",
"w  c #C1758C",
"e  c #D3708D",
"r  c #C47C92",
"t  c #C87E95",
"y  c #D47691",
"u  c #D67993",
"i  c #8C8B89",
"p  c #9B9A85",
"a  c #9D9686",
"s  c #9A9C92",
"d  c #A19A8A",
"f  c #A09E92",
"g  c #A8A897",
"h  c #B2AB9A",
"j  c #B1A798",
"k  c #B4B39B",
"l  c #A7AA8F",
"z  c #AEACA9",
"x  c #BCBBA3",
"c  c #B5B9AB",
"v  c #BBBFB1",
"b  c #ABB1A3",
"n  c #CB849A",
"m  c #C8899B",
"M  c #D9849C",
"N  c #E2829E",
"B  c #DD8DA5",
"V  c #D68CA2",
"C  c #D493A5",
"Z  c #DE95AA",
"A  c #DA9BAC",
"S  c #D498AA",
"D  c #DB9EB0",
"F  c #CA93A6",
"G  c #E78AA5",
"H  c #E795AD",
"J  c #F293AF",
"K  c #E59DB3",
"L  c #EA9DB3",
"P  c #FC9BB7",
"I  c #F99BB7",
"U  c #D9A3AE",
"Y  c #C4BFA8",
"T  c #DCA4B6",
"R  c #D9A6B1",
"E  c #C2BFB8",
"W  c #DCB6BA",
"Q  c #C4A2A1",
"!  c #E3A3B6",
"~  c #E5A5B9",
"^  c #EBA5BA",
"/  c #E4ABBB",
"(  c #EDABBD",
")  c #EBA2B6",
"_  c #F3A5BC",
"`  c #F9A6BE",
"'  c #E2B4BD",
"]  c #E8B9BF",
"[  c #C4C4AC",
"{  c #C9C5AD",
"}  c #CAC4B3",
"|  c #CCCCB5",
" . c #C8C8B9",
".. c #D2CEBA",
"X. c #D9CEBB",
"o. c #D5D4BD",
"O. c #DAD2BF",
"+. c #ECAEC2",
"@. c #F3ACC1",
"#. c #FDACC4",
"$. c #FFA7C1",
"%. c #ECB3C3",
"&. c #ECBAC5",
"*. c #EDBCC8",
"=. c #E6B4C0",
"-. c #F2B3C6",
";. c #FBB3C6",
":. c #F4BAC7",
">. c #F5B6CA",
",. c #FDB5CB",
"<. c #F4BBCC",
"1. c #FCBBCD",
"2. c #FEBDD2",
"3. c #FFBFDA",
"4. c #F6BFD2",
"5. c #CBCBC6",
"6. c #CED0C5",
"7. c #DAD8C6",
"8. c #DADAD4",
"9. c #EEC5CD",
"0. c #EDCACD",
"q. c #F4C2CE",
"w. c #FBC0CF",
"e. c #F3CCCD",
"r. c #E4DBC7",
"t. c #EBD3CC",
"y. c #E2DECB",
"u. c #E9D6C9",
"i. c #F2D3CF",
"p. c #EDCBD1",
"a. c #EFC5D1",
"s. c #F5C5D2",
"d. c #FDC4D5",
"f. c #F5CBD4",
"g. c #FBCAD6",
"h. c #FFC6D9",
"j. c #F6CDD9",
"k. c #FDCAD9",
"l. c #FFC9DB",
"z. c #FFCADA",
"x. c #FFCBDB",
"c. c #FEC9D9",
"v. c #FACDD9",
"b. c #FFCCDB",
"n. c #FDCDDA",
"m. c #FFC9DC",
"M. c #FFCBDC",
"N. c #FFCBDE",
"B. c #FFCCDC",
"V. c #FECDDD",
"C. c #FDCADA",
"Z. c #EED5D2",
"A. c #E5DCD2",
"S. c #EADCD4",
"D. c #EAD9D9",
"F. c #F4D3D3",
"G. c #F9D4D6",
"H. c #F5DAD4",
"J. c #F9DAD6",
"K. c #F4D1D9",
"L. c #FFD1DE",
"P. c #FDD2DD",
"I. c #F4DCDA",
"U. c #FCDCDB",
"Y. c #DAE1CF",
"T. c #DFE1DA",
"R. c #DEE2D3",
"E. c #E6E5CC",
"W. c #EAE5CE",
"Q. c #EBEACE",
"!. c #E1E1C6",
"~. c #F3E4CF",
"^. c #E6E2D2",
"/. c #EBE3D4",
"(. c #E5E9D5",
"). c #EEEDD4",
"_. c #EDE3DA",
"`. c #EDECDA",
"'. c #E4E7DA",
"]. c #F2E4D4",
"[. c #F1ECD4",
"{. c #F4E2DA",
"}. c #FCE3DC",
"|. c #F3EDDB",
" X c #FCECDD",
".X c #F9E1D7",
"XX c #EFF3D4",
"oX c #EFF1DC",
"OX c #F4F5D6",
"+X c #F9F4D7",
"@X c #F3F8D7",
"#X c #F5F4DA",
"$X c #F9F4DB",
"%X c #F5F9DA",
"&X c #FAF9DD",
"*X c #F8F9D7",
"=X c #FFCDE1",
"-X c #FFD1E1",
";X c #FFD2E2",
":X c #FDDDE2",
">X c #FFD4E9",
",X c #FFDAEA",
"<X c #ECEDE4",
"1X c #EEEEEA",
"2X c #E9E7E2",
"3X c #FDE4E3",
"4X c #F4ECE1",
"5X c #FEECE2",
"6X c #FFECEA",
"7X c #F7E5E1",
"8X c #F4F5E2",
"9X c #FDF3E3",
"0X c #F6F9E3",
"qX c #FDFBE3",
"wX c #F5F5EB",
"eX c #FEF4EA",
"rX c #FFFEEA",
"tX c #F6F8EB",
"yX c #FCFDF1",
/* pixels */
"c.c.c.c.c.c.c.c.c.c.c.c.c.c.c.c.c.M.V.g.g.M.M.c.h.h.M.M.M.v.j.j.g.V.g.g.M.M.c.M.c.V.M.c.M.c.c.=Xc.g.c.c.c.c.c.c.c.c.c.c.c.g.v.v.",
"c.c.c.c.c.c.c.c.c.c.c.c.c.c.c.c.h.h.c.c.V.V.V.c.c.c.M.M.M.M.g.g.c.M.M.g.c.g.g.c.M.c.c.M.M.c.h.c.g.g.c.c.c.c.c.c.c.c.c.c.c.g.g.v.",
"c.c.c.c.c.c.c.c.c.c.c.c.c.c.c.c.h.h.h.M.V.v.j.j.v.v.V.M.M.M.h.h.c.c.c.n.n.g.c.V.h.d.d.c.c.c.n.v.v.v.g.c.c.c.c.c.c.c.c.c.c.g.g.g.",
"c.c.c.c.c.c.c.c.c.c.c.c.c.c.c.c.h.h.h.M.V.j.j.j.j.v.v.M.M.m.h.h.M.h.c.c.c.g.h.d.M.d.d.M.c.c.v.j.v.v.g.g.c.c.c.c.c.c.c.c.c.c.c.g.",
"c.c.c.c.c.c.c.c.c.c.c.c.c.c.c.c.c.c.c.c.c.c.n.V.c.c.c.c.c.c.h.h.c.c.c.c.c.V.-Xc.M.h.c.c.c.g.g.f.v.v.g.g.c.c.c.c.c.c.c.c.c.c.c.c.",
"c.c.c.c.c.c.c.c.c.c.c.c.c.c.c.c.g.v.v.c.c.V.c.c.c.h.h.c.c.c.c.c.g.c.d.;._ #.,.@.,.c.c.c.n.n.n.L.v.n.g.g.c.c.c.c.c.c.c.c.c.c.c.c.",
"c.c.c.c.c.c.c.c.c.c.c.c.c.c.c.g.j.j.j.g.M.M.2.( d.d.h.h.c.c.n.v.v.n.d.H q e y : K d.n.s.K.G.c.-XV.v.g.g.c.c.c.c.c.c.c.c.c.c.c.c.",
"c.c.c.c.c.c.c.c.c.c.c.c.c.c.c.v.j.v.g.g.M.M.+.V d.h.h.c.c.c.V.V.p.v.c.H * 4 e % Z c.L.a.K.n.d.V.V.n.n.g.c.c.c.c.c.c.c.c.c.c.c.c.",
"g.g.c.V.c.g.c.c.c.c.c.c.c.n.g.g.g.-Xg.d.c.c.c.-X-Xs.V.c.c.<.! h.K.g.c.2.G & 4 H 2.c.v.K.v.c.c.c.d.V.c.g.c.V.c.c.c.c.c.c.c.c.c.c.",
"V.g.g.c.c.c.c.c.c.c.V.-XV.c.g.n.g.c.h.h.M.c.d.s.<.c.V.c.V.! r -.f.f.c.d.$.J P 2.M.c.q.9.g.n.c.c.c.V.c.c.n.c.c.c.c.c.c.c.c.c.c.c.",
"n.g.g.c.c.c.c.c.c.d.c.V.-XV.c.V.g.c.c.d.2.h.V.M./ &.q.c.;Xc.1.V.n.n.n.h.d.2.2.h.,.V.L.V.L.c.s.L.c.c.c.c.c.c.c.n.c.c.c.c.c.c.c.c.",
"g.g.c.c.M.c.h.h.=Xc.h.M.V.V.c.s.f.v.s.c.h.h.2.H ;.c.c.c.g.c.L.<.c.c.c.c.c.M.h.d.c.,.C C <.V.g.g.c.c.h.c.c.c.M.c.c.c.c.c.c.c.c.c.",
"c.c.c.c.c.c.c.c.d.c.d.c.c.c.c.f.K.K.q.=X,.M M % B h.c.q.n.f.v.n.c.c.c.c.V.c.c.c.;X@.< < -.>Xn.g.V.M.V.c.g.c.V.g.c.c.c.c.c.c.c.c.",
"c.c.c.c.h.M.M.M.d.h.M.h.c.c.c.L.K.9.' c._ % 5 5 #.c.c.L.L.s.g.g.V.c.g.v.v.j.g.V.d.d.>.>.M.V.g.c.d.2.h.c.c.c.V.g.c.c.c.c.c.c.c.c.",
"c.c.c.h.c.M.d.>.=Xd.2.c.V.c.g.c.n.=.! 2.h._ B M M.w.s.L.g.c.-Xc.s.f.j.j.v.V.V.V.M.=XM.M.=XM.c.h.+.~ >.M.c.c.V.c.c.g.g.g.c.c.c.c.",
"c.c.c.c.c.2.^ B L t r ~ h.V.c.n.v.g.V.w.c.c.:.c.c.P.G.f.g.v.s.g.K.U.P.K.f.f.*.W f.f.f.g.g.n.V.V./ A %.-X-Xg.c.c.c.c.c.g.g.v.v.j.",
"g.G.g.q.=X1.u 4 6 8 5 ) c.c.V.g.f.U.3XU.U.J.F.i.F.e.i.U.}.}.i.u. X9X9X}.J.F.W Q e.F.J.3X3X3X:XF.g.s.c.G.q.c.>Xs.c.c.c.g.v.K.K.Z.",
"g.s.L.n.c.2.J 9 0 6 B 2.-Xc.c.q.U.3X3X3X6X6X}.{.t.t.H.}. X X X[.#X$X$X|. X XJ.t.J.3X6X3X7X5X3XG.v.n.<.%.( d.h.d.c.c.c.c.g.v.j.j.",
"V.c.n.g.d.h.,.I * M ,.M.d.d.c.c.U.3X}.I.5XeX9X X].{. X5X9X X X$X$X#X$X$X9X9X6X3X6XeXeX}.I.3X3XG.s.c.;.y 9 G G I 2.d.c.c.h.h.h.h.",
"c.c.c.c.L.1.Z L ` ,.=XM.c.V.,.<.P.}.I.t.S.|.5X5X5X5X9X9X$X|.$X$X#X#X%X$X$X X X X6X5X{.S.Z.}.3XG.n.d.2.y 0 0 4 & 2.d.c.c.h.h.3.3.",
"d.h.c.c.L.<.A ( =Xc.w.w.d.A > C G.3X3XI.S.S.|.9X5X$X$X$X$X%X$X%X@XOX#X$X9X$X$X9X9X/.A.S.I.3X:XK.G.d.=XJ 4 3 0 N 2.d.v.v.c.h.3.3.",
"h.d.V.g.q.G.L.V.c.V.L.L.L.! n @.g.:X3X7X_.A./.|.$X$X$X#X#X%X%X#X@XOX#X#X&X$X8X9X`.A.A.7X3X:XK.f.f.g.c.,.q G P m.d.c.j.j.g.h.h.h.",
"d.d.-XV.f.L.c.<.s.V.g.L.,X-Xh.h.g.K.K.7X7XS.A.^.$X9X$X#X#X#X@XOX#X#X#XOX#X&X#X#X^.A._.3X:XK.g.s.v.f.w.V.d.M.h.c.c.c.g.j.j.j.g.g.",
"h.V.g.a.P.P.s.-Xc.c.s.L.g.s.M.h.V.f.9.I.6X{.A.^.|.$X$X#XOX#X@XOXOXOX#X#X&X&X&X).y./.4X7Xf.f.c.V.g.G.L.q.L.<.n.c.V.c.c.g.v.j.j.f.",
"c.c.v.j.j.v.c.c.M.V.s.L.s.g.c.h.h.V.v.K.Z.I.5XW.$X#XqXOX%XqXE.&X%X[.qX).qX#X0X|.`.4X{.p.K.L.h.h.d.c.c.c.n.n.g.c.-.! d.M.d.V.j.K.",
"g.v.j.j.j.v.c.h.2.h.g.L.j.v.c.c.h.c.s.9.F.7X6XeX|.9X[.qXW.).qXQ.$X$X$X%XqX[.$X$XeXeX5XF.9.s.h.2.d.c.c.c.g.<.%.+.< < ^ 2.h.-Xj.j.",
"v.v.j.j.j.c.h.h.h.M.c.v.f.v.g.V.M.M.V.P.3X3X XeXrX|.qXW.qX#X#X#X[.rX$X$X].[.rXrX9X X6XU.f.c.1.A 1.d.d.c.V.c.2.d.^ K 2.M.h.=Xg.g.",
"v.v.j.j.v.c.h.h.h.M.c.f.j.v.s.V.=Xd.%.f.3XeXrX/.y.rX[.qXOXOX#X$X$X[.|.qXqXqX$Xr.$X9X6XJ.g.L.c.+.c.c.h.V.=Xc.c.M.=Xh.=XM.d.c.c.=X",
"M.v.v.j.v.c.h.h.h.d.V.g.L.-Xg.c.h.-.U f.3XeXeXj X ; O = 7.rX).#X0X&XrXk # @ - o O.9XeXJ.G.n.V.V.V.n.c.c.M.c.d.h.h.s.h.g.g.c.M.V.",
"m.M.v.v.g.c.h.h.=Xd.;Xg.g.V.M.M.h.c.*.P.}. X9Xh X k Q.Y = 9X0X0X`.rXo.@ 7.W.; o .. X9XH.J.g.q.c.s.g.g.c.V.c.c.c.c.c.M.M.M.M.h.h.",
"m.m.M.v.v.g.c.h.h.%.=Xg.s.M.M.h.d.M.c.f.Z. XrX8X0XrX@XrX&X).8XoX0X(.0X8XrXrX$XqX9XrX5XZ.0.f.n.c.c.L.V.g.c.c.h.c.h.M.h.h.M.h.M.M.",
"h.h.M.M.v.c.c.h.T F g.V.c.=Xm.>.-.<.n.0.}.eX/.0X).0X).8X#X0X^.8.8.'.0X8X`.&X|.[.9X X5X}.0.f.L.g.s.n.c.1.1.c.m.h.d.M.h.h.M.M.M.h.",
"f.g.n.c.h.M.=XV.c.c.c.g.V.c.c.%.2 +.n.0.3X9X|.r.X.y.`.wXyX8.8.5.5.8.2X4XeX|.O.X.]. X3XU.g.c.=Xd.c.d.2.G y P $.#.2.M.c.g.M.M.h.m.",
"v.V.g.c.M.<.~ ~ h.d.c.c.c.V.V.4.+.h.P.t.5X$X|.~.u.u.eXwXT.1Xi   . z D.eXeX/.r.r.]. X6X3X&.U >.=Xc.w.#.8 6 0 0 9 ,.c.V.v.-XM.d.h.",
"g.V.g.c.=X>.D ~ h.h.m.M.d.c.c.M.M.=Xg.t. X$X$X$X X].eXwX<X8.6.+ i 2X8.`.wX$X$X).$X$X9X5X' m T c.c.n.c.G 7 4 * q ,.d.g.f.g.c.h.=X",
"d.h.c.c.V.s.<.h.M.2._ d.d.c.n.V.h.c.0.t.$X$X$X$X9X9XeX<XT.'.1Xz 5.<X6.8X0X&X&XqX$X$X X5XJ.*.c.V.g.s.c.;.% e H ` h.V.V.n.V.M.M.M.",
"h.d.c.c.s.c.V.2.@.H 5 #.h.c.-Xg.c.c.F.{.$X$X+X+X|.9X|.`.tXs E + s g c 0X8X#XOX#X&X$X|.6X3XP.L.g.G.g.c.-XL 1.h.M.d.d.c.c.M.V.V.g.",
"=X2.h.V.g.V.c.~ , : % #.=Xd.L.s.c.n.H. X#X&X+X+XqX].8XyX'.} f ..v b  .8X`.qX@X@X#X#X$X9XJ.9.s.c.f.g.c.c.L.c.c.d.M.d.d.c.g.g.V.v.",
"m.2.h.V.c.V.c.+.r r B ,.M.d.c.g.c.g.F.5X#X&XOX&X$X$X0X#X0X8X_.^.R.Y.0XrX).@X@X%XOX#X$XeXU.f.P.,XP.;Xn.&.n.s.c.c.h.d.h.V.h.g.V.j.",
"h.h.c.c.c.c.c.M.M.^ @.^ 1.M.c.V.c.f.F.eX#X#XOX%XOXOX&X&X8X`.`.y.(.(.oXoX&X&X@XOX&X&X$X3XJ.e.c.s.n.g.v.L.n.n.V.<.< n ^ c.c.c.V.j.",
"c.c.c.c.c.c.h.h.c.-Xc.c.h.c.c.g.c.g.F. X0XOXOXOX+X#X&X#X#X#X$X$X#X#X&X&X#X%XOXOX%X$X9X}.H.e.%.S c.g.v.g.g.g.T d.V n ;.m.d.V.V.j.",
"v.v.c.c.c.h.h.h.c.c.g.c.c.c.c.c.c.q.i.].OX%X%XOXOX#X&X#X#X#X#X#X#X#X#X%X#X#XOXOXOX$X X.XF.g.d.:.c.c.c.g.;Xs.*.c.M.>.=X=X2.c.c.V.",
"j.j.g.c.h.h.h.c.V.c.V.;X>Xc.c.c.d.] J.eX&X%XOXOXOX%X#X@X@X#X$X#X#X#X%X%X%XOXOXOX%X$X9X}.i.f.v.c.c.c.s.s.V.q.c.h.M.2.m.h.d.h.g.V.",
"j.v.g.c.c.c.c.c.h.q.v.V.-Xc.c.c.w.R H.rX&X@XXX&X$X$X#X@X@X#X$X$X$X%X$X+X+XOXOXOX#X$XeX5XJ.e.c.c.c.c.-XV.n.V.-X2.h.d.h.h.M.M.s.c.",
"g.g.g.c.c.c.c.c.-Xg.-Xs.g.c.V.c.,X:.}.9X).%XOX%X$X$X#X@X@X#X+X+X$X$X$XOXOXOXOXOXOX|.9X6XU.g.c.c.c.h.=X<./ M.M.h.V.V.c.c.c.c.g.V.",
"c.c.c.g.g.g.g.c.c.<.-Xd.c.c.c.q./ :.6XeX[.&X%X[.+X$X#X@X@XOX+X+X$X$X+XOXOXOXOX@X&X$X$X3XJ.g.c.c.=Xh.h.+.S d.d.M.g.g.s.s.c.c.c.V.",
"h.h.c.v.j.j.v.c./ S 2.2.M.c.g.q.1 U U.9X#X#X&XOX+X+X#X@XOXOX%X%X$X#XOXOXOXOXOX@X0X8X9X}.G.g.c.d.g.g.;XM.d.=Xh.d.M.V.P.P.v.g.c.s.",
"h.h.c.v.j.j.v.c.h.^ m.h.=Xc.v.v.d.c.G.3X9X#X#XOX%X$X#X#X#X&X$X%X%X#X#X#X#XOX@X@X@X$X$X}.G.g.n.c.V.h.h.h.=X2.M.m.h.g.f.v.f.g.V.c.",
"h.c.g.v.j.j.v.c.d.=Xh.d.h.c.f.n.c.v.e.6XrX[.0XOX#X9X|.9XeX|.9XW.&X`.rXrX|.0XqXXX$X$X|.H.F./ A c.c.c.M.2.h.>Xh.M.M.V.c.g.c.c.c.c.",
"c.c.g.v.j.j.g.c.M.2.h.=Xh.d.c.s.c.n.F.5XeX#X&X!.7.7.j j @ d a } rX| } g g } [ | OX$X9X}.e.R C 2.c.c.d.;X@.Z ,.K -.d.c.h.c.c.h.c.",
"h.c.c.v.v.v.c.h.h.h.2.K 2.=XV.-Xg.n.f.}.$X$X#Xo.[ } } - } d h 9X9X..p x o.p 7.[ OX#X9X5XU.s.1.=Xc.g.2.>XK $ n > ^ 2.M.h.c.V.c.c.",
"h.c.c.g.v.g.c.h.d.,.H $ ^ h.<.c.c.v.e.H.|.$X&X!.Y { a 7.- } d | qX#Xk ..p [ l k qX#X|.}.U.v.h.M.c.c.h.h.>.n $ < -.d.M.c.c.c.c.c.",
"h.h.c.c.c.c.c.h.1.t w > @.M.c.V.c.f.e.J.|.$X&XOXx { Y rX..[.o.{ qX).E.E.x rX| @X#X$X$X Xi.9.g.h.c.c.V.d.=X1.m @.h.c.c.c.c.c.c.V.",
"h.h.c.c.c.c.c.h.( t , w >.M.c.c.n.f.G.3X9X#XOX#X&XrX9X[.rXOXqXqX&X[.OX&XrXE.&X@XOX#X|.9X}.G.-XV.g.c.V.c.M.M.2.M.M.c.c.c.V.c.g.V.",
"h.c.c.c.c.c.c.h.=XM.;.@.=X;Xc.c.n.f.U.6X9X#XOX#XOX$XOXqXQ.%X&XOXOXqX#XOX&X&XqXXX$X$X[.5X5XJ.g.s.v.g.c.h.d.c.M.h.h.c.c.c.V.c.g.c.",
"c.c.c.c.c.c.c.c.c.2.h.,X=Xd.c.c.n.f.U.5X$X%XOX*X%XOX%X$X$X&XQ.%XOX%X*X#X#X#X).%XOX&X$XeX3XF.f.v.L.f.V.c.c.=Xd.c.c.V.n.g.c.n.c.c.",
"c.c.c.g.g.c.c.c.c.h.h.h.c.c.c.c.g.F.J.5X9XOXOX*XOX+X$X$X%X#X#XOXOXOXOXOX#X#X#X#XOX#X$X9X}.H.f.f.v.v.n.c.c.c.h.c.c.c.c.g.c.c.c.c.",
"c.g.g.g.g.g.c.c.c.c.c.c.c.c.c.g.f.e.H. X$XOXOXOXOX+X$X$X%XOX#XOXOXOXOXOX#X#X#X#XOXOX%X$X X}.J.K.f.j.g.c.h.c.c.c.c.c.g.g.c.c.c.c.",
"g.v.v.v.g.g.g.g.c.c.c.c.c.c.c.g.g.F.H. X$X%XOXOXOX+X$X$X$XOX@X@XOXOXOXOX%X#X#X#XOXOX#X#X9X9X}.G.f.f.g.c.c.c.c.c.c.c.g.g.c.c.c.c.",
"v.v.v.g.g.g.c.g.g.g.g.g.c.c.c.g.K.J.}. X&X*X@XOXOX+X$X$X$X#X@X@XOXOXOXOX%X$X#X#XOX#XOXOX$XeX5XJ.f.v.n.V.c.c.c.c.c.c.g.g.c.c.c.c.",
"g.g.g.c.c.c.c.c.g.g.g.g.c.c.c.c.f.J.3X9X%XOXOXOXOX%X$X$X$X#X@X@XOXOXOXOX%X%X#X#XOX%X%XOX$X9X5X}.f.g.n.V.V.c.c.c.c.c.g.g.c.c.c.c.",
"c.c.c.c.c.c.c.c.c.g.g.c.c.c.c.c.f.U.5X9X#XOXOXOXOX%X$X$X$X$X#X@X@XOXOX#X%X%X#XOXOX%X%XOX#X$X X}.F.f.g.c.V.c.c.c.c.c.g.g.c.c.c.c.",
"c.c.c.c.h.h.c.c.c.c.c.c.c.c.h.c.e.U.5X9X%X%X%XOXOX%X$X$X$X$X8X#XOXOXOX#X%X%X#XOXOXOXOXOXOX$X|. X:XV.g.c.c.h.c.c.c.c.g.g.c.c.c.h.",
"c.c.c.c.h.h.h.c.c.c.c.c.c.h.h.c.e.J.3X$X%X*X%XOX#X%X$X$X$X$X8X#XOXOX#X#X$X%X#XOX*XOXOXOX%X$X$X5X6X>Xn.c.c.c.c.c.c.c.g.g.c.c.c.h."
};
