/* XPM */
static char *e9a5262985aa468e9d09a4de32d1ddecufnuKbTQmrbhaTol[] = {
/* columns rows colors chars-per-pixel */
"64 64 236 2 ",
"   c #0A0706",
".  c #140E0A",
"X  c #1C0D0C",
"o  c #19120E",
"O  c #1A1512",
"+  c #220E0E",
"@  c #251813",
"#  c #2B1C14",
"$  c #2E221B",
"%  c #34231A",
"&  c #3C231C",
"*  c #3D291E",
"=  c #282625",
"-  c #382B24",
";  c #3C312B",
":  c #3C3938",
">  c #451A1A",
",  c #402A1E",
"<  c #442D21",
"1  c #492C25",
"2  c #592626",
"3  c #4C3225",
"4  c #43332B",
"5  c #4C362B",
"6  c #543629",
"7  c #553A2B",
"8  c #5B3D2D",
"9  c #462F30",
"0  c #413631",
"q  c #473C38",
"w  c #533E33",
"e  c #5A3F30",
"r  c #652B2B",
"t  c #742D2E",
"y  c #7D3233",
"u  c #49413D",
"i  c #544137",
"p  c #644332",
"a  c #6A4735",
"s  c #6D4936",
"d  c #734D39",
"f  c #77503B",
"g  c #7C533D",
"h  c #4B4745",
"j  c #534C4B",
"k  c #52504E",
"l  c #565454",
"z  c #5B5958",
"x  c #605F5E",
"c  c #62605F",
"v  c #646463",
"b  c #6A6767",
"n  c #6C6B6B",
"m  c #716F6E",
"M  c #777777",
"N  c #853535",
"B  c #8D383A",
"V  c #993D3F",
"C  c #81563F",
"Z  c #9C3E40",
"A  c #835740",
"S  c #855941",
"D  c #8A5C44",
"F  c #A54243",
"G  c #BB4A4C",
"H  c #8F6147",
"J  c #946349",
"K  c #99664B",
"L  c #A16B4E",
"P  c #A46E51",
"I  c #AB7456",
"U  c #AC7455",
"Y  c #B37757",
"T  c #B4795A",
"R  c #BB7D5C",
"E  c #817F7F",
"W  c #C44E51",
"Q  c #CE5354",
"!  c #D55557",
"~  c #E35C5E",
"^  c #EB5F61",
"/  c #EF6062",
"(  c #F26163",
")  c #F96466",
"_  c #FE6668",
"`  c #FF686A",
"'  c #BF805F",
"]  c #C0815F",
"[  c #C58462",
"{  c #C88764",
"}  c #CD8966",
"|  c #D08C67",
" . c #D38E69",
".. c #D6906B",
"X. c #DA936C",
"o. c #838383",
"O. c #878888",
"+. c #8C8D8D",
"@. c #8F9090",
"#. c #949495",
"$. c #9B9C9C",
"%. c #9FA0A1",
"&. c #A2A2A2",
"*. c #A7A8A8",
"=. c #AAAAAB",
"-. c #B6B7A9",
";. c #B5B6B6",
":. c #BCBCBC",
">. c #F6AA99",
",. c #E1B19D",
"<. c #F7ADA0",
"1. c #EBB8A9",
"2. c #FAB5A9",
"3. c #F8BDB4",
"4. c #9ECEAB",
"5. c #99DBBE",
"6. c #A9D6B8",
"7. c #BFD3BD",
"8. c #FAED8A",
"9. c #FBEE97",
"0. c #FAEE99",
"q. c #CECCB9",
"w. c #E9C4B9",
"e. c #FAC5B8",
"r. c #FDDAB5",
"t. c #F1EBAE",
"y. c #FDF3AB",
"u. c #FAE9B7",
"i. c #FCF2B3",
"p. c #F9F3BE",
"a. c #BAB4C9",
"s. c #BCB3D7",
"d. c #BCB9D7",
"f. c #C5BBD9",
"g. c #9CDCC1",
"h. c #A6D2C5",
"j. c #ACD7C7",
"k. c #BCCCDB",
"l. c #9DE1C4",
"z. c #A6E3C8",
"x. c #B4E6CA",
"c. c #ABE6D5",
"v. c #A5E5DA",
"b. c #B6E6D4",
"n. c #BBE9DB",
"m. c #B8D9EA",
"M. c #AED7F2",
"N. c #BBDDF3",
"B. c #ACE7E1",
"V. c #B5EAE4",
"C. c #B7E8E6",
"Z. c #B6E9ED",
"A. c #BCE7F2",
"S. c #BCEAF2",
"D. c #C3C4C4",
"F. c #CBCCCC",
"G. c #CBC6DB",
"H. c #C6DBDB",
"J. c #D3D4D4",
"K. c #DAD3D2",
"L. c #D6D9D8",
"P. c #DADBDC",
"I. c #E8CFCA",
"U. c #F6CAC4",
"Y. c #FBD6CA",
"T. c #E6CED2",
"R. c #E6DBD6",
"E. c #F9DCD7",
"W. c #D4EBCB",
"Q. c #C6E7DC",
"!. c #D8E7DB",
"~. c #F4E9C5",
"^. c #F7E9C8",
"/. c #F4F4C7",
"(. c #E7E4DA",
"). c #F6E7D9",
"_. c #E8F2D8",
"`. c #F9F4D4",
"'. c #F4F4DA",
"]. c #CDCAE1",
"[. c #D5CBE4",
"{. c #C7D3E3",
"}. c #D9D5E6",
"|. c #DDDBEC",
" X c #CEDCF0",
".X c #D9DAF0",
"XX c #E6DBEB",
"oX c #F4DDE4",
"OX c #E4D8F0",
"+X c #E4DCF1",
"@X c #C8E8E5",
"#X c #C6E7EC",
"$X c #C3EAED",
"%X c #CCEBEB",
"&X c #D8E9E4",
"*X c #D1E5EC",
"=X c #DBE6ED",
"-X c #D1EAE9",
";X c #DDECEC",
":X c #C9F1ED",
">X c #D8F0EB",
",X c #C4E5F4",
"<X c #CCE5F4",
"1X c #C3EAF4",
"2X c #CCECF4",
"3X c #CEECF8",
"4X c #DBE4F2",
"5X c #D3ECF4",
"6X c #DBECF5",
"7X c #D8EAF8",
"8X c #D9F1F6",
"9X c #E4E4E4",
"0X c #E8E7E6",
"qX c #ECE3EE",
"wX c #E4EBEC",
"eX c #EAEBEB",
"rX c #F8E7E9",
"tX c #E8F3EA",
"yX c #F5F6E4",
"uX c #FCF1EB",
"iX c #F9F6E8",
"pX c #E6E4F4",
"aX c #EAE4F3",
"sX c #E3EAF4",
"dX c #EBEBF4",
"fX c #F7EBF3",
"gX c #E5F6F4",
"hX c #EBF5F5",
"jX c #EAF7F7",
"kX c #F4F4F4",
"lX c #F2FBF5",
"zX c #FEFCF3",
"xX c #F4F4FA",
"cX c #FAF6FB",
"vX c #F5FBFB",
"bX c #FFFFFF",
/* pixels */
"s.~.y.^.2.-.c.4X X5X<X:Xk.G.i.i.Y.<.4.@X.X<X<X2X$Xd.R.y.p.e.,.5.5X X5X,X2X@Xs.~.y.^.2.-.c.4X X5X<X:Xk.f.i.i.Y.>.4.@X.X<X2X2X$X].",
"G.&X~.E.Y.7.c.1X5Xb.-XpX].G._.^.rXU.h.V.1X-Xc.sXpXf.}._.E.E.w.l.A.2X@Xn.dX|.f.&X~.E.Y.q.c.1X5Xb.%XpX].G._.^.rXU.6.V.1X5Xc.6XpXXX",
"fXg.-X2X#Xc.V.wX_.5.].+XOX;X5.;X1X#Xv.A.yXW.h.|.OXaXb.x.6X1XV.B.%X`.z.k.+XOXdXg.-X2X#XB.V.wX_.g.].+XOX;X5.;X1X#Xv.Z.yXW.h.|.OXxX",
"3XQ.z.Z.2X6X1XU.E.P.s.XXsX2Xb.v.Z.7X2X*Xe.).G.G.qX5X%Xz.B.S.sX1XR.U.(.f.[.aX2XQ.z.Z.1X6X1XU.E.P.s.XXsX2Xb.v.Z.7X5X*Xe.).G.f.qXsX",
"=XpXsX=XS.5XM.T.e.u.XXU.1.=XpXwX*X1X<Xm.e.r.~.XX3.w.6XpXwX1X2XN.{.e.u.(.oX<.L.sXsX=XS.5XM.T.e.u.XXU.1.=XpXwX*X1X<Xm.U.r.~.XX3.Y.",
"L.XX9X9X2X6Xm.t.`.yXrXU.1.P.qX!.eX2X7XH.i.'.uXrX2.w.XXeX!.6X5X,XW./.yXrXE.>.K.XX9X9X2X8Xm.t.`.yXrXU.1.P.qX!.eX2X7XH.i.'.uXrX3.).",
";XqX!.Q.yXiX).9.~.xXfX;X-X=XrXx.>XyXuX^.9.eXcXeX;X%XpX0Xx.tXyXuXy.t.hXfXwX&X%XqX!.Q.yXiX).9.~.xXfX;X-X=XrXx.>XyXuX^.9.eXcXeX;X;X",
"bXbXbXvXbXbXbXzXbXbXbXbXvXbXbXvXvXbXbXbXzXbXbXbXbXvXbXbXvXbXbXbXzXzXbXbXbXvXbXbXbXvXbXbXbXzXbXbXbXbXvXbXbXbXvXbXbXbXzXbXbXbXbXbX",
"bXbXbXbXbXbXbXbXbXbXbXbXbXbXbXbXbXbXbXbXbXbXbXbXbXbXbXbXbXbXbXbXbXbXbXbXbXbXbXbXbXbXbXbXbXbXbXbXbXbXbXbXbXbXbXbXbXbXbXbXbXbXbXbX",
"bXbXbXbXbXbXbXbXbXbXbXbXbXbXbXbXbXbXbXbXbXbXbXbXbXbXbXbXbXbXbXbXbXbXbXbXbXbXbXbXbXbXbXbXbXbXbXbXbXbXbXbXbXbXbXbXbXbXbXbXbXbXbXbX",
"bXbXbXbXbXbXbXbXbXbXbXbXbXbXbXbXbXbXbXbXbXbXbXbXbXbXbXbXbXbXbXbXbXbXbXbXbXbXbXbXbXbXbXbXbXbXbXbXbXbXbXbXbXbXbXbXbXbXbXbXbXbXbXbX",
"bXbXbXbXbXbXbXbXbXbXbXbXbXbXbXbXbXbXbXbXbXbXbXbXbXbXbXbXbXbXbXbXbXbXbXbXbXbXbXbXbXbXbXbXbXbXbXbXbXbXbXbXbXbXbXbXbXbXbXbXbXbXbXbX",
"bXbXbXbXbXbXbXbXbXbXbXbXbXbXbXbXbXbXbXbXbXbXbXbXbXbXbXbXbXbXbXbXbXbXbXbX:.&.kXbXbXbXbXbXbXbXbXbXbXbXbXbXbXbXbXbXbXbXbXbXbXbXbXbX",
"bXbXbXbXbXbXbXbXbXbXbXbXbXbXbXbXbXbXbXbXbXbXbXbXbXbXbXbXbXbXbXbXbXbXbXJ.9 > &.bXbXbXbXbXbXbXbXbXbXbXbXbXbXbXbXbXbXbXbXbXbXbXbXbX",
"bXbXbXbXbXbXbXbXbXbXbXbXbXbXbXbXbXbXbXbXbXbXbXbXbXbXbXbXbXbXbXbXbX:.z : y G n bXbXbXbXbXbXbXbXbXbXbXbXbXbXbXbXbXbXbXbXbXbXbXbXbX",
"bXbXbXbXbXbXbXbXbXbXbXbXbXbXbXbXbXbXbXbXbXbXbXbXbXbXbXbXbXbXbXbXbXb y N F F M bXbXbXbXbXbXbXbXbXbXbXbXbXbXbXbXbXbXbXbXbXbXbXbXbX",
"bXbXbXbXbXbXbXbXbXbXbXbXbXbXbXbXbXbXbXbXbXbXbXbXbXbXbXbXbXbXbXbXbX$.2 ! ( r ;.bXbXbXbXbXbXbXbXbXbXbXbXbXbXbXbXbXbXbXbXbXbXbXbXbX",
"bXbXbXbXbXbXbXbXbXbXbXbXbXbXbXbXbXbXbXbXbX9X=.#.:.bXbXbXbXbXbXbXbXkXO.9 2 j kXbXkX&.o.:.cXbXbXbXbXbXbXbXbXbXbXbXbXbXbXbXbXbXbXbX",
"bXbXbXbXbXbXbXbXbXbXbXbXbXbXbXbXbXbXbXbX=.: o < - D.bXbXbXbXbXbXbXbXbXJ.o.:.bXkX*.% < o M eXbXbXbXbXbXbXbXbXbXbXbXbXbXbXbXbXbXbX",
"bXbXbXbXbXbXbXbXbXbXbXbXbXbXbXbXbXbXcX+.4 D 8 %   ; m eXbXbXL.o.F.bXbXbXbXbX;.h = . & p 8 x 9XbXbXbXbXbXbXbXbXbXbXbXbXbXbXbXbXbX",
"bXbXbXbXbXbXbXbXbXbXbXbXbXbXbXbXbXbX$.4 R X.] *   , o *.bXbXE > q z &.bXbXbXv # *   a .. .s l 9XbXbXbXbXbXbXbXbXbXbXbXbXbXbXbXbX",
"bXbXbXbXbXbXbXbXbXbXbXbXbXbXbXbXbXF.0 U X.[ 3 p J 8 o o.F.cX#.t 2 > M bXJ.$.h @ 7 g < H X. .s b kXbXbXbXbXbXbXbXbXbXbXbXbXbXbXbX",
"bXbXbXbXbXbXbXbXbXbXbXbXbXbXbXbXkXl D X.} 6 7  ...p   O $ M P.q B 2 :.P.: 3 o . J X.U < L X.} 7 #.bXbXbXbXbXbXbXbXbXbXbXbXbXbXbX",
"bXbXbXbXbXbXbXbXbXbXbXbXbXbXbXbX#.8  .X.d * [ ..d @ a & # = eX;.= o.bX:.o * % < O P X.P - R X.T 0 F.bXbXbXbXbXbXbXbXbXbXbXbXbXbX",
"bXbXbXbXbXbXbXbXbXbXbXbXbXbXbX9Xu Y X.I # P X.D @ P X.' < n bXbXL.kXbXeXh 3 '  .d * R X.g 8  .X.S c cXbXbXbXbXbXbXbXbXbXbXbXbXbX",
"bXbXbXbXbXbXbXbXbXbXbXbXbXbXbX+.s X. .5 p X.U # J X.{ p z 9XbXbXbXbXbXbXF.h g ....d 5 } | 6 g X.} w a.bXbXbXbXbXbXbXbXbXbXbXbXbX",
"bXbXbXbXbXbXbXbXbXbXbXbXbXbXeXh Y X.P % R  .3 s X.{ 7 b eXbXbXbXbXbXbXbXbXP.h g X. .8 d X.T * T X.D m bXbXbXbXbXbXbXbXbXbXbXbXbX",
"bXbXbXbXbXbXbXbXbXbXbXbXbXbX=.e ..X.D g X.J < { ..p M cXbXbXbXbXbXbXbXbXbXbXL.u P X.R < T X.D P X.[ q P.bXbXbXbXbXbXbXbXbXbXbXbX",
"bXbXbXbXbXbXbXbXbXbXbXbXbXbXn S X.X.}  .} 3 K X.J h ;.*.%.;.P.bXbXbXbXP.;.=.D.&.w [ X.g 8 ..X...X.X.s #.bXbXbXbXbXbXbXbXbXbXbXbX",
"bXbXbXbXbXbXbXbXbXbXbXbXbX&Xu ' X.X.X.X.R s  .{ % = 4 7 8 5 0 +.cXeXM 0 w 6 4 u = s X.[ 7 ' X.X.X.X.I j eXbXbXbXbXbXbXbXbXbXbXbX",
"bXbXbXbXbXbXbXbXbXbXbXbXbX#.a X.X.X.X.X... .X.S . g { X.X...Y 3 M x p R ..X.} P < . P X.[  .X.X.X.X. .w ;.bXbXbXbXbXbXbXbXbXbXbX",
"bXbXbXbXbXbXbXbXbXbXbXbXeXh P X.X.X.X.X.X.X.' * D X.X...[  .X.D   . P X... .X.X.{ 1 < } X.X.X.X.X.X.X.H b bXbXbXbXbXbXbXbXbXbXbX",
"bXbXbXbXbXbXbXbXbX9XM b l e  .X.X.X.X.X.X.X.K a X.X.' 8 & 6 T p O # f { p 1 S  .X.R 6 ' X.X.X.X.X.X.X.[ 4 o.#.$.kXbXbXbXbXbXbXbX",
"bXbXbXbXbXbXbXbXbX:.- S D ' X.X.X.X.X.X.X.X. .} X.{ 3 y ! B 7 8 . @ d 8 t G 2 f ..X.{ ..X.X.X.X.X.X.X.X.K p 8 - L.bXbXbXbXbXbXbX",
"bXbXbXbXbXbXbXbXbX=.s X.X.X.X.X.X.X.X.X.X.X.X.X.X.g t ) ` ( 2 $ + X % r / ` ~ 1 T X.X.X.X.X.X.X.X.X.X.X.X.X. .w F.bXbXbXbXbXbXbX",
"bXbXbXbXbXbXbXbXbX=.a X.X.X.X.X.X.X.X.X.X.X.X.X...7 G ` _ _ Q B Q W F ^ _ _ _ N S X.X.X.X.X.X.X.X.X.X.X.X.X. .w F.bXbXbXbXbXbXbX",
"bXbXbXbXbXbXbXbXbX#.g X.X.X.X.X.X.X.X.X.X.X.X.X. .7 W _ _ _ _ _ _ _ ` _ _ _ ` Z d X.X.X.X.X.X.X.X.X.X.X.X.X. .w F.bXbXbXbXbXbXbX",
"bXbXbXbXbXbXbXbXbXO.S X.X.X.X.X.X.X.X.X.X.X.X.X. .6 G _ _ _ _ _ _ _ _ _ _ _ _ N g X.X.X.X.X.X.X.X.X.X.X.X.X. .w J.bXbXbXbXbXbXbX",
"bXbXbXbXbXbXbXbXbXo.S X.X.X.X.X.X.X.X.X.X.X.X.X.X.p F ` _ _ _ _ _ _ _ _ _ _ ( 2 I X.X.X.X.X.X.X.X.X.X.X.X.X. .w L.bXbXbXbXbXbXbX",
"bXbXbXbXbXbXbXbXbXo.D X.X.X.X.X.X.X.X.X.X.X.X.X.X.K 2 ( _ _ _ _ _ _ _ _ _ ` G 6  .X.X.X.X.X.X.X.X.X.X.X.X.X. .w J.bXbXbXbXbXbXbX",
"bXbXbXbXbXbXbXbXbXo.D X.X.X.X.X.X.X.X.X.X.X.X.X.X. .7 B _ _ _ _ _ _ _ _ _ ^ 2 J X.X.X.X.X.X.X.X.X.X.X.X.X.X. .w J.bXbXbXbXbXbXbX",
"bXbXbXbXbXbXbXbXbXo.A X.X.X.X.X.X.X.X.X.X.X.X.X.X.X.R 1 B ( _ _ _ _ _ _ ! 2 p  .X.X.X.X.X.X.X.X.X.X.X.X.X.X. .i L.bXbXbXbXbXbXbX",
"bXbXbXbXbXbXbXbXbX+.g X.X.X.X.X.X.X.X.X.X.X.X.X.X.X.X.R 6 2 W _ _ _ ( B & g  .X.X.X.X.X.X.X.X.X.X.X.X.X.X.X.| i P.bXbXbXbXbXbXbX",
"bXbXbXbXbXbXbXbXbX#.g X.X.X.X.X.X.X.X.X.X.X.X.X.X.X.X.X. .S & V _ ~ r 7 Y X.X.X.X.X.X.X.X.X.X.X.X.X.X.X.X.X. .i L.bXbXbXbXbXbXbX",
"bXbXbXbXbXbXbXbXbX$.a } [ [ R R Y P K K H D D D f a f R X.X.T < F t p  .X.X.R C p p d f C S S D D J K K L K H 4 L.bXbXbXbXbXbXbX",
"bXbXbXbXbXbXbXbXbX=.# 4 ; ; 0 q u j k l z v v b m O.b ; S K s a @ 1 J g P s 0 b #.@.o.M n b v v x z l z z l z z 9XbXbXbXbXbXbXbX",
"bXbXbXbXbXbXbXbXbX9XD.L.P.P.9X9XeXkXcXbXbXbXbXbXbXbXbXD.l o < %   < * # O m P.bXbXbXbXbXbXbXbXbXbXbXbXbXbXbXbXcXbXbXbXbXbXbXbXbX",
"bXbXbXbXbXbXbXbXbXbXbXbXbXbXbXbXbXbXbXbXbXbXbXbXbXbXbXbXkX+.0 O : = o u =.cXbXbXbXbXbXbXbXbXbXbXbXbXbXbXbXbXbXbXbXbXbXbXbXbXbXbX",
"bXbXbXbXbXbXbXbXbXbXbXbXbXbXbXbXbXbXbXbXbXbXbXbXbXbXbXbXbXbXP.:.eXJ.;.wXbXbXbXbXbXbXbXbXbXbXbXbXbXbXbXbXbXbXbXbXbXbXbXbXbXbXbXbX",
"bXbXbXbXbXbXbXbXbXbXbXbXbXbXbXbXbXbXbXbXbXbXbXbXbXbXbXbXbXbXbXbXbXbXbXbXbXbXbXbXbXbXbXbXbXbXbXbXbXbXbXbXbXbXbXbXbXbXbXbXbXbXbXbX",
"bXbXbXbXbXbXbXbXbXbXbXbXbXbXbXbXbXbXbXbXbXbXbXbXbXbXbXbXbXbXbXbXbXbXbXbXbXbXbXbXbXbXbXbXbXbXbXbXbXbXbXbXbXbXbXbXbXbXbXbXbXbXbXbX",
"bXbXbXbXbXbXbXbXbXbXbXbXbXbXbXbXbXbXbXbXbXbXbXbXbXbXbXbXbXbXbXbXbXbXbXbXbXbXbXbXbXbXbXbXbXbXbXbXbXbXbXbXbXbXbXbXbXbXbXbXbXbXbXbX",
"bXbXbXbXbXbXbXbXbXbXbXbXbXbXbXbXbXbXbXbXbXbXbXbXbXbXbXbXbXbXbXbXbXbXbXbXbXbXbXbXbXbXbXbXbXbXbXbXbXbXbXbXbXbXbXbXbXbXbXbXbXbXbXbX",
"bXbXbXbXbXbXbXbXbXbXbXbXbXbXbXbXbXbXbXbXbXbXbXbXbXbXbXbXbXbXbXbXbXbXbXbXbXbXbXbXbXbXbXbXbXbXbXbXbXbXbXbXbXbXbXbXbXbXbXbXbXbXbXbX",
"bXbXbXbXbXbXbXbXbXbXbXbXbXbXbXbXbXbXbXbXbXbXbXbXbXbXbXbXbXbXbXbXbXbXbXbXbXbXbXbXbXbXbXbXbXbXbXbXbXbXbXbXbXbXbXbXbXbXbXbXbXbXbXbX",
"bXbXbXbXbXbXbXbXbXbXbXbXbXbXbXbXbXbXbXbXbXbXbXbXbXbXbXbXbXbXbXbXbXbXbXbXbXbXbXbXbXbXbXbXbXbXbXbXbXbXbXbXbXbXbXbXbXbXbXbXbXbXbXbX",
"bXbXiXlXvXcXlXgXcXxXvXlXgXlXzXzXlXvXbXgXhXvXcXvXhXgXbXuXlXvXvXcXtXvXxXcXvXhXgXbXzXlXvXbXvXtXcXcXvXhXgXvXzXiXlXvXbXgXlXcXxXvXhXgX",
"dX}.i./.E.3.6.n.+X.X7X,XB.{.R.i.'.U.w.5.-X.X4X<X$XB.].~.p.).e.q.z.4X.X6X<XV.m.}.i./.).3.6.n.+X.X7X,XV.{.R.i.'.U.w.5.-X.X4X<X$XV.",
"pXG.'.u.E.e.6.V.1X2Xn.6XpXs.}./.u.E.1.g.$X1X%XQ.hX|.s.0Xu.^.Y.q.z.1X2XV.%XdX].f.'.u.E.e.6.V.1X2Xn.6XpXs.}./.u.E.1.5.$X1X%Xn.hXpX",
"dXwXz.eX<X&Xv.Z.tXW.g.|.OX+XQ.b.sX*XQ.v.1XyXx.j.+X|.qXz.&X4X*Xb.B.6X'.5.H.OXOXwXz.eX<X*Xv.Z.tXW.5.|.OX+XQ.b.sX*XQ.v.1XyXx.j.+XOX",
"xX5Xl.c.Z.2X1X#XY._.G.].pX6X@Xg.V.S.5XS.P.Y.!.d.}.pX7Xc.z.Z.1X5XS.I.).H.f.+XpX5Xl.c.Z.2X1X#XY._.G.].pX6X@Xg.V.S.7XS.P.Y.!.d.}.aX",
"xX5XpX*X$X2X5XN.3.e.~.[.U.K.7X=X-XA.8X,X}.2.r.R.}.e.L.sX*X#XS.8XN.I.3.u.}.T.w.*XpX-X$X2X5XN.3.e.~.[.U.K.7X=X%XA.8X,X}.2.r.R.P.e.",
").XXaXeXeX1X<Xm.~.`.'.rX2.1.XXdX0X6X1XN.H.^.`.rXE.>.I.+XeX0X2X2XM.W.`.`.rXU.>.R.aXeXqX1X2Xm.~.`.'.rX2.1.XXdX0X6X1XN.H.^.`.rXE.>.",
"tX*XoXj.>XtXuX~.8._.xXrXR.Q.|.R.z.gX'.rXt.0.hXfX0XR.@XXXW.n.gXyXrX8.p.hXrX9X!.*XoXj.>XtXuX~.8._.xXrX(.Q.|.R.z.gX'.rXt.0.gXfX0X(."
};
