/* XPM */
static char *_1f610ba50de4003a65435824579d74el4hLJb65myzkFQgI[] = {
/* columns rows colors chars-per-pixel */
"64 64 256 2 ",
"   c #B93C69",
".  c #AB3D63",
"X  c #A33B5E",
"o  c #D7386E",
"O  c #DC3C73",
"+  c #D73F74",
"@  c #CA3E6E",
"#  c #E43C74",
"$  c #EC3E7A",
"%  c #E93A76",
"&  c #F43A7A",
"*  c #F93779",
"=  c #E1336E",
"-  c #994766",
";  c #915069",
":  c #A7476A",
">  c #B85779",
",  c #B04A70",
"<  c #8F6C78",
"1  c #CA4A77",
"2  c #D9477A",
"3  c #C6567D",
"4  c #D6527F",
"5  c #E4437B",
"6  c #EB427B",
"7  c #E64579",
"8  c #F3447E",
"9  c #9F837F",
"0  c #1A729B",
"q  c #38789B",
"w  c #2F6E97",
"e  c #3977A6",
"r  c #3079B0",
"t  c #1D7CAA",
"y  c #596B89",
"u  c #43779D",
"i  c #526D95",
"p  c #6B7997",
"a  c #727899",
"s  c #6E7095",
"d  c #4778A5",
"f  c #5976A6",
"g  c #4977AB",
"h  c #777AA7",
"j  c #657BAC",
"k  c #107FC4",
"l  c #3F7FC7",
"z  c #9A7A86",
"x  c #8F798D",
"c  c #A77889",
"v  c #A87996",
"b  c #B9748E",
"n  c #877AAE",
"m  c #B85881",
"M  c #D55282",
"N  c #E94982",
"B  c #F74884",
"V  c #E35687",
"C  c #F45085",
"Z  c #CE6F91",
"A  c #E37099",
"S  c #DD7DA4",
"D  c #318F9A",
"F  c #1989B7",
"G  c #2588AC",
"H  c #3988A9",
"J  c #2987B7",
"K  c #3586B7",
"L  c #2797B7",
"P  c #3A92B7",
"I  c #3BA3BC",
"U  c #468897",
"Y  c #6B879C",
"T  c #4686A7",
"R  c #5B86A9",
"E  c #4589B5",
"W  c #5983B5",
"Q  c #4494B6",
"!  c #4994AF",
"~  c #6789A9",
"^  c #7685A6",
"/  c #768CB5",
"(  c #6F93B5",
")  c #50A4BE",
"_  c #1588C5",
"`  c #1A98CA",
"'  c #0A9BD7",
"]  c #1A9BD9",
"[  c #0799CD",
"{  c #288AC8",
"}  c #2696C9",
"|  c #3696C6",
" . c #249CD6",
".. c #3697D6",
"X. c #2D89CF",
"o. c #06A6DA",
"O. c #1AA6DA",
"+. c #08ADD4",
"@. c #25A7D8",
"#. c #35B8D7",
"$. c #33ADD0",
"%. c #069BE9",
"&. c #179CE8",
"*. c #0A9CF6",
"=. c #169DF6",
"-. c #198DE4",
";. c #2D99E4",
":. c #02A3E4",
">. c #01AAE4",
",. c #02A4EB",
"<. c #02ABEB",
"1. c #0CA5E8",
"2. c #17A6E6",
"3. c #02B4EA",
"4. c #19B3E7",
"5. c #02ABF4",
"6. c #05A7F7",
"7. c #16A6F7",
"8. c #05B5F7",
"9. c #18B9FA",
"0. c #28AAE7",
"q. c #27B9E6",
"w. c #32B9EB",
"e. c #2FB7F5",
"r. c #559BC7",
"t. c #4293D0",
"y. c #7596C3",
"u. c #47ABD3",
"i. c #45B6EC",
"p. c #67A2CC",
"a. c #17C6F3",
"s. c #3AC6EA",
"d. c #29C7F8",
"f. c #34C9F4",
"g. c #2ACFF8",
"h. c #27E4FF",
"j. c #44CCF3",
"k. c #998588",
"l. c #998896",
"z. c #89929B",
"x. c #A6838B",
"c. c #A88696",
"v. c #B78698",
"b. c #B8959B",
"n. c #A79694",
"m. c #8889A7",
"M. c #948AB5",
"N. c #9996B8",
"B. c #8E90B2",
"V. c #BA8AA6",
"C. c #AA98A5",
"Z. c #B799A9",
"A. c #A796B8",
"S. c #B798B8",
"D. c #A98AB1",
"F. c #90A3B9",
"G. c #B9A3AB",
"H. c #B7A5B6",
"J. c #B0ACB8",
"K. c #C4869A",
"L. c #D8919F",
"P. c #C58CA4",
"I. c #C999A8",
"U. c #D497AA",
"Y. c #DA9CB5",
"T. c #D08DAE",
"R. c #E999AB",
"E. c #F898AB",
"W. c #ED9DBB",
"Q. c #E99AB6",
"!. c #FD95B4",
"~. c #F49BB4",
"^. c #FD9CB4",
"/. c #F49CBB",
"(. c #FD9CBC",
"). c #F895B7",
"_. c #F08DAE",
"`. c #C9A9B7",
"'. c #D9A6B8",
"]. c #C7B5BA",
"[. c #D3AAB2",
"{. c #ECA4BB",
"}. c #E7A7B9",
"|. c #FCA3B4",
" X c #F4A3BC",
".X c #FDA2BC",
"XX c #F6A7B9",
"oX c #E8B2BC",
"OX c #F1A2AE",
"+X c #9297C5",
"@X c #A99CC4",
"#X c #B89AC4",
"$X c #93AFCE",
"%X c #B7A6C8",
"&X c #AEACC8",
"*X c #8EBEE4",
"=X c #D19CC7",
"-X c #ED9DC3",
";X c #FE9DC2",
":X c #FA99C5",
">X c #E79DD0",
",X c #C8A7C7",
"<X c #D9A9C8",
"1X c #CAB7C7",
"2X c #DAB5C6",
"3X c #D8AAD5",
"4X c #DBB6D7",
"5X c #CAAFD3",
"6X c #EBABC5",
"7X c #E7A8C7",
"8X c #F4A4C3",
"9X c #FDA4C3",
"0X c #F3ABC4",
"qX c #FCA9C4",
"wX c #FEA4CB",
"eX c #FDAACB",
"rX c #F3A7CB",
"tX c #E9B4C9",
"yX c #FBB3CA",
"uX c #E7A8D5",
"iX c #F9A9D4",
"pX c #E8B4D4",
"aX c #FAB5D6",
"sX c #D8B3E4",
"dX c #F1B4E3",
"fX c #97C9DA",
"gX c #B0D0E2",
"hX c #D9C2CA",
"jX c #DCD8DD",
"kX c #D2C8CF",
"lX c #E9CEDA",
"zX c #E9DCE5",
"xX c #F6DAE7",
"cX c #D8F8FF",
"vX c #CDECFD",
"bX c #ECE8E9",
"nX c #F6E9EB",
"mX c #FDFEED",
"MX c #F8F8EE",
"NX c #FAECF7",
"BX c #EDFEFE",
"VX c #E6FBFB",
"CX c #FEF4F4",
"ZX c #F5FDF6",
"AX c #FDFDF4",
"SX c #FEF5FC",
"DX c #F5FEFD",
"FX c #F9FFFF",
"GX c #FAFFFF",
"HX c #FFFDFF",
"JX c #FFFFFF",
"KX c #FDFEFE",
"LX c #FDFDFD",
"PX c #F4F4F6",
"IX c #EBF2EF",
"UX c #D0DCE0",
/* pixels */
"HXHXHXHXHXGXGXHXHXSXHXHXGXGXHXKXmXmXmXZXDXDXGXGXHXKXKXAXAXMXAXKXKXLXHXCXHXHXZXHXHXHXHXGXDXZXSXHXHXHXHXHXHXHXHXGXGXGXHXHXHXHXDXBX",
"GXHXHXHXHXHXGXHXHXHXHXHXHXGXHXKXAXAXAXZXDXGXHXHXHXHXAXKXCXKXnXCXHXHXHXHXKXZXHXKXLXLXAXGXDXGXHXHXHXHXHXHXHXHXGXGXGXHXHXHXHXHXGXDX",
"DXDXDXZXKXKXHXGXGXHXHXHXHXHXKXHXHXHXGXDXGXGXHXHXHXPXHXHXhXc.x.k.kXDXZXDXDXZXHXHXHXHXHXZXBXDXGXHXHXHXGXGXGXGXFXHXHXHXHXHXGXGXHXHX",
"ZXZXDXZXKXHXHXGXDXDXGXHXHXKXKXHXHXHXHXGXGXHXHXHXHXHXHXZ.v '.tX[.l.jXGXDXDXGXHXHXHXHXHXDXDXDXGXHXGXGXHXDXDXGXHXHXHXHXHXGXDXGXHXHX",
"AXKXKXKXHXHXHXHXDXDXDXGXKXKXAXAXHXHXKXAXmXmXmXAXHXHXv T.aX-XW.tXZ.C.HXHXPXHXHXHXHXLXAXGXGXGXFXDXGXDXHXHXHXHXHXHXHXHXHXDXDXGXHXSX",
"LXLXHXHXHXHXHXHXGXDXBXZXKXKXKXKXHXHXKXmXmXmXmXAXKXn.P.rX-XwX9X X0Xv.zXHXGXHXSXHXHXHXHXDXDXDXHXHXGXHXHXzXzXSXSXSXHXHXHXDXDXGXHXHX",
"HXHXHXHXGXDXHXHXHXZXDXDXHXHXHXHXHXHXHXAXAXAXAXCXI.K.0XW.9X/.).;X;XR.`.PXBXBXPXHXSXHXGXDXDXGXHXHXIXG.k.x.c.c.Z.nXHXHXHXGXHXHXHXHX",
"HXHXHXHXDXDXHXHXKXKXDXDXDXDXVXVXcXcXcXvXcXcXVXzXv 6XW..X.X(..X!.;X;Xv.xXjXbXHXSXHXHXGXSXHXHXzXZ.< z `.'.6XtXb.z HXGXGXHXHXHXHXHX",
"DXDXDXGXDXDXAXKXAXHXGXDXcX$X) L L F J J J | E f #XiX;X(.!..X^.^.eXT., : , , c xXHXGXHX`.b b ; ; '.}.tX{.W.0X6Xz J.DXBXHXHXHXGXGX",
"GXDXDXPXHXKX].n.G.`.zXvXT P #.f.a.4.2.2.&.2.` K i D.iX;X^.^..X.XK.- A M 2 V : ; hXxX< - 3   M > , Z 8XW.9X/.{.P.J.DXDXGXHXHXGXDX",
"HXCXHXHXAXn.n.I.R.T.V.y I s.4.1.<.,.%.%.*.,.3.O.Q ^ <X).9X.X9XR.: Z S 2 7 O 2 1 : , 1 2 N N + 2   , L.8X9X(.eXP.C.GXDXDXHXHXGXDX",
"CXKXKXLXhXx.oXoX.X9XrX@XP #.] 2.,.5.7.7.7.1.2.@.e m.7X/.9X;X-Xm Z iX4 + N # N N N o C $ % B % B N @ , W./.;XeXb G.GXDXDXHXHXGXDX",
"mXAXZXCXb.'.0X X.X_.:XdXn g J _ o.<.,.1.&._ K f s `.eX9X).9XQ.- eX!.1 2 # B O O $ C % % B $ # # 6 N . Z 9X/.8Xb hXGXDXDXHXHXGXGX",
"AXZXZXHX2Xb {.9X(.9X;X:XuXD.y.K 2.<.<.o. .t.$X#XuXyX~.(.^.9XT., aXA 2 7 # 6 6 C = % & % % 6 6 6 % 7 1 > 9XW.{.c nXHXGXHXHXHXGXDX",
"ZXHXHXSXSXc.7X/.!.9X~. X8XpX5XR e.5.<.o.} W sXuX8X~.R.|..X^.m Z iX4 o # 8 # 7 # B 6 # 6 O 2 C o N O 1 3 (.0XU.c.HXGXHXHXHXHXGXDX",
"GXGXHXHXGX%XV.8X.XE.|.R.yX{.'.^ w.5.<.1.} W 3X/.^.E.|.R.|.qX> Z wX1 7 6 # 7 7 5 7 # 6 # 7 7 # 6 6 5 1 3 /.6Xz kXHXDXHXHXSXHXDXBX",
"ZXZXDXDXGXHXc.[.qX^.!.^. X}.7Xp s.3.5.%.;.g 3X;X^.^.|.~. XqXm A iX1 2 5 7 7 2 2 5 5 6 $ $ $ $ $ $ # 2 M eX[.x HXGXGXHXHXHXHXDXBX",
"HXZXGXGXHXHXbXz }.~.eX(.qX7X<Xa #.>.6.=.;.W 3X;X^.^.^..X~.8XZ m aX1 V 5 # 6 7 5 5 5 $ & & $ 6 5 $ 5 M Z 0X< kXPXGXHXHXHXHXHXDXDX",
"HXHXHXHXHXNXHX].c yX~.:X:XrXuXh s.+.,.&. .E 3X~..X^.(.9X~. XR.- aXZ 2 6 * * # 6 5 $ * * * $ 5 2 O N   _.P.z HXDXGXHXHXHXHXHXHXGX",
"HXHXSXSXHXSXHXHX`.v.yXW.:XiX<X^ s.o.,.2.} W pX.X.X^.(.;X(.(.{.; U.qX@ $ * * % 6 5 $ * * * $ 5 2 2 1 , 8Xz lXHXGXHXHXHXHXHXHXHXHX",
"ZXZXHXHXHXHXSXSXSXn.I.yX.XQ.7XY w.5.,.1.} R 7X!.^.^.9X;X;X(. XZ - ;XV O * * B % 5 5 $ & * & 5 2 M , Z v.Z.HXPXGXHXHXHXHXHXHXHXHX",
"ZXZXHXHXGXGXHXSXHXzX< '. X{.tXY w.8.,.1.{ R 7X^.|.|.9X).;X;X;X/.: > V O & * B % 5 5 6 $ & $ 5 2 1 , Q.c bXHXDXGXGXHXHXHXHXHXHXHX",
"AXKXZXDXDXBXDXHXHXHXhXc tX6X'.^ @.8.,.O.| ~ ,X0XOX|.(.).;X:X;XwXT.- 1 5 B % 5 2 5 5 $ $ $ 6 5 2 , K.P.].HXDXDXDXGXGXGXGXGXHXHXHX",
"HXKXGXDXBXDXDXGXHXSXHXC.J.B.N.u [ <.,.2.` G / l.`.}./.;X;X(.;X/.eXZ   2 5 5 + 5 5 5 $ $ 5 2 2 1 > 0Xc.nXHXDXDXGXHXHXGXGXGXGXHXHX",
"HXSXHXGXGXZXZXZXHXHXDXvXw K i.w.<.5.6.6.5.1.` H i H.iX;X(.(.|.|. X XZ , 4 5 O 6 5 5 6 7 + 2 3 : /.{.c NXHXHXHXHXHXLXKXZXDXGXHXHX",
"HXHXHXZXKXAXAXKXLXHXDX*X| j.o.<.8.8.6.6.6.8.<.@.T N.-X;X(.^.E.|..X8X XZ . 4 C 5 5 5 o 2 V   , ~.eXeXv.v.c.G.2XhXxXSXHXHXAXZXHXAX",
"DXGXGXKXKXAXIXAXHXHXSX+XP q.+.3.%.%.*.*.6.6.5. .q N.rX;X(.^.^.^.9X~./.qXZ : 1 + 7 O V 4 X > ).(._.~.qX}.'.U.P.K.v.c.v.xXHXHXLXHX",
"BXDXHXHXCXKXZXZXHXSXS.m.R 0 } L ........;.-.{ K p S.eX.X(..X(.!.!.9X9XQ.qXL.. 1 1 2 . . S (.(.;X9X)..X.XqX X/.yX{.yX'.< `.HXHXLX",
"ZXAXKXHXLXAXZXHXhXc T.aX<XS.a ^ s s s s h n M.D.<X X^..X8X8X;X;X(.(.(.qX~./.9XZ > 3 S (.(.(.(.).(.(.^.(.(.9X.X(..XQ.Q.aX< xXSXCX",
"AXAXKXSXLXHXbXk.c }..X!.^.yX X}.6X7X'.'.'.7XuXeX.X|.^.^.8X8X;X(.9X).(.(.(.9X/..XqXqX.X!.!.(.9X(.~.qX^.9X!.(.(.(.(.(.qX6XI.`.HXHX",
"nXHXSXHXHXH.< [.6X}.{.qX(.!.Q.0X-X8XoXoX X8X:X:X!.^..X(.W.8X.X^.^.9X(.(.^.^..X/.~. X.X9X9X~.R..XXXXX~..X(.!.(.9X.X(.Q.}.I.G.HXPX",
"LXCXHXSXH.C.1XpX}. XOX|.^.!.9X8X9X8X'.'.<X7XrX;X9X!.!..X8X6X}.7X2XpX7X{.qX9X~..X.X/..X X X8XtX7X6X{..X^.(.9X(./.7XpXuXtXc.].AXDX",
"CXAXLXH.A.A.a &XpX/.|.E.|.^.(.9X;X6X1Xa i B.3XwX.XE.(.!.9X7XJ.~ ~ R B.&X[.oXR.qXwX:X.X~.Q.pX@XB.`.6X9X(.(..X9X7XM.h n N.C.IXHXGX",
"CXCXlXG.&Xy p.u A.rX|.|.E.^.;X/.8X,Xi ! r.u #X:X.X.X/.aXS.y T u.u.$.K d p G.lXQ.-X/.(.qX6Xx u T y 3XW.9X.X X7XD.d r.r.u VXHXIXKX",
"GXHX2XH./ r.i...g 5XW..X.X~.9XrX5Xi $.q.} e ,X9X(./.7XB.D #.f.d.9.7.2.] r.i A.uXrX9X!./.%Xd i.j.Q ^ pX!..X{.2Xy u.O.@.t vXHXKXAX",
"BXHXG.G.F.P ' 2.{ f uX(.~.qXW.4XY t.d.,. .d ,XqX;XiX@Xq #.h.3.8.,.,.%.7.] t.f %X7X/.;XiXB.H d.[ ` u <X9X XtXC.U #.+.o.F fXHXHXKX",
"DXHXlXn.&XH O.,.4.t M.iX XQ.pXm.G g.,.%.t.~ `. X8X5XT #.g.>.:.<.8.>.3.:.=.;.| f pX/.).pX^ r.e.:.0.K 5XyXI.l.Y D 4.>.5._ gXSXDXDX",
"HXHXKXG.z.u ` <.,.0.i ,XyX}.%Xq f.3.,.0.e %X}.OXrXM.L g.>.,.2.] F J F  .&.=.] K S.eX/.<XR u.[ o.' K %XP.c.bXvXD g.,.6._ $XSXGXBX",
"HXHXKXKXjXY L ' %.&.| j <XpXU $.9.8.' { h 7XOXOX7X^ #.a.<.2.e n A.%XN.f ..&.4.{ a pX8X,XU s.+.3.0.r N.Z.SXHXvXD q.,.6._ $XHXDXDX",
"LXHXAXHXLXBX! } =.%.2.K +XN.L g.>.1. .d 5XqX|.XX'.f f.3.:.{ +XrXeXXX0X#Xr ] :. .f 5X7X1XH w.o.' &.t.s xXSXGXvXH w.' 7._ $XHXGXDX",
"ZXDXGXGXSXHXvXr &.9.%.' | r d.3.>.} d A.tXOX~.0XA.R f.o. .g 4X/.~.XXXX2X( J 2. .d @XtX5XE e.=.=.2.J B.G.HXGXvX! q.<.,._ fXZXGXHX",
"DXDXDXGXLXHXVX*X_ %.6.7.' 2.%.4.@.0 M.6X{.XX.X7XN.r.f.+.J / '.|..X~.|.}.@Xw 2.0.d A.2X5XE i.=.=.&.| A.c.zXDXBX! q.3.5._ fXZXGXHX",
"ZXZXZXZXAXHXGXcXr.} ' 6.7.%.1.] r ^ <XwX8X9X;XuX/ u.q.[ q &X'..X;X;X XoX&Xe 2.2.d A.}.2XE e.6.6.=.r S.[.k.DXcX! a.<.5._ fXAXAXZX",
"KXAXZXZXAXKXHXBXcXQ ` 7.*.*.e.J f 3XrX/.wX:X:XdX/ u.d.[ q &X7X X;X:X X6XA.E e.' d A.{.2XT s.5.,.7.X.S.yXn.J.BX! a.<.5.F gXAXAXAX",
"KXAXAXAXCXAXCXZXDXgX0  .7.&.{ W 5XeX/.9XwX:X:XuXB.u.g.+.K B.dX/.9X_.^.6XF.P e.] d A.0X'.U #.4.:.1.X.#X{.[.k.UX) d.<.5.F gXLXAXKX",
"HXHXAXKXLXCXAXAXjXF.Q ..] 0.J y.dX).(.(.(.9X:XuX+XQ a.+.X.j dX8X(.9X.X4XT $.2. .d #X0X'.Y $.q.:.>.F M.6XOXoXm.E e.<.o.G UXSXHXHX",
"HXHXSXHXHXAXZXIXC.A.p.u.0.` | y.<X^.9XE.R.XX(.rX%Xd O.o.&.l #XW.~.yXY.N.J d.o.] f ,XrX7XN.! 0.>.3.` p <XaXiXM.e 2.>.' J vXHXHXHX",
"DXHXSXHXHXGXDXkXx.4X( u.0.O.J ( pX(.!..XXXOX.X8X<Xp } 1.1.-.j @X5XA.F.q w.a.o. .h <X8X8X%XW 0.<.:.O.e m.5X@Xg ..' 1.` Q VXGXHXHX",
"BXDXHXSXHXHXbXk.}.2X( i.2.1.| ( pX~.!.(.|.~..XrXuXM.K O.1.7.-.X.G G  .d.9.,.o.G A.9XE.(.3Xj X.7.%.9.w.$.G F O.d.:.O.G fXBXGXLXHX",
"BXDXAXKXSXSXG.I.OXtXR i.9.2.r / <X.X(.E. XXXU.P.uX%Xd } ' 5.8.%.2.g.a.8.,.1.} T ,X^.|..XpX@Xr ;.6.,.>.a.g.g.8.<.2.} Q VXBXHXHXLX",
"GXGXAXKXGXjXc XX|.2X( $.O.O.r +X7X;X(.qXI.x.G.1Xv 3X+Xg } o.,.,.1.%.5.<.>.O.e M.aX_..XE.Q.<X^ e O.<.,.:.,.,.,.1. .0 $XDXHXHXGXDX",
"HXHXKXMXHXC.U..X|.}./ Q @...d @XiX;XQ.b b.bXKXSXlXv sXh e $.` O.%.1.2.' @.K j sXP.U.}.oXXXtX2Xp t ` 0.0.&.&. .| d +Xm.bXHXSXGXDX",
"GXHXKXCXzXc.yX^.^.{.S.f r.E s ,X7X'.c.1XHXZXZXHXHXS.=X3XB.w Q L @.O.` | d / ,Xc.`.].k.x.I.I.XXtXl.p q r J r f a D.tXb.`.KXAXZXZX",
"GXHXHXHX].Z.aX~..X9XdXn i f #XpXc.c.zXHXZXGXGXZXGXhXb rX4X@XY R e K d ~ %X4XZ.1XPXHXHXzX].b.K.L.oX`.N.+Xy.+X#X7XqXE.oXx.nXKXMXAX",
"GXHXLXHX1XZ.6X XXXR.-XuXuXsX`.x &XHXHXDXHXZXZXGXGXnXP.rXY.pX4X,X,X=XuXuX7XI.Z.HXGXPXHXHXSXSXlXZ.k.b.1X4X4XpXrX.X|.XXY.V.lXHXKXAX",
"HXHXHXSXzXl.2XoX}.yXrXiX>Xv k.jXDXBXGXHXHXHXHXZXDXLXV.}.8X9X8X8X9X(.;X:XY.z SXGXDXZXSXHXHXHXHXHXnX].c.c.Y.6X.X|.R. XpXV.4XSXLXCX",
"SXHXZXHXHX1Xl.Z.U.}.Y.v v 1XIXZXGXHXHXHXHXHXHXHXHXHX`.I. X(.9X(.XX(.;X8Xx IXFXGXDXDXKXKXHXHXHXHXHXHXNXkXZ.c.K.Y.{.7X<Xx NXNXKXCX",
"SXHXBXIXHXHXjX].b.b.`.lXSXHXZXIXKXHXHXHXHXHXHXHXPXHXjXc.qX;X^.(.R.~. Xv.J.VXHXHXDXZXKXKXZXGXHXHXFXFXHXHXHXnX2XI.v.c.C.1XHXHXKXKX",
"SXHXDXDXGXHXHXNXSXSXGXHXHXCXZXZXKXHXGXGXHXHXHXHXHXIXDXn.qX_.eX(.(.eXU.x.HXHXSXHXHXHXHXHXHXGXGXHXGXHXHXLXAXCXSXHXHXnXbXKXZXGXZXDX",
"HXFXDXDXZXCXHXHXCXLXDXGXHXLXAXAXKXKXGXGXHXHXHXHXSXHXDX1XK.9X9X/.eXY.z LXKXnXHXLXHXHXHXHXHXHXZXZXZXAXAXAXAXLXHXHXGXZXAXAXZXDXDXBX",
"HXGXDXZXKXLXLXLXHXHXHXSXSXHXLXKXZXZXZXZXHXHXHXHXHXHXGXPXc T.8X8XI.k.bXZXKXCXKXHXHXHXHXHXHXHXDXDXAXAXmXMXZXDXDXBXDXZXKXAXKXDXDXBX",
"DXHXGXAXKXKXKXHXPXHXHXHXHXHXHXHXGXZXZXKXHXHXHXHXHXAXHXHXSXc.c v C.PXDXIXKXAXZXZXHXHXHXHXHXHXGXZXMXAXKXZXGXDXDXDXDXHXCXCXKXHXDXDX",
"HXHXSXHXZXZXAXKXGXDXDXHXGXGXGXHXHXHXHXGXZXKXKXHXDXGXSXHXHXAXSXnXSXHXHXHXHXCXGXGXHXKXGXGXHXHXHXHXHXHXHXHXHXHXGXFXAXKXAXAXAXAXLXCX",
"SXSXHXHXZXZXKXHXDXDXGXGXDXDXDXGXHXHXHXGXZXZXKXKXBXDXHXHXPXDXGXDXGXDXHXSXSXHXHXZXKXKXZXZXZXKXLXHXHXHXHXHXHXHXHXHXHXAXAXAXmXCXCXCX"
};
