/* XPM */
static char *result[] = {
/* columns rows colors chars-per-pixel */
"64 64 256 2 ",
"   c #0C0E19",
".  c #060A12",
"X  c #040711",
"o  c #05060B",
"O  c #0D121B",
"+  c #131621",
"@  c #12141B",
"#  c #1A1C24",
"$  c #1A1E2A",
"%  c #1C2125",
"&  c #07080D",
"*  c #0C0D13",
"=  c #16181E",
"-  c #0E1015",
";  c #111214",
":  c #0B0B0D",
">  c #19161C",
",  c #050506",
"<  c #191A1D",
"1  c #09070B",
"2  c #1B2433",
"3  c #1D2934",
"4  c #1B2A3B",
"5  c #0C1C34",
"6  c #062236",
"7  c #04213D",
"8  c #012145",
"9  c #0C254B",
"0  c #01224C",
"q  c #012453",
"w  c #012A55",
"e  c #03294D",
"r  c #012B5C",
"t  c #012D63",
"y  c #013164",
"u  c #03315D",
"i  c #01336C",
"p  c #013A74",
"a  c #013B7C",
"s  c #013C83",
"d  c #014284",
"f  c #01448C",
"g  c #024A8D",
"h  c #014A94",
"j  c #014B9B",
"k  c #04519D",
"l  c #0B4D94",
"z  c #122A4C",
"x  c #1B2D4B",
"c  c #1B2B44",
"v  c #132944",
"b  c #15293C",
"n  c #12233B",
"m  c #0E2034",
"M  c #0C1E3A",
"N  c #051B34",
"B  c #0C213C",
"V  c #0C1A2B",
"C  c #121D32",
"Z  c #111E3A",
"A  c #06192C",
"S  c #132234",
"D  c #0F222D",
"F  c #0C162A",
"G  c #051924",
"H  c #051424",
"J  c #0D1924",
"K  c #0C1523",
"L  c #121B2B",
"P  c #15212C",
"I  c #141923",
"U  c #0D191D",
"Y  c #11110E",
"T  c #110D0D",
"R  c #0A0A06",
"E  c #110E13",
"W  c #0D110E",
"Q  c #181615",
"!  c #060D1A",
"~  c #06111C",
"^  c #191626",
"/  c #061115",
"(  c #01245A",
")  c #021E53",
"_  c #021E4B",
"`  c #021E44",
"'  c #071B48",
"]  c #0B1E42",
"[  c #021D3C",
"{  c #0B1631",
"}  c #22242C",
"|  c #0A1819",
" . c #141409",
".. c #110E1B",
"X. c #060D25",
"o. c #070C2D",
"O. c #070615",
"+. c #05152B",
"@. c #041632",
"#. c #0B2552",
"$. c #0B4B8C",
"%. c #0B427A",
"&. c #0E2845",
"*. c #0A0505",
"=. c #182428",
"-. c #040E22",
";. c #013474",
":. c #02417D",
">. c #134C8B",
",. c #1C232C",
"<. c #120B06",
"1. c #07110A",
"2. c #0A5295",
"3. c #155297",
"4. c #164886",
"5. c #0C3B74",
"6. c #0C2343",
"7. c #1B314B",
"8. c #014593",
"9. c #1A2643",
"0. c #052945",
"q. c #2A313B",
"w. c #0E305D",
"e. c #0C2B53",
"r. c #121629",
"t. c #02153B",
"y. c #051E58",
"u. c #164479",
"i. c #1B253B",
"p. c #222532",
"a. c #16436D",
"s. c #143A6C",
"d. c #17528A",
"f. c #123464",
"g. c #0D3262",
"h. c #0A245B",
"j. c #0C2D5B",
"k. c #133155",
"l. c #0C3156",
"z. c #133B74",
"x. c #244775",
"c. c #234F88",
"v. c #13356A",
"b. c #0B4484",
"n. c #0C294D",
"m. c #12315C",
"M. c #0B519C",
"N. c #162A54",
"B. c #122C53",
"V. c #1B345B",
"C. c #19395B",
"Z. c #1B3254",
"A. c #253247",
"S. c #193764",
"D. c #2C415B",
"F. c #1B3B6C",
"G. c #093A6B",
"H. c #0B3473",
"J. c #022C6C",
"K. c #144C95",
"L. c #0B54A9",
"P. c #233B65",
"I. c #0A4788",
"U. c #0B4D9B",
"Y. c #0B3B7B",
"T. c #012B73",
"R. c #0A51A2",
"E. c #0151AB",
"W. c #0351A4",
"Q. c #11264A",
"!. c #122443",
"~. c #101E44",
"^. c #232D44",
"/. c #08518B",
"(. c #024DA2",
"). c #01439B",
"_. c #014AAC",
"`. c #013483",
"'. c #0A4BA6",
"]. c #163B76",
"[. c #0A314D",
"{. c #0252B5",
"}. c #1854A6",
"|. c #012563",
" X c #01337B",
".X c #233657",
"XX c #013C8B",
"oX c #0A2C6B",
"OX c #0C4597",
"+X c #0B2D62",
"@X c #013592",
"#X c #1A1D32",
"$X c #013B94",
"%X c #232B3B",
"&X c #0B346B",
"*X c #282B3A",
"=X c #242A34",
"-X c #144DA8",
";X c #0F3986",
":X c #01256B",
">X c #0B3B84",
",X c #050905",
"<X c #122D5B",
"1X c #0B357B",
"2X c #292C34",
"3X c #24292D",
"4X c #2C3248",
"5X c #222225",
"6X c #40403E",
"7X c #E2E2E2",
"8X c #BCBFC1",
"9X c #606060",
"0X c #353638",
"qX c #292A2C",
"wX c #A3A4A4",
"eX c #211E25",
"rX c #7D7E82",
"tX c #1E1F1D",
"yX c #092666",
"uX c #012672",
"iX c #211F33",
"pX c #082A77",
"aX c #012C7B",
"sX c #031E62",
"dX c #012D83",
"fX c #01358B",
"gX c #122D64",
"hX c #0A3C95",
"jX c #01369A",
"kX c #013C9B",
"lX c #132C72",
"zX c #023DA3",
"xX c #0437A2",
"cX c #023DAB",
"vX c #0144AC",
"bX c #0243A4",
"nX c #022D89",
"mX c #0145B3",
"MX c #023FB2",
"NX c #0144BC",
"BX c #014BB4",
"VX c #024DBB",
"CX c #014CC3",
"ZX c #0A4CB5",
"AX c #0248C6",
"SX c #0A55B9",
"DX c #0252BC",
"FX c #0154C3",
"GX c #095BC5",
"HX c #1259B8",
"JX c #0155CA",
"KX c #025ACB",
"LX c #0359C4",
"PX c #2159A9",
"IX c #0559CC",
"UX c #213D74",
/* pixels */
"      *   - * : * : : : : : : * M r p g 5.M 5 C V J O - * : : * : W Y ; * * * * * - ] 0 0 _ ] - : : : : * * * * * K M n 6.9 w.9 ",
"O     * - - - : : : : : : : * * K w i d g n.B m V J O - * * : * : Y ; E * * * * * V 0 0 _ _ V : : : : : * * - * * e.b.b.%.b.$.H.",
"O O *   - - - * : : : : : : * * O B i :.8.5.&.B M F K O - * W * E * * * E E * * + ] 0 _ ` ] * : * * : : : * * * : 5 e.j.9 z e.B ",
"+ O   - * * * * * : : : : : *   K V +Xa f :.w.&.B V J O - * : * * : : E * * * * C 0 0 _ _ r.: : : : : : * * * * : : 9X9X% O   O ",
"9 O O * - * * * : : : : : : *   K V 9 a d d 5.k.z n S P I I @ = + O + + + I I I ` 0 ( ( ] * * * * : : : * : * * : : & & - O   9 ",
"|.r.  * - * * * : : : : : : *   K V B 5.f d a p i y t w q 8 ` [ [ [ [ [ [ [ [ ` ` 0 ( ( K * * * : : : * : : * * : & : : @ @ r.:X",
"|.#.- - - * * : : : : : : : *   K 5 B <Xg f d a a ;.i y r q 0 ` 7 [ [ [ ` ` ` ` ` q ( ] * * * * * * : : * : * * : : * - - O h.T.",
"|.( C - * * * : : : : : : : *   K 5 6.e.%.h f f d s a a i r q 0 8 8 8 ` ` 8 8 0 q ( h.K * * * * * * * * * * * * : : : * - 5 aXdX",
"|.( 9 @ * * - : : : : : : * *   K 5 B z g.g h h h 8.8.f a i r q 0 0 0 0 0 0 0 q ( ( n * * * * * * * * * * * * * : : * * O oX`.jX",
":X( q C * * - : : : : : : : *   K V B z e.Y.(.(.(.j (.j f p t q q 0 0 0 0 0 q q ( #.O * * - * * * *   - * . * * : : * * ] `.$XvX",
"|.( 0 ' - * * : : : : : : * *   O V M &.e.j.u.].z.s.s.f.m.N.!.n Z m 5 C Z Z n !.!.L * * * * * * * * -     * * * * - * O T.fXvXBX",
"( ( 0 0 M * : * : : : : : * *   O K 5 B n.e.e.&.!.5 K O   * * : : : * : * : * - - - * * * * *     *   - O - * - - - * oXfXzXVXhX",
"9 ( q q 0 O * : : : : * : : * *   K V M 6.&.&.6.Z V K O * * : * : : : : : : * * * * * * * *     O O   O   @ * - - - V bX$X_.{.Z ",
"r.q q q q n * : : : : : : : * * O K F 5 M B B M 5 F K O * * * : : : : : : : : * * - - * * . * O O             - - * >XvXvXBXY.@ ",
"* M q q q 0 + * : : : : : : * *   U J V 5 M 5 5 V K O   * * * : : : : : * * * - * - - * * * * O O @ O     O   O @ !._.zXzX$XI @ ",
": O 8 0 0 0 B * : : : : * : : * * O K F V V V F K K O   * * * : : : * * * * * * * * * * . * *   @ @ O   O O O - @ OXmX@X`.9 @ @ ",
"* * C 8 ` 8 8 O : : : : : : : : .   O K J L r.K K O O - - * * * : * * * * * - - * : * * * . *   O O O   O @ O - n FXbX XyX@ - - ",
"* E + 7 ` 8 8 O * : : : : : : : . - O K K J J K O O   - - * * * * * * * * * * - * : * * * *     O O O O O O O O 9.FXzXT.Z - - @ ",
": * - L ` 8 8 + : : : : : : : : : *   O O K O U U O   - - * * * - * * * : * * * - * *     O   O O O O O   O   - n FX).J.+ - - ; ",
": * * O [ 8 8 + : : : : : : : : : * * - O O O O @ O   - - * * * * * * * * * * - - * *       O O O O @ O   O     n FX).J.@ - - - ",
": : : @ [ ` 8 + : : : : : : : : : * * * O O @ @ @ O - - - - * - * - - * * * * * - - *   O   O O O O O O O       n FX).J.@ - * - ",
": : : @ [ ` 8 + : : : : : 1 : : : : * - -             - - - - * * * - * - - * - - -   O O   O O O O O O O       n FX).J.O - * * ",
": : : - [ ` ` @ : : : : : : : : * * - - -     -   -     - - * * * * * * * * - * * - -   @ O O @ + O O O O   O   n DXkXJ.@ * : * ",
": : : ; [ [ ` @ : : W : : : : : * * * * *   - . -     O @   * - * * * * * - * * *   O O O O O K @ O @ O     O - !.DXkXJ.@ : * : ",
": : : ; [ [ ` + W : : : : : : : : - * * * - - -   O     O O - * - * * * * - - * - O O O O O O @ @ O O O   O     !.DXkXJ.= : * : ",
": : : - [ [ ` @ * E W * * : : : : : * - * - -       @ O     -   * * * - - - - * - - O O O @ @ @ @ O O O     O - !.DX$Xt @ : * : ",
": : : - [ 7 ` @ W E E * : * : : : * * * - - - O - O     O   O   * * * - - - - - - - -   O O @ @ @ O   O O O   - n BXXX|.@ : : * ",
": : : ; [ 7 8 O : * * * * * : * : * * * - - - O @     O O     O O - - - ; ; - - - -       O @ @ O O O O O O O - n _.`.( @ : : * ",
"Y : : ; [ 7 8 O * : E * * * : : * * * * - @ - O             @ @ O O @ - @ @ - ; - - O O O O O @ O O O O O O O - n ). X( @ * : : ",
"; Y : * [ ` 8 @ : : * * * * : : * * * * * * * * * * * * *   + @   O O @ @ @ @ - - * *     O O O @ O     O   - ; C XXJ.q @ * : : ",
"; W : - [ ` 8 @ : : * * * * * * * * * * *   * * . * *       @ @   O   @ @ @ @ ; - - O O O   O O   O - O   - - ; C  Xt 0 O : : : ",
"E E : ; [ ` 8 @ : * * - - - * * * * - * *   - * *   *         O   @ @ @ @ @ @ - - - - -       O -   O O - - - - C J.( 8 @ : : * ",
": * Y ; [ 8 8 + * * * - - - * * * * * * * *   * * * *       O   O @ @ O @ - - - * - - - - -     * - - - * * * - L |.( 8 @ * : : ",
"W W E @ [ 8 0 + * * * *     -   *       *     * *         O   O O O   O - - - - - - - - - - - - - - O - * - - * L r q ` # = * : ",
"* Y * @ [ 0 q + - - - - *       O         O     *       O O O O O @ @ O - - - - ; - - ; - - - - - O @ - - - - - L ( q ` = @ : : ",
": : W @ ` 0 r I - -   O O O O O O O O     O O     O @ O O O O O @ O @ @ - ; - - - - - - - - - - - @ ; - - - - - L ( 0 ` = & : : ",
"W W * ; 8 w y J - O O O K K K K K O + O   O         O     O @ @ @ @ @ @ @ ; - - ; - - - ; ; - ; - - - - - - - - L q 0 ` @ - - * ",
"E * * @ 8 r i r.- O U + J K J K F J K     O O   O O O   O O O @ @ @ @ O @ - * - - * - * ; - - - @ - - - - - - - r.q 0 `   * * * ",
"E * * @ 0 y a L O @ J J F F V F F F K K O   O O       O O O O @ @ @ @ O - - - - - - * - * ; - ; ; - - * * - - O F q q 8 + * * * ",
"* E * @ q i d L O + F V V { 5 5 V F F K O O   O     O     O O @ @ @ @ - - - - - - - - - - - - - - - - - -   O O L q q 8 +   - * ",
"* * * @ w p h L U J V 5 5 5 M 5 5 { F K K O O O O O   O O O @ O @ @ @ * * - - - - - - - - ; ; - - - - * -   O O C w q 8 L O   * ",
"* E * = w a h C + V 5 M B B B B M 5 { F K K O   O O O   O O @ O O O O - - - - * - - * * * - - - * - - * - O O K m r w 0 L K O   ",
"* E * @ r a j S r.V Z B 6.6.6.6.6.M 5 V F K O O O O O   O O @ O O O @ - - - ; - - - * * - - - * * - * * - O K F n t r q m F K O ",
"* E W @ r a h S L m B &.Q.n.n.9 9 B 5 5 F K O O O O O       O O O O O - * ; ; - ; - E E E - E * - - - - O O J V !.y t r n V K U ",
"E E * @ r a h C V m !.Q.e.e.e.#.n.6.M 5 V K K O O O O   O   O @ @ O - - - - - ; ; E ; * - * - * * - - - O K F 5 Q.i i t !.5 F K ",
"* * - @ r s j n 5 B &.e.j.w.j.e.n.&.n 5 V r.K O O       O @ @ @ @ @ - - - - - E - ; * ; - - * * * * - - O K V M B.i ;.i Q.M { K ",
"- - - @ t s j m 5 B 9 e.w.g.j.j.e.Q.B 5 V J O O O O     @ @ @ O @ @ - - - - - - * - E E ; ; - * * * - - O K V 6.<Xp p ;.e.] 5 K ",
"- - * = t s (.n 5 B n.j.g.g.g.w.e.9 6.5 V K O O O       @ @ @ @ @ @ - - ; - - * * E E ; ; E ; E * * - - O K 5 6.w.a a a j.9 M F ",
"; - - + t s (.n 5 6.n.j.g.f.f.+Xj.n.6.m F K O O O     @ O @ @ @ @ - * - - - - E ; ; ; E ; E ; * * : -   O F 5 6.m.s s s &X9 B V ",
"- - @ ~.J.XX(.!.M 6.e.j.g.v.f.w.j.n.6.5 V K O O O @ * @ - @ @ @ @ - - ; - - E ; ; E ; ; * - E E : * -   O F M 9 g.s s s a <XB { ",
"- - I J. X8.(.n Z 6.e.j.g.f.g.w.B.Q.6.5 F K     @ O @ @ - @ @ - - - * * - * ; E ; ; ; ; ; E - E * : * - U F M 9 w.s XXXXs &X] { ",
"- - +Xs XX).5.V M 6.n.j.w.g.g.j.e.&.B 5 F K O   - O @ - - @ @ - - - * * * * * - E ; ; E ; E * ; * * * * O F 5 6.j.Y.XXXXs  X9 { ",
"- Z bXbXkXOXC V M 6.n.e.j.w.w.e.n.6.M V J U O     - @ - - - @ - - - * * * * * * * E - ; E E E * * * * - O K 5 6.e.f.XXXXs  X+X5 ",
"@ OXVXbXbX+XK V 5 B 9 e.e.j.e.e.&.6.5 V K K Z n Z Z S S C C Z n n !.z B.B.z z z z C E E E Y W : * : * * O K V 6.#.j.Y.XX`. X;.6.",
"j.FXmX@XhXK K V 5 B 6.n.e.e.e.n.6.B 5 F K Z q q q q q ( ( ( ( r t  Xf j (.j (.(.j b.; E E : E : : : : * O K V M 9 #.+X`.`. X XyX",
"'.CXzXfX#.O K F V M 6.&.9 n.n.&.B 5 V K L 0 q q q q q q q ( ( ( t i s 8.8.f f f f 8.Q.E E : * : : : : - O O F 5 B 9 #.g. XT.aXT.",
"AXmX@XoX@ O K F V 5 B 6.6.&.&.B M 5 F K !.q q 0 0 0 0 0 0 q q q ( t i  Xa a a p p s Y.- E W : : : : * * * O K V M 6.9 9 oXT.uXT.",
"mXkX`.5 O U K K F { 5 B B B B M 5 V J J q 0 8 ` ` ` ` ` ` 8 8 ` 0 q ( t t t t r r i :.e.E : : : : : : *     K F 5 M B ] 9 T.uXaX",
"kXfXyXO O O K K r.V m 5 m M m 5 V J K 6.q 0 ` ` ` ` ` ` ` ` 8 ` 8 0 q q w w w w w t p p @ : : : : : : * *   O K V { 5 5 5 h.uXuX",
"nXaXr.-   O K K J V V V 5 5 V V V K V 0 0 0 8 5 L I I I I + I I I I I I # I I I M r p i 6.: : : * : : : * * O O K F V { V Z :XuX",
"aX#.O O O @ + I I L L F V L L V K U B ` 8 8 7 @ * * * : : * : : : : : : * E E * @ w a i w + E W : * : : : * * O K K K K K K #.uX",
"J.K O @ @ + + I + r.r.K J r.L J K L 8 ` 8 8 L * : : : : : : : : : * : : W E * Y : 5 :.a r ] ; : : : : : : * *   O K K K K K V yX",
"] O O @ @ @ @ + + K K K K K K U U 7 ` ` 8 7 @ * : : : : : : : : : : : : : : E * : - 5.d i q K : : : : : : : * * O O O O O O O ~.",
"O       O O @ @ @ @ O O O U U O C ` ` 8 8 J : : * : : : : : : : : : : W : : * Y Y * !.h p w ] : : : : : : : * *     O O   O   O "
};
