/* XPM */
static char *_39a9ed0a09d4135c0281df03e58d6f3FJPxW9Xd2oiRWdGg[] = {
/* columns rows colors chars-per-pixel */
"64 64 256 2 ",
"   c #04040B",
".  c #020203",
"X  c #040915",
"o  c #0C0D13",
"O  c #091317",
"+  c #0E262F",
"@  c #4E8798",
"#  c #4D91AF",
"$  c #06244B",
"%  c #133354",
"&  c #0B2E5A",
"*  c #0C2B53",
"=  c #0A2652",
"-  c #062D5C",
";  c #072E62",
":  c #0C3463",
">  c #0D356A",
",  c #113663",
"<  c #0B2A4C",
"1  c #0A1D3B",
"2  c #061A33",
"3  c #061C3B",
"4  c #05163A",
"5  c #061632",
"6  c #06142B",
"7  c #061225",
"8  c #080F22",
"9  c #060E22",
"0  c #050C1B",
"q  c #040719",
"w  c #0A1B34",
"e  c #0B223D",
"r  c #0D4583",
"t  c #0D4D8B",
"y  c #114C94",
"u  c #0D5493",
"i  c #145898",
"p  c #125AA6",
"a  c #0B68A7",
"s  c #0B6AB6",
"d  c #0F6DC9",
"f  c #1378C7",
"g  c #147BD5",
"h  c #1488D6",
"j  c #138AE5",
"k  c #1399E3",
"l  c #15A7EA",
"z  c #18B8F3",
"x  c #24CBF8",
"c  c #1CD4FD",
"v  c #0ECEEE",
"b  c #28E9F7",
"n  c #67F8F8",
"m  c #18A6CA",
"M  c #0A77B7",
"N  c #1676A9",
"B  c #0976A9",
"V  c #096699",
"C  c #1686B9",
"Z  c #2FACD0",
"A  c #1697C8",
"S  c #0C4374",
"D  c #0A254B",
"F  c #062344",
"G  c #0A2343",
"H  c #030612",
"J  c #091224",
"K  c #070E30",
"L  c #165788",
"P  c #134373",
"I  c #0B538C",
"U  c #254B75",
"Y  c #0A1A2C",
"T  c #06111D",
"R  c #0C3B6C",
"E  c #0C3A64",
"W  c #064876",
"Q  c #183859",
"!  c #162845",
"~  c #090E1C",
"^  c #061C49",
"/  c #050E2A",
"(  c #08354A",
")  c #56E9F7",
"_  c #71EEF2",
"`  c #168BA4",
"'  c #074668",
"]  c #04090E",
"[  c #081A25",
"{  c #042B44",
"}  c #0886B9",
"|  c #8ACCD6",
" . c #0C5284",
".. c #061A2D",
"X. c #063B58",
"o. c #6CB5CB",
"O. c #8CF2F3",
"+. c #275678",
"@. c #0B2A44",
"#. c #0C3C73",
"$. c #89D6E6",
"%. c #0A3A77",
"&. c #173A67",
"*. c #062553",
"=. c #6ED5E9",
"-. c #2B95C8",
";. c #09152B",
":. c #0B2235",
">. c #075889",
",. c #138CB1",
"<. c #37D9F5",
"1. c #55B4DD",
"2. c #0D5A94",
"3. c #0B3254",
"4. c #0A2D6F",
"5. c #074987",
"6. c #0C5BA4",
"7. c #1596D8",
"8. c #1576B8",
"9. c #1467A7",
"0. c #0B325C",
"q. c #164669",
"w. c #061D43",
"e. c #0B3D83",
"r. c #0C4C94",
"t. c #0F58B2",
"y. c #0C7AC5",
"u. c #17A7D7",
"i. c #48F6F8",
"p. c #50D3EC",
"a. c #0A87C6",
"s. c #0896C8",
"d. c #17C6EA",
"f. c #2EEFF2",
"g. c #38F6F7",
"h. c #57F7F8",
"j. c #47D7E9",
"k. c #1487C9",
"l. c #0D5B9C",
"z. c #085898",
"x. c #123E75",
"c. c #0B426C",
"v. c #187699",
"b. c #6FCAD7",
"n. c #2E5A8A",
"m. c #043354",
"M. c #48738F",
"N. c #091632",
"B. c #0C447B",
"V. c #136BB6",
"C. c #0C87D5",
"Z. c #1AC8F6",
"A. c #32C6DB",
"S. c #0B4A7C",
"D. c #123C6B",
"F. c #091E42",
"G. c #07557A",
"H. c #50C9D8",
"J. c #07658A",
"K. c #062738",
"L. c #28B7D8",
"P. c #308EB0",
"I. c #052C53",
"U. c #0A455A",
"Y. c #2776A8",
"T. c #33859A",
"R. c #05233C",
"E. c #053767",
"W. c #0C1D4C",
"Q. c #0B3B5C",
"!. c #48E9F7",
"~. c #0A98D6",
"^. c #2BB9E5",
"/. c #125B94",
"(. c #164877",
"). c #0C4B84",
"_. c #1679D5",
"`. c #28C7E7",
"'. c #12B3E8",
"]. c #38D6EA",
"[. c #175579",
"{. c #A6EDEE",
"}. c #6898AF",
"|. c #05335C",
" X c #6BAAB7",
".X c #31556E",
"XX c #131D34",
"oX c #114C8B",
"OX c #17D5FA",
"+X c #50EBEB",
"@X c #166599",
"#X c #0C7496",
"$X c #33A5BA",
"%X c #142C4C",
"&X c #4FB2CD",
"*X c #0EADD6",
"=X c #38E8F6",
"-X c #12345C",
";X c #043C64",
":X c #86BACA",
">X c #105369",
",X c #052B4C",
"<X c #162537",
"1X c #264768",
"2X c #51A8B8",
"3X c #37C8E6",
"4X c #316579",
"5X c #15444E",
"6X c #133B64",
"7X c #327192",
"8X c #2B4758",
"9X c #2787B8",
"0X c #2759A4",
"qX c #176589",
"wX c #276689",
"eX c #6BEBDB",
"rX c #132D54",
"tX c #131B2B",
"yX c #14647A",
"uX c #265A86",
"iX c #17EBF5",
"pX c #0B121D",
"aX c #4A6A76",
"sX c #6E9394",
"dX c #134A84",
"fX c #668579",
"gX c #2C76AC",
"hX c #13233B",
"jX c #17344B",
"kX c #2AD5EB",
"lX c #8EBAAE",
"zX c #242C38",
"xX c #14455A",
"cX c #276897",
"vX c #142A44",
"bX c #283549",
"nX c #4B98C7",
"mX c #485560",
"MX c #25D6FA",
"NX c #121824",
"BX c #08060C",
"VX c #4979A2",
"CX c #11131B",
"ZX c #17C6DC",
"AX c #243A57",
"SX c #233C63",
"DX c #0C0C0D",
"FX c #111115",
"GX c #201D29",
"HX c #100F13",
"JX c #81876E",
"KX c #17181E",
"LX c #423C49",
"PX c #74C9BA",
"IX c #023EA1",
"UX c #121C6B",
/* pixels */
"0 @.# $XM.jX0 X 7   .         H Q.~ T ;.7 J ;.Y * 5 5 ;.;.6 6 6 6 5 N.N.w 1 :.e :.:.:.:.e hXjXjXQ jXjXe @.1X7XT.# # @ 4X;.0 X H ",
"  T ( $X$XT.@.0 T X .           % ;.0 0 ~ 8 8 8 @.6 6 6 ;.J 7 7 J ..w e 1X4X4X4X4X4X7X7X7X7XT.T.T.P.# # 2XP.T.T.4X@.2 J 0 0 X H ",
"o   0 :.7X$X$X>X8 J H H H H   H :.e 0 ~ 8 J J J e ;.;.6 6 6 6 6 6 5 ..2 2 3 e G @.jXxX1X1XU U +.+.U q.xX3.@.e w 2 6 6 7 9 0 0 0 ",
"FXDX  X 7 @.T.$XP.wXjXJ X H   X ;.w 8 8 J 7 6 ;.:.6 6 5 2 ..2 2 2 2 2 2 3 1 1 1 1 e e e e e e G e e e 1 1 1 w 2 2 5 ;.6 7 7 9 0 ",
"o FXH H H 0 9 ;.hX1X.XjXhXw <XY ;.J J J 6 ;.;.6 2 2 2 2 3 2 3 2 3 1 1 1 1 1 e e 1 G e e e e e e e e e e e 1 1 1 w 2 2 6 ;.7 J 7 ",
"  ] H H X X X q 0 0 0 0 9 9 7 7 J 7 6 6 5 5 5 2 2 2 3 1 1 1 1 1 e F.F.G G G G G G G G G G G G G G G G G G e e e 1 w w 2 2 Y ;.;.",
"  H H X X 0 X 0 0 7 6 5 3 3 w.$ $ *.= = $ $ $ $ $ $ $ $ D D D D D D D D = = = = D < = < < D D D $ $ D F F F G G G e 1 1 2 2 ....",
"H H X 0 0 0 0 7 5 w.< D.(.(.[.[.[.[.dX(.(.(.P D.D.R > E.> : : > : : > : > R > > > R > R R R > : & < D < < < < D F G G e 1 w 2 2 ",
"X X 0 0 0 9 5 3 3.q.(.+.4X7X7X7X7X7X7XgX7X7XT.T.gXY.gXgXgX7XgXgXgXY.Y.Y.Y.cXcXcXcXcXcXcXcXcXcXcXL #.E * < < < < < D F G e 1 w w ",
"0 0 9 8 6 3 D q.q.+.4XwXwX4X.XSX< F G F.F.F $ D D * 3.3.-X-X-X6Xq.q.P U +.+.[.[.uXuXuXuXuXwXwXcXY.Y.cXL E * * * * < D F G e e 1 ",
"0 9 7 6 F.-XU q.7X+.uXuXU % 3 5 6 6 6 6 6 6 6 ..5 2 2 w w w 3 3 3 1 1 1 F.F.G F.e F.F.F.e F.G D 3.uXcXcXcX(.0.* * * < D F G e e ",
"8 7 6 w.6Xq.[.wXq.4XuX7XjX6 0 H                                             H 0 J 7 7 9 9 7 hXAXjXe < +.7XcXuX: * * < < D F G G ",
"7 ..3 q.q.uX+.1XuXT.wX..0 H   X J tXtXY Y Y w XXXXtXXXw Y Y Y Y J ~ X H H 0 T 0 X X X H     H 0 AX.XjXG Q.wXcXcX> * * < < D D F ",
"6 w Q q.uXU q.wX7X+.;.0 X J ;.Y ;.8 ~ ~ ~ ~ 8 8 8 J J ;.J ;.;.Y w XXw Y ;.;.Y w Y Y ;.;.;.;.;.0 X J .X8X@.(.wXcXcXR % * < < D D ",
"5 < (.+.+.-XwXwX4Xw 8 ~ XXY J ~ X X 0 0 X X 0 0 0 0 0 0 0 0 0 0 o X ~ J ~ 0 0 9 T 8 9 J J J J Y Y 0 T 1X1X* @X7XcXcXE Q * < < < ",
"3 U q.4X* cXuX7Xe J 0 hXY 8 X 0 vX8X8X8XAXQ 8X8X1X1X1X1X1XSXSXAXAXjX..6 6 6 6 6 6 ;.;.;.J 0 0 J ;.XXpX8 8X8XQ Y.7XcXcX& * * < * ",
"q.q.wX< wXwX7X% 7 ~ tXhXpX~ AX.X8XhXw XXJ ;.;.Y tXXXXXXXXXXXXXXXtX;.6 6 6 6 6 6 ;.;.;.N.XXw Y 0 ~ w :.pXJ .XAXq.cXY.7X(.< * * * ",
"[.+.q.3.7X7X1X;.T ~ 1 pXJ U .Xw Y J J 8 ~ 0 ~ ~ 8 8 8 J J J J J ;.;.;.6 7 7 7 6 ;.;.;.J J ;.;.;.8 0 hXhX~ Y .XhX6X(.cXcX: * * * ",
"6X4XD qX7X+.jX8 X w ;.J q.1XY ;.J 8 0 0 9 9 9 9 9 7 7 7 7 7 7 9 ;.XXw w :.<XXXXX:.XXXXhXXXJ 8 J Y J ~ vXe 0 hX.X;.D wXcX(.* * * ",
"+.Q D Y.1X1X7 ~ J e ;.Q wXe Y ~ ;.jXSX1XU U +.+.n.uXuXuXn.uX+.+.q.1 2 N.;.;.;.6 6 ;.;.8 NXhXw T Y :.Y [ %Xw pXAXjXN.3.@XcX: * * ",
"+.F c.uXQ vX0 X @.:.%XcX6Xw 8 Q q.&.% %XrX% %XQ q.&.&.&.q.q.&.&.Q vX1 w N.N.2 G vXG e 1 Y ~ hXe 8 e :.[ hXvXJ J 1X;.1 qXcXS * * ",
"U F L @.SX8 X e < @.wX+.G J q.[.Q %X* < D D G e %X% Q Q &.&.q.U 1X1 2 2 5 5 2 e 1 e hX1 Y Y J vX@.J e :.T jXhXT e %Xw E cXL -X* ",
"% F L vXjX0 ~ % @.wXuX%X7 6XuX&.-XG ..7 6 6 2 G * 3.-X, 6XE E , & < < D D G F.1 w ;.J ;.w w hX;.jXe Y :.Y [ AXY J < 2 G @XcXD.* ",
"F D L SX;.0 @.0.uXwX% ;.%XuXU -Xe 7 7 2 G * [.wX7XwXcXcXwXwXwX7XwXuXuXqXqXL uX[.(.-X2 ;.J w w hXJ Q Y w :.J hXjXJ < < 1 L cX(.* ",
"G D qXxXT ~ q.[.cXxX;.G uX[.6XG J ;.1 < P 7XuXQ e w 1 e G G @.%X< < < %X% % Q %X% (.uX3.;.J w :.hXY Q ;.w Y J Q hX* &.1 (.cXL & ",
"1 D cXjX0 :.(.cX[.Y w uXuXq.< ;.6 F.* S.Y.q.2 5 5 5 2 1 1 1 1 1 1 1 1 1 1 1 1 w e jX% uXq.;.J :.hX:.hX%XXXY J J Q -XP 1 R cX@XE ",
"1 < cX;.T Q [.L < Y [.uXq.-Xw 2 F.& W P.q.vX1 1 1 e F ,X3.Q Q %X1 1 1 1 1 1 1 1 1 w jXAXuXq...;.hXhXY %X:.J X X %XQ (.1 : cX9.R ",
"1 * @X7 T xXqXL Y % [.&.: G 2 G 3.W P.(.% e 1 G 6XuXuXuX+.1XxX%Xe e e e G G e 1 1 1 e AXSXn.Q.;.Y hXXXJ % 8 0 0 e 6X(.F.: cXY.c.",
"1 * qXJ J (.@X(.Y [.q.E D 2 F.* c.9XqX% G D 6XwX+.Q < % % -XQ q.q.q.q.xXxX% G e 1 w e e %XQ wX< 7 Y w w ;.XX0 ~ &.D.U F.: cXY.D.",
"1 I.L J w [.@XQ % (.D.& 2 1 < R v.v.-X< D +.wX% %XvXvXvXvXvX%X1X1X1X1X.X.X+.4X+.3.e 1 e 1 vX6XqXY J tXJ tXtXXXw L D.(.G : cX9.R ",
"1 I.L J vX[.cXjX(.6XE D 1 D :  .P.Q.% < 4X1X% vX@.e e @.e e e vX! ! vXvXvXvXe < U 1Xe w :.e %X[.Q.J NXY J XXJ 3.qXR (.G : @X9.R ",
"1 *  .J %X+.cX%X(.6X: G G * S 9XqXQ < +.+.% vXvXw w :.1 1 w 1 w w w e e 1 e vXhXjX+.q.e w 1 @.% L ;.8 Y Y Y 1 D.L > (.D 0.@X9.R ",
"1 *  .J %XuX@X%X[.6X0.G D : 2.P.-X% [.wXQ.%X:.e @.%X% < e e e e 1 1 1 1 1 1 1 hXvXjX+.% e 1 G < uX@.J Y :.:.< (.L > (.D & 9.9.R ",
"1 *  .J % [.@X% (., 0.D * #.9XqX-X3.7Xq.Q.vX:.%Xq.U 6X%Xe e e 1 e e e e e e e e e G jX4X< e e G U 6X;.J ~ ~ < dXL , (.D & @X@XR ",
"1 *  .J % L cX-X(., 0.D & B.P.E -XwXwXE % w @.[.q.e 1 1 1 3 3 1 1 1 1 1 3 3 1 G G G vXQ +.G e @.[.q.6 0 8 G * dXL : (.D & @X@XE ",
"1 * S.J % L @X-XP E 0.< 0. .9X6XQ.Y.U 6XvX1 Q U @.jX+.+.< D < D D D D D G G F.G < G %X%X1XQ e @.wX(.N.8 ;.& 3.dXL : P D & @X@X: ",
"1 * S.J % L @X0.P , 0.* : 2.Y.6X[.Y.q.Q.w e U < % +.3.0.> > > > > > : : : * G G < < G * 3.U 1 vXqX[.w J ;.* * dXL -XD.D * @XqX: ",
"w * S.J % uX@X3.P , 0.* : @XY.&.qXwX6X% 2 G +.< +.* > #.#.#.#.#.#.#.R > > : < D * * D %X* (.e vXqX(.2 7 ;.1 * L [.& , D * L P & ",
"w * S.J % uX@X3.P , : * : 9.cX6XqXwX6X% Y @.+.< [.* #.#.#.#.#.#.#.#.R R > > & D * * D < 3.(.G < [.[.2 J ;.1 * L [.3.-XD * (.* < ",
"w D S J % +.@X0.P , : * : N qX&.qXwX6X% ..@.+.* uX& #.#.#.#.#.#.#.#.R R > > 0.D * 3.D D % q.G < qX[.w ;.7 1 * L [.3.3.G * P < D ",
"w G S J % [.@X-Xq., 0.* : Y.yX&.qXwXQ.% 6 G +.3.[.& #.#.#.#.#.#.#.R R > > > & D * & D D * q.G < qX(.1 6 ;.w * L (.3.rXG * c.< D ",
"2 G (.J jX[.qX-Xq.6X0.* : Y.yX6XL wXQ.3...G +.3.L 0.#.#.#.#.#.#.R R R > > > & D * & D < < q.G < qXq.1 5 6 5 * L (.0.rXF.0.q.D G ",
"2 1 (.J vX(.qXq.q.6X& * 0.v.wX6XL wXQ 3.2 G +.Q.[.0.#.#.#.#.R R R R > R > > & D * & D < < (.@.6XcX6XG 1 w w 0.L P -XrX1 c.-X< G ",
"2 1 [.J 1 q.qX(.q.6X= * & @XwXQ [.+.% 6Xw e wX6XuX0.#.#.#.R R R R R > > > > & D * & D * < wXU uXcX6X4X4X+.Q E L q.6XrXG (.* < e ",
"w w [.:.N.q.L L q.6XG < * qX7Xq.q.3.@.3.1 e wXc.uX0.R R R R R R R > > > > : < D & & D * Q.cX7XwXwX(.3.% q.uX7XL 6X6XrX< [.< < 1 ",
"< w c.q.;.q.L L (., < @.< S.Y.-Xq.% < @.< e 6XuXq.6X0.E E E E E : : : : & D D * - * < < wX7X7Xv.uXcXY.7X[.6XqXuX6X6X< D.q.< G 3 ",
"q.1 -X(.w % (.wXwXq.* 1 %XE P.: 1X1XSX3.< %X@.q.L [.c.0.* * < = < D D G D * * & * < 3.uX7X7XY.+.< q.wX[.7XVXcX[.% 6X< [.* < 1 2 ",
"% % 3.6Xq.w P (.wX+.&.%X1 < [.(.q.U U [.q.q.q.q.uXcX7XcXcXcXcXcXcXE 0.& 3.* < < < Q &.q.[.uX6X+.q.3.q.wX7X7XcX&.q.-X+.q.< G 1 5 ",
"w Q % -Xq.-X%X[.(.wXuX(.-X< Q 3.* % -X-X-X-X-X6XP R c.D.P P P D.6X$ F.F.F.1 3 1 3 2 2 2 1 e e vX+.wX6XuX7XcX(.q.q.[.+.3.G 1 5 6 ",
"6 1 Q q.% q.6XQ [.P [.qXqXL L L L L L L [.[.[.S.[.dXS.S.S.S.B.B.S 0.0.& & & & 3.& & & : E E E q.(.uXwXcXcXU U [.uX+.< e e ;.;.7 ",
"J N.< 6XP 6Xq.q.6X(.[.[.L uXL L L L L [.[.L [.(.[.[.[.L cX@X/.qXL R R E E E , Q.Q.: R uXcXcXcXwXqXqXL L [.wXwXcXq.G w w ;.7 J 9 ",
"<XvXG w e 3.6X(.[.q.(.6X6Xq.q.6X-X% < G G e e @.& * , (.Y.Y.Y.Y.qX< e e 1 w 2 2 2 2 w Q Q Q D G 3.Q.L cXY.cXwX6XG w Y ;.J 8 0 X ",
"J ;.J J ~ 8 ;.:.% Q (.% Q 6X%XvXe vXG e e e G -X6XQ &.P cXqXL L [.G 2 5 w N.6 6 6 6 6 vX@.vX1 e < % SXq.(.L W < e w N.7 T 0 X X ",
"w @.+.jXN.w 1 F.D * 3.E q.[.@.e 1 w w e 1 w 1 1 e Q 1X< < D D D F F.1 1 1 5 N.w 5 6 6 6 5 jX5 2 % %X@.Q < wX&X$XS.* e w 1 3 2 5 ",
"T.T.+.< F F D * 0.R S T.P.[.6XD Q % 1 1 9 6 AX1 % % D D D D D G G G G F.1 1 2 N.5 5 ;.6 N.jX6 2 Q % ;.;.1 * c.P.Z $X .3.e 1 e e ",
"(.3.< < < < & R S qX$XY.: & [.cXuX6Xe w 0 7 @.6 % 2 e e G G F.F.1 1 1 1 1 1 2 ....6 6 ;.N.%X6 5 Q.< J 8 7 ..3.-XS 9XA.-.L 0.G 1 ",
"* * * * & c.S S.$X$X .0.0.[.2XwX6XQ e 2 0 7 @.;.%XY 1 1 1 1 1 1 1 1 1 1 1 1 2 ;.6 6 6 ;.w %X;.5 Q %X9 0 0 J G 3.< * [.P.A.-.qX0.",
"& * & E S S Y.Z Y.E 0.E qX$XcX% -X-X1 N.0 7 vXY %X;.w 1 1 3 3 3 3 3 3 3 2 2 ;.7 ;.;.;.7 w @.;...Q < 9 0 q ~ w < @.G D E P P.A.Z ",
"& : S S  .$X$XS.0.0.c.P.$XdX+.< Q Q 1 2 ~ 8 vX8 vXJ 5 2 2 2 2 2 2 2 2 2 2 5 ;.7 ;.;.7 J w vX;.6 % < 9 q q 0 N.< @.1 w < < * >X$X",
"S B.S ` Z v.E , , S.2X# : E [.vXjXSX:.2 0 ~ vXJ vX<XJ 6 6 ..5 5 6 6 6 6 6 7 7 7 8 7 8 J w e ;.;.%X@.0 q q q 6 vX@.w w 5 < 1 F.< ",
"S @XZ P.S 0.: D.qX&X7X* G * [.e e 1Xw w J ~ hXJ J %Xw J J J 7 8 8 J 8 7 7 7 7 J J J 8 J w @.J ..% vX0 X X X 6 @.G Y Y 7 vX2 2 5 ",
"-.Z qX0.* : S ` &XuX= 3 3 G [.1 w Q jXe ;.~ Y hX~ 7 :.hX8 0 9 0 0 8 9 9 9 T T 8 ;.8 0 Y ;.hX8 N.Q w q X X q 6 D G ;.Y 8 hXw ..7 ",
"P.c.& = & S.$X$X(.* G 5 5 1 (.F e hXAX:.<X8 T XXY 8 ~ 9 0 ~ 0 0 9 0 0 9 T 9 9 J 8 0 0 Y <XY J w Q 7 X X X q 7 @.G ;.Y 8 w hX6 7 ",
"0.* & & L Z $Xc.3.G w ;.6 w Q AX1 ..jXhXXXtX8 J ;.;.J 8 0 0 0 ~ 0 9 9 8 8 8 9 ~ ~ 8 J 7 Y 8 Y 1 Q 9 X X X X 7 G G ;.N.9 6 hX5 7 "
};
