/* XPM */
static char *_79fc4e78192497c80d949d4a0e58019mLGon7ugpSAjSMPn[] = {
/* columns rows colors chars-per-pixel */
"64 64 17 1 ",
"  c None",
". c #202020",
"X c #2C2C2C",
"o c gray22",
"O c #484848",
"+ c gray33",
"@ c #646464",
"# c gray44",
"$ c #7C7C7C",
"% c gray55",
"& c #989898",
"* c gray66",
"= c #B4B4B4",
"- c #C0C0C0",
"; c #D0D0D0",
": c gainsboro",
"> c #ECECEC",
/* pixels */
"                                                                ",
"                                                                ",
" XXXXXXXXXXXXXXXXXXXXXXXXXXXXXXXXXXXXXXXXXXXXXXXXXXXXXXXXXXXXXXX",
" ++++++++++O::::::::::::::::.o%*-;;;;;;--*%+.OOOOOOOOOO+++++++++",
" ++++++++++O:;;;-;;;;;;-;;;%.o%-=%*%%%%%%*+o.o#%%%%%%$#@OOOOOOOO",
" %%%%%%%%.+O:;-=;=;-=;--=;%@.o*:*%*%*%*%*%+o.o%::::::-=*%%%%%%%%",
" ;:;;=*%%.+O:;****%****&**$+.o%-%%%****%%#+o.o%::---;:::::;;;;;;",
" ******$#.+O>-&******&*%**#+.oO*%**%%*%*#++o.o%:=*%*%***%%*%*%*%",
" =&*&*%$#.OO>;*%*&*%&&&%&*%+.oO$%%*%**%*#ooo.o%:=%*%&%%%*%%&&*&%",
" ==$=%&@+.oO>;%&%***%$%&*%@+.oOO%***%%%*#oooXo%:=*%&$*&$%*%**%$*",
" &**&&#OO.XO--*&*%*%&%&%%*#+..O+O$ooooooooo.Xo$::%*%$&$&%*%&$**$",
" %%%%#+OO.XO*>***%%&%%%%*%+$X.oOooooooooo...OOO-;%%%&&&&%%*%**%*",
" ####+Ooo.XO%:%*%&$%%*%*%*#+X.oOoXX.....XXXXO+O-=%*%*%%%##@@@@@@",
" ++OOO....XO#:*%&$$$*&%%$%#@o.oOOOO#$%****&#o+O=%##@@@++++OOOOOO",
" .....XXXXo+O:;%%%&&%%*$%*%+o.oO#**::>:;;&#+.+O%#@@+OOOoooooXXXX",
" XXXXXXXXXo+O*;%*%$%*%%&%%#+o.Xo*-:;=%*%*%#o.oooooooooooXX......",
" oooooooooo+O%;*%*&%$%$%*%++o.XO*:-*%%%%%%+o.oXXXXXXXXXXoooooooo",
" +Ooooooooo+O#-%*&%*&*%*%*+#O.XO*>*%%*%*%*+o.oO++++.OOOOOOOOOOOO",
" &&&&&&&&&X.+O--&%%&&$%%%%#++..O*>%%**%*%%+o.o#*::+O+$&&&&&&&&&&",
" ;;;;;;==#o.+O%-%*%$%%%*%#%#O..O*;**%%*%*%+o.o*:-*.O$-::::::::::",
" *&%*%**##o.+O#&*%**%*#%#+#+O..O*;*%####+++o.o:-*%.O&:;=========",
" *%*%*%%##o.O+O&&####++#+#+OX..X*%#%#ooooooo.@:=%%.O&:=*&*&*%&%&",
" *&%*%**#+o.O+O@++++OOOoX......X%#ooo........@:**%.O&:*%&%&%&$$%",
" *%*%*%%#+o.O+OXXXX............Xo+o....XXXXXX%:**%.O%-%*&*&*%&%&",
" %*$$%%*#+o.o++Oo........OOOOOOO%%&**&%%$+Xo@-:*%$.O%-*%&%&%&$$%",
" %%$$%*%@Oo.o%::::-=*%@oO@$**--;:::::::;&@.o$:-**#.O$-*&%*%*%$$%",
" %%**%%%@Oo.o:-*&&&*&&o+O$;>>:-=--------#+.o%:=&%#.O#-%*&%&%%*%*",
" &*%%*%#+oo.o:*%&**&&*.+O&>-%*%*&%*&*&%%@O.o%>*%*+.OO%#@+++@@#$%",
" @@@@@+Oooo.o:***%*%*@.OO&>***%$**%%%*%*+O.o%>**&+.+.ooOOOOOOO++",
" +OOooo....Xo:%*%*=%$@.OO&>%*%&*%%$%*&%%+O.o%>%*%+.+o.........oo",
" ......XXXOOO:*&%*%*$@.oO&>&%*%%$%$%%%*%+O.o%>**%+.+oooooooXXX..",
" O@@#%&%%%%O.:*$&%*%$@o.O&>*%%%$%$%*$%%*+O.o%>&**+.+OOO+++++++oo",
" @%=:::;;;*#.:**%$%*%@o.O%:-&%*%*$$%$%*%+o.o%:%%*+.O*::=%@+OOOOO",
" @=;;-=**&*O.>&&*$%*&#O.O$;-*%%$%$$*%*%$+oXo%:*&%+.O:%%=::::::&o",
" @:=**%*&*%#.>&*&**%*#O.o+->**&%*%*$$%*#+oXo%:%*%+.O:%%**%%*%%$o",
" @:=&%*%*%*#.>&%&*%*%@+.X+*>***%%$%$$*%#OXXO%;**%+.O:**%%**%*%@o",
" @:*&*%**$*+.:***&%&*@+.X+%>-*%*%%&%*%*@O.XO%;*%*+.O;*%**%%*%*@o",
" @:=*%%*&*%+.:-$&$**&@+..O#;-*%$&%%&%&%@o.XO%;%*++.O-***%*%%**+o",
" @:=%**%*%*+.-:%&*%&%@+..O+=:*%*%*%*%%@+o.oO$*$+oooO**%**%*%%*+o",
" @:=**%*&*%+.=:$*%%%*#+..o+%-*%$@@+OOoooo.oO+ooooOO.#+O++++++++o",
" @:=%**%*$*+.&:&$**%%#+..o+O%%@+Oo........oO+OO+++++............",
" @:=%%&*%*%+.$:*&*%%*@+..XOOoXXX..XXXXXXXXoO++OOOOOOOOOooooooooo",
" @:=**%&*&*+.+>%*%%*%@+..XOOOoooooOOOOOOOOOO++$$$$$$$$$$$$$$$$$o",
" @:=%%*%*%#+.O>*%%$%*#+X.Xo@$$$$$$$$$$$$$%%&&*==------=-------$o",
" @;=**&*%*+.XO>*%*%%%@+X..o$---------------;::>>>>>>>>>>>::;;&@X",
" @;=&*%**%+.XO>%*$&%*@+o...$-;>>>>>>:>>:>>>>>>::;-=---*--=--=$+X",
" @-=*%*%%%+.oO:**%*%%@+o...$-;=-----*--*---==*&&%%*%*%%%*%*%*#+X",
" O-%%*%###+.oO;%%*%*%#+o...@-:=%%%%%%*%**&%&***&$&%**&%*%***%#+X",
" O=***%+++.XoO=*%%*%%#+o...O-:-%&%*%*%&*%%&**%&%&%%$%&&%*%*%*#+X",
" O$$$+++++.XoO&&*%%%#@+o...X=:;**%%%%$%%*%&%*&$%%*%%*%$$%$&%&#+.",
" Oo...++++.oOO$@@@@@@++o...X*:;%%*%*%%*%$$&&%*%*&%*%%$%%%*%$$#+.",
" +++Oo..X.XoOooooooooooo...X%;==%%*%*$%%&$&%&$*%%$%%%%*%$%&$$#+.",
" OOOOOOOXXXoOoo............X%&#######*%**%%$%%%$%%*%*%%*%%%%&#+.",
" O$****&%@OO+ooXXXXXXXXXXXXo+OooXXXXX+##$%$$$$$$$$$$$$$$$$$$$@+.",
" O*-:::::-**%#@+OooooooooooO+OOooooooXO+++++++++++++++++++++++.X",
" O*:**%-;:::-********%%%$$#@@++OOOOOooXXXXXXXXXXXXX...........Xo",
" O*:***==%*-::::::::::::;;--*****%O+OoooooooooXXXXXXXXXXXXXXXooO",
" O*:*%*$$*&%$*%*%*%**%*%**=-:::;-$oO+OOOoooooooooooooooooooooOOO",
" O*;***&*%&%&*%%*$$%*$%%%*%*%***$@.o+O*::*$OOO+++OOOOOOOOOOOO+++",
" O*-*%*$$&*%**&%$*$%$&%*%*%*%***@+.oOO:**::::=++O=:::::::;-=&$OO",
" O*%@@@@@@@@@@@@@@@@@@@@@@@@@@@@++o.oO:=======@+$:***%*%*&*%*:&.",
" O%@ooooooooooooooooooooooooooooooo.XO=*==&@&%@O=*%*%***%*%*%*+.",
" Oo.................................XOoOo+@@@@@O:*&&**&&*&**%%+.",
" +OoooXXXXXXXXXXXXXXXXXXXXXXXXXXXXXXXo++oo.....o+++++++++++++++."
};
