/* XPM */
static char *_9738b94f2874831d024f7f0dadc276fbBNBzS9Syw89pgJQ[] = {
/* columns rows colors chars-per-pixel */
"64 64 256 2 ",
"   c #000001",
".  c #0A0204",
"X  c #02020B",
"o  c #030A04",
"O  c #030513",
"+  c #050A0B",
"@  c #0A030C",
"#  c #130C1C",
"$  c #03051A",
"%  c #020422",
"&  c #010C2B",
"*  c #051A33",
"=  c #030D22",
"-  c #040915",
";  c #0A0412",
":  c #14041A",
">  c #130314",
",  c #11030D",
"<  c #031532",
"1  c #00244A",
"2  c #184C74",
"3  c #326D96",
"4  c #2E4B74",
"5  c #192B56",
"6  c #04192D",
"7  c #182547",
"8  c #29345A",
"9  c #181B46",
"0  c #1C031B",
"q  c #35062A",
"w  c #370636",
"e  c #6A2A64",
"r  c #683767",
"t  c #560F55",
"y  c #491845",
"u  c #46163B",
"i  c #3A132F",
"p  c #23011D",
"a  c #040B1C",
"s  c #051224",
"d  c #05385B",
"f  c #4F8AB3",
"g  c #6AACD6",
"h  c #5676A8",
"j  c #92A7D6",
"k  c #374977",
"l  c #173459",
"z  c #4C5687",
"x  c #2C3067",
"c  c #2C022A",
"v  c #AE669A",
"b  c #CE8DCC",
"n  c #DB97D7",
"m  c #AF73AE",
"M  c #995995",
"N  c #89467D",
"B  c #8D4677",
"V  c #714776",
"C  c #02425E",
"Z  c #4BA2BD",
"A  c #04456A",
"S  c #051A46",
"D  c #14336C",
"F  c #95B8E6",
"G  c #092646",
"H  c #8B89B6",
"J  c #4B4C77",
"K  c #1B0215",
"L  c #2B0224",
"P  c #77366A",
"I  c #681A57",
"U  c #863978",
"Y  c #AA5797",
"T  c #E797DA",
"R  c #570646",
"E  c #8E508B",
"W  c #58234C",
"Q  c #2E8BB2",
"!  c #032343",
"~  c #030C33",
"^  c #516B96",
"/  c #363B66",
"(  c #0B0A1B",
")  c #561B47",
"_  c #240223",
"`  c #B666A9",
"'  c #470538",
"]  c #632855",
"[  c #043A65",
"{  c #023355",
"}  c #05152B",
"|  c #0C0B12",
" . c #02153B",
".. c #7175A9",
"X. c #2B3A66",
"o. c #252649",
"O. c #490546",
"+. c #4C0634",
"@. c #681152",
"#. c #02335B",
"$. c #277AA8",
"%. c #4F99C5",
"&. c #7988B5",
"*. c #9297C9",
"=. c #371737",
"-. c #032A4C",
";. c #1679A8",
":. c #45A9D5",
">. c #031C3B",
",. c #5A2858",
"<. c #672557",
"1. c #31011F",
"2. c #126E96",
"3. c #034A74",
"4. c #A5B6E8",
"5. c #6E8AB5",
"6. c #262C53",
"7. c #706895",
"8. c #1A0B35",
"9. c #0A0C22",
"0. c #0A051A",
"q. c #180527",
"w. c #C976C2",
"e. c #783974",
"r. c #AB4E92",
"t. c #882E71",
"y. c #011C43",
"u. c #06668A",
"i. c #04557A",
"p. c #9075A9",
"a. c #090527",
"s. c #964987",
"d. c #762964",
"f. c #18020B",
"g. c #135686",
"h. c #47B4DA",
"j. c #B3B5E9",
"k. c #141D3A",
"l. c #6F5386",
"z. c #370C45",
"x. c #D6A5DB",
"c. c #F89AE7",
"v. c #24051B",
"b. c #35355B",
"n. c #59315D",
"m. c #291A45",
"M. c #0A0A05",
"N. c #0B0B0C",
"B. c #270B28",
"V. c #E78BD7",
"C. c #933985",
"Z. c #731A66",
"A. c #3498C4",
"S. c #E29EE3",
"D. c #571756",
"F. c #B256A4",
"G. c #A63C8D",
"H. c #CC6EB4",
"J. c #37ABD1",
"K. c #381B42",
"L. c #8D6899",
"P. c #D4B4E8",
"I. c #F199E9",
"U. c #131631",
"Y. c #290735",
"T. c #240D24",
"R. c #811A69",
"E. c #4DAAD3",
"W. c #120B13",
"Q. c #B1CAF7",
"!. c #0C174E",
"~. c #4F3867",
"^. c #F1B1EF",
"/. c #1C0D22",
"(. c #DA78C7",
"). c #14152B",
"_. c #72275D",
"`. c #B8D5FE",
"'. c #22132C",
"]. c #C858AF",
"[. c #022C53",
"{. c #231632",
"}. c #CFCDFB",
"|. c #FCAAF3",
" X c #042657",
".X c #241933",
"XX c #231026",
"oX c #FCB7FA",
"OX c #1989AE",
"+X c #39436B",
"@X c #075B83",
"#X c #335785",
"$X c #2A1839",
"%X c #C87AB7",
"&X c #E9CEFC",
"*X c #04213D",
"=X c #90CEFA",
"-X c #7497C7",
";X c #140E21",
":X c #CC84BB",
">X c #00334C",
",X c #70B8E3",
"<X c #1C0A15",
"1X c #722D74",
"2X c #1D1532",
"3X c #1A1A39",
"4X c #1B1125",
"5X c #141124",
"6X c #12110D",
"7X c #49BBE6",
"8X c #EBA7E9",
"9X c #05100C",
"0X c #061925",
"qX c #53BAEB",
"wX c #0B1636",
"eX c #0B182E",
"rX c #32122D",
"tX c #2D9DC5",
"yX c #69CAEF",
"uX c #4DC7EE",
"iX c #AAABD8",
"pX c #0C110E",
"aX c #0A1124",
"sX c #2B0E2A",
"dX c #24AED5",
"fX c #121113",
"gX c #1B0B1E",
"hX c #F8C5FC",
"jX c #AE95CA",
"kX c #31CCEE",
"lX c #06121A",
"zX c #110B0D",
"xX c #9E58A0",
"cX c #AE86B9",
"vX c #15121A",
"bX c #BF79C1",
"nX c #072139",
"mX c #0A1A33",
"MX c #4A2755",
"NX c #11839B",
"BX c #0C1113",
"VX c #352C56",
"CX c #0A1106",
"ZX c #ABE2FF",
"AX c #1B142C",
"SX c #0A152B",
"DX c #131A34",
"FX c #3B2046",
"GX c #2A1A36",
"HX c #2B112B",
"JX c #462449",
"KX c #E27CC6",
"LX c #1B213E",
"PX c #442139",
"IX c #13192F",
"UX c white",
/* pixels */
"                                                                                                                                ",
"                                                                                                                                ",
"                                                                                                                                ",
"                                                                                                                                ",
"                                                                                                                                ",
"                                                                                                                                ",
"                                                                                                                                ",
"                                                                                                                                ",
"                                                                                                                                ",
"                                                                                                                                ",
"                                                                                                                                ",
"                                                                                                                                ",
"                                                                                                                                ",
"                                                                                                                                ",
"                                                                                                                                ",
"                                                                                                                                ",
"                                                X X                                                                             ",
"                                              X 4 3 ^ 8 8 X .                   . T.V M N W 0                                   ",
"                                            X 2 #X& X.^ J VX                  . T.M r w E N P K                                 ",
"                                            { 3 s . X J ^ z o.                gXM n.X   K M P e .                               ",
"                                          nX$.nXX   X O ^ z l.9.            > E r @     . B.Y P <.@                             ",
"                                        } 2.{ X . X X . SX&.^ ~.          ; E V @ o o . o X =.v U y                             ",
"                                      - 3 2 + X . X X . $ ..z J         @ l.l., X . X X . . @ Y U P .                           ",
"                                    X g.g.X X   o o . X 8 &.7.o.      O V L.> . o X . o . X , v r.r                             ",
"                                  X 2 3 a X o . X + X LX&.J +XX     . ~.L.: . o @ X . . @ @ r ` C.sX                            ",
"                                  d 3 } X . X o X X SX5.J J X       ~.L.gX@ + . @ M.X . @ n.m t.i                               ",
"                                nX$.*XX + o @ X o = ..z J O X     VXp..X@ X + @ . @ @ @ n.m P i .                               ",
"                              } 3 l X X X @ . + - ^ ^ J 9.      K.H FX. o + @ @ . . @ n.m e.u     X                             ",
"                        .   O 3 2 + X @ @ @ + - 3 ^ #XeX      AXp.b.; M.+ @ + + + @ W m e.u                                     ",
"                        X X g.g.O . . X @ @ + 2 $.#XLX      5Xp.~.N.o @ @ @ M.o @ JXbXU JX                                      ",
"                        X 2 3 a M.@ . + o @ 2 Q #Xo.      $ ..J ; N.+ @ N.+ + @ PXm N JX                                        ",
"                        * $.6 + o . M.@ + d Q #Xl X     $ 7.z ; N.@ N.M.+ + N.K.m N JX.                                         ",
"                        C g.+ M.@ + o @ G Q g.2 X     X ^ ^ ; N.N.N.N.N.+ @ GXcXN MX.                                           ",
"                        d 3 + X + + @ + g.dXQ *X      $ 5.= N.N.N.@ ; N.N..XcXN ,..                                             ",
"                        = $.d @ @ o @ + nXQ [ 3 a     a 5.a + N.N.N.N.N.; cXb V @                                               ",
"                          { $.6 @ o @ + + C $.2 #XX   X ..J N.N.N.N.N.N.; L.L.E =.                                              ",
"                        X X g.2.- o @ N.N.| g.3 #X8     LXH o.N.N.N.N.N.; T.m r N T.                                            ",
"                        .   a $.2 | + N.N.M.s $.2 ^ LX  X +XH ).N.M.N.N.N.| PXm n.N >                                           ",
"                            X nXQ G , + + N.+ G f X.^ a   X 7...| N.| N.N.N.| r m r r X                                         ",
"                      X       X C $.s N.N.+ | N.4 f +XJ O   $ p.z | N.N.N.N.N.W.N M U W @                                       ",
"                      X   X   X O 2.2.( N.+ N.zX( ^ ^ z / X   2XcXb.M.| | | N.N.# L.N N PX                                      ",
"          X     X X   X X X X X X } Q C + N.N.| N.aX5.k 7.LXX X b.cX.X| N.N.N.N.| sXm r N T.                                    ",
"X X X X X X X X X X X X X X X X X X >XQ nXN.N.| N.N.7 -X/ 7.9.X O l.p.;XN.N.zX| N.N.JXbX] N : X     X         X                 ",
"X X X X X X X X X X X X X X X X X O O 2 $.aXN.N.| 9XBXJ &.z 7.O X ; p.7.W.N.| | N.N.zXr m P P ,     X     X                     ",
"X X X X X X X X X X X X X X X X O X O = $.g.( N.W.zX| BX..*.*..XX X 4XcX~.W.N.| N.N.N.W.E M U ] @ X X X X X X X       X         ",
"X X X X X X X O X O O X O O O O O O O O *XQ l | | N.| | b.j *.o.O O O JXcXK.| | N.| | N.gX` N N u X X X X X X X X X   X         ",
"O X X X O X O O O O O O O O O O O O O $ $ A Q * | | N.( +XiXjXAXO O O $ V m 4X| N.N.N.N.| i %X` v K X X X X X X X X X X X X   X ",
"X X X O O O O O O O O O O O O O O $ $ $ $ = 2.$.lXW.| o.j &.J $ $ O O $ 0.L.L.W.| | W.| | | n.(.H.rXX X X X X X X X X X X X X X ",
"O O O O O O O O O O O O O O O O O O O O O $ } Q 2 lXo.-Xh / $ $ $ $ $ $ $ q.m V # zXzXpXN.N.=.KXw.q X X X X X X X X X X X X X X ",
"O O O O O O O O O O O O O O O O O X X O O X O >XZ 5.,X5.+X$ $ $ $ $ $ $ $ $ K.bXJX| zXN.| gXE V.s.> O O O X X X X X X X X X X X ",
"O O O O O O O O O O O $ $ $ $ $ O O O O O O $ >.2 f ^ ^ o.O O O $ $ 0.0.$ $ 0.r cXHXW.| gXE :XU 0 O - O O O X X X O X X X X X X ",
"O O O O O O O O O O O $ O $ $ $ $ $ O $ $ = ! A [ 5 k 4 8 LX$ $ O O O O $ 0.$ q.E m rXB.M :XP 0 O O O $ O O O O O X X X X X X X ",
"O O O O O O O O O O O $ O $ $ $ $ $ $ = } G #.#.>.s 5 X.6.6.LX$ O O O $ $ ; O - q.v :Xb :Xe : O O O O O O O O O O O O O O X X X ",
"O O O O O O O O O O O O O O - - O a s * ! -.[.*Xs ( eXo.8 / VX9.$ - $ - O 0.0.0.GXr E s.s.r gXX X X X O O O O O O O O O X X X X ",
"O O O O O O $ O O O O O O O O a a s * *XG ! *XSXa a s LX8 +Xb.9.$ $ - - 0.0.;XK.n.,.u W e.W u gXX X X X X X O O O X X X X X X X ",
"O O O O O O O O O O O - - a a = s 6 >.*X*XnX* s ( a s LX8 / VXaX0.( 0.0.# '.K.MXJXrX: XXW W u u T.X X X X X O X O X X X X X X X ",
"O O O O O O O O - - - - - a = s 6 * * >.* * } = 9.aXeXLX6.b.o.aX( ( ( 5X{.$XFXFXGX# ; 0.=.) W ] u > O O X X X X X X X X X X X X ",
"O O O O O O O O - - - - a = s } * * * * * } s s aXeXDXk.o.6.LX9.( ;X).{.GX$X=.GX4X| | ; T.=.W _.) : O O O X X X X X X X X X X X ",
"O O O O O - - - - - - - a s } } 6 * * * 6 SXs SXSXmXDXk.7 o.3XaX5X).2X.XGXGX.XAX# - ; ; gXi W _.) 0 O ; X X X X X X X X X X X X ",
"O O O O - - - - - - - a = } } } } } } } } SXSXSXeXmXDXDXLXLXDX).).AX{..X{.{.AX;X| | ( # /.rX) <.u : ; X X X X X X X X X X X X X ",
"- - - - - - - - - - - a s } 6 } } } s s } 6 * mXeXmXDXDXDX3XIX).AXAXAX'.'.4X;X( 0.# # /.XXrXy ) i > @ O O X X X X X X X X X X X ",
"- - - - - - - - - - - a s } < } } s s s } * mXmXmXeXeXDXDXDXIX).AXAXAXAX4X;X# # # gX/.XXHXrXu u rX> ; ; X X X X X X X X X X X X ",
"- - - - - - - - - - - a s } } } } s aXs s * mXwXmXmXSXDXU.DX).).).AXAX4X5X;X# # gX/.XXsXHXrXi i B.> ; ; X X X X X X X X X X X X ",
"- - - - - - - - - - - a s } } } s s = s } mXmXmXmXeXSXIXU.IX).).).).5X5X;X;X;X/./.T.XXHXHXHXrXrXgX; ; ; X X X X X X X X X X X X "
};
