/* XPM */
static char *result[] = {
/* columns rows colors chars-per-pixel */
"64 64 17 1 ",
"  c #938D43",
". c #958F47",
"X c #97914C",
"o c #9A9454",
"O c #9E985A",
"+ c #A39D64",
"@ c #A7A16C",
"# c #ACA674",
"$ c #B3AE7F",
"% c #B8B488",
"& c #C1BC93",
"* c #C7C39C",
"= c #CECAA6",
"- c #D7D3B2",
"; c #DFDBBB",
": c #E9E5C8",
"> c None",
/* pixels */
">>>>>>>>>>>>>>>>>>>>>>>>>>>>>>>>>>>>>>>>>>>>>>>>>>>>>>>>>>>>>>>>",
">>>>>>>>>>>>>>>>>>>>>>>>>>>>>>>>>>>>>>>>>>>>>>>>>>>>>>>>>>>>>>>>",
">...............................................................",
">OOOOOOOOOOo;;;;;;;;;;;;;;;; X$&=------==&$O ooooooooooOOOOOOOOO",
">OOOOOOOOOOo;---=------=---$ X$=*$&$$$$$$&OX X@$$$$$$#@+oooooooo",
">$$$$$$$$ Oo;-=*-*-=*-==*-$+ X&;&$&$&$&$&$OX X$;;;;;;=*&$$$$$$$$",
">-;--*&$$ Oo;-&&&&$&&&&%&&#O X$=$$$&&&&$$@OX X$;;===-;;;;;------",
">&&&&&&#@ Oo:=%&&&&&&%&$&&@O Xo&$&&$$&$&@OOX X$;*&$&$&&&$$&$&$&$",
">*%&%&$#@ oo:-&$&%&$%%%$%&$O Xo#$$&$&&$&@XXX X$;*$&$%$$$&$$%%&%$",
">**#*$%+O Xo:-$%$&&&$#$%&$+O Xoo$&&&$$$&@XXX.X$;*&$%#&%#$&$&&$#&",
">%&&%%@oo .o==&%&$&$%$%$$&@O  oOo#XXXXXXXXX .X#;;$&$#%#%$&$%#&&#",
">$$$$@Ooo .o&:&&&$$%$$$$&$O#. XoXXXXXXXXX   ooo=-$$$%%%%$$&$&&$&",
">@@@@OoXX .o$;$&$%#$$&$&$&@O. XoX..     ....oOo=*$&$&$$$@@++++++",
">OOooo    .o@;&$%###&%$$#$@+X Xoooo@#$&&&&%@XOo*$@@+++OOOOoooooo",
">     ....XOo;-$$$%%$$&#$&$OX Xo@&&;;:;--%@O Oo$@++OoooXXXXX....",
">.........XOo&-$&$#$&$$%$$@OX .X&=;-*$&$&$@X XXXXXXXXXXX..      ",
">XXXXXXXXXXOo$-&$&%$#$#$&$OOX .o&;=&$$$$$$OX X..........XXXXXXXX",
">OoXXXXXXXXOo@=$&%$&%&$&$&O@o .o&:&$$&$&$&OX XoOOOO oooooooooooo",
">%%%%%%%%%. Oo==%$$%%#$$$$@OO  o&:$$&&$&$$OX X@&;;OoO#%%%%%%%%%%",
">------**@X Oo$=$&$#$$$&$@$@o  o&-&&$$&$&$OX X&;=& o#=;;;;;;;;;;",
">&%$&$&&@@X Oo@%&$&&$&@$@O@Oo  o&-&$@@@@OOOX X;=&$ o%;-*********",
">&$&$&$$@@X oOo%%@@@@OO@O@Oo.  .&$@$@XXXXXXX +;*$$ o%;*&%&%&$%$%",
">&%$&$&&@OX oOo+OOOOoooX.      .$@XXX        +;&&$ o%;&$%$%$%##$",
">&$&$&$$@OX oOo....            .XOX    ......$;&&$ o$=$&%&%&$%$%",
">$&##$$&@OX XOOoX        ooooooo$$%&&%$$#O.X+=;&$# o$=&$%$%$%##$",
">$$##$&$+oX X$;;;;=*&$+Xo+#&&==-;;;;;;;-%+ X#;=&&@ o#=&%$&$&$##$",
">$$&&$$$+oX X;=&%%%&%%XOo#-::;=*========@O X$;*%$@ o@=$&%$%$$&$&",
">%&$$&$@OXX X;&$%&&%%& Oo%:=$&$&%$&%&%$$+o X$:&$&O oo$@+OOO++@#$",
">+++++OoXXX X;&&&$&$&+ oo%:&&&$#&&$$$&$&Oo X$:&&%O O XXoooooooOO",
">OooXXX    .X;$&$&*$#+ oo%:$&$%&$$#$&%$$Oo X$:$&$O OX         XX",
">      ...ooo;&%$&$&#+ Xo%:%$&$$#$#$$$&$Oo X$:&&$O OXXXXXXX...  ",
">o++@$%$$$$o ;&#%$&$#+X o%:&$$$#$#$&#$$&Oo X$:%&&O OoooOOOOOOOXX",
">+$*;;;---&@ ;&&$#$&$+X o$;=%$&$&##$#$&$OX X$;$$&O o&;;*$+Oooooo",
">+*--=*&&%&o :%%&#$&%@o o#-=&$$#$##&$&$#OX.X$;&%$O o;$$*;;;;;;%X",
">+;*&&$&%&$@ :%&%&&$&@o XO=:&&%$&$&##$&@OX.X$;$&$O o;$$&&$$&$$#X",
">+;*%$&$&$&@ :%$%&$&$+O .O&:&&&$$#$##&$@o..o$-&&$O o;&&$$&&$&$+X",
">+;&%&$&&#&O ;&&&%$%&+O .O$:=&$&$$%$&$&+o .o$-&$&O o-&$&&$$&$&+X",
">+;*&$$&%&$O ;=#%#&&%+O  o@-=&$#%$$%$%$+X .o$-$&OO o=&&&$&$$&&OX",
">+;*$&&$&$&O =;$%&$%$+O  oO*;&$&$&$&$$+OX Xo#&#OXXXo&&$&&$&$$&OX",
">+;*&&$&%&$O *;#&$$$&@O  XO$=&$#++OooXXXX XoOXXXXoo @OoOOOOOOOOX",
">+;*$&&$&#&O %;%#&&$$@O  XOo$$+OoX        XoOooOOOOO            ",
">+;*$$%&$&$O #;&%&$$&+O  .ooX...  ........XoOOoooooooooXXXXXXXXX",
">+;*&&$%&%&O O:$&$$&$+O  .oooXXXXXooooooooooOO#################X",
">+;*$$&$&$@O o:&$$#$&@O. .X+#############$$%%&**======*=======#X",
">+-*&&%&$&O .o:&$&$$$+O.  X#===============-;;:::::::::::;;--%+.",
">+-*%&$&&$O .o:$&#%$&+OX   #=-::::::;::;::::::;;-=*===&==*==*#O.",
">+=*&$&$$$O Xo;&&$&$$+OX   #=-*=====&==&===**&%%$$&$&$$$&$&$&@O.",
">o=$$&$@@@O Xo-$$&$&$@OX   +=;*$$$$$$&$&&%$%&&&%#%$&&%$&$&&&$@O.",
">o*&&&$OOO .Xo*&$$&$$@OX   o=;=$%$&$&$%&$$%&&$%$%$$#$%%$&$&$&@O.",
">o###OOOOO .Xo%%&$$$@+OX   .*;-&&$$$$#$$&$%$&%#$$&$$&$##$#%$%@O ",
">oX   OOOO Xoo#++++++OOX   .&;-$$&$&$$&$##%%$&$&%$&$$#$$$&$##@O ",
">OOOoX  . .XoXXXXXXXXXXX   .$-**$$&$&#$$%#%$%#&$$#$$$$&$#$%##@O ",
">ooooooo...XoXX            .$%@@@@@@@&$&&$$#$$$#$$&$&$$&$$$$%@O ",
">o#&&&&%$+ooOXX............XOoXX.....O@@#$###################+O ",
">o&=;;;;;=&&$@+OoXXXXXXXXXXoOooXXXXXX.oOOOOOOOOOOOOOOOOOOOOOOO .",
">o&;&&$=-;;;=&&&&&&&&$$$##@++OOoooooXX.............           .X",
">o&;&&&**$&=;;;;;;;;;;;;--==&&&&&$oOoXXXXXXXXX...............XXo",
">o&;&$&##&%$#&$&$&$&&$&$&&*=;;;-=#XoOoooXXXXXXXXXXXXXXXXXXXXXooo",
">o&-&&&%&$%$%&$$&##$&#$$$&$&$&&&#+ XOo&;;&#oooOOOooooooooooooOOO",
">o&=&$&##%&$&&%$#&#$#%$&$&$&$&&&+O Xoo;&&;;;;*OOo*;;;;;;;-=*%#oo",
">o&$++++++++++++++++++++++++++++OOX Xo;*******+O#;&&&$&$&%&$&;% ",
">o$+XXXXXXXXXXXXXXXXXXXXXXXXXXXXXXX .o*&**%+%$+o*&$&$&&&$&$&$&O ",
">oX                                 .oXoXO+++++o;&%%&&%%&%&&$$O ",
">OoXXX...............................XOOXX     XOOOOOOOOOOOOOOO "
};
